ncols        23
nrows        17
xllcorner    5165373.967557672411
yllcorner    3907485.103055199608
cellsize     5000.000000000000
NODATA_value  -9999
-9.999000000000000000e+03 -9.999000000000000000e+03 -9.999000000000000000e+03 -9.999000000000000000e+03 -9.999000000000000000e+03 -9.999000000000000000e+03 -9.999000000000000000e+03 -9.999000000000000000e+03 -9.999000000000000000e+03 -9.999000000000000000e+03 -9.999000000000000000e+03 -9.999000000000000000e+03 -9.999000000000000000e+03 -9.999000000000000000e+03 -9.999000000000000000e+03 -9.999000000000000000e+03 -9.999000000000000000e+03 -9.999000000000000000e+03 -9.999000000000000000e+03 -9.999000000000000000e+03 -9.999000000000000000e+03 -9.999000000000000000e+03 -9.999000000000000000e+03
-9.999000000000000000e+03 -9.999000000000000000e+03 -9.999000000000000000e+03 -9.999000000000000000e+03 -9.999000000000000000e+03 -9.999000000000000000e+03 5.812282987931164380e-01 7.729446930223946577e-01 -9.999000000000000000e+03 -9.999000000000000000e+03 -9.999000000000000000e+03 5.372514357242723637e-01 4.321390794034226102e-01 5.872755532836083647e-01 -9.999000000000000000e+03 -9.999000000000000000e+03 -9.999000000000000000e+03 -9.999000000000000000e+03 -9.999000000000000000e+03 -9.999000000000000000e+03 -9.999000000000000000e+03 -9.999000000000000000e+03 -9.999000000000000000e+03
-9.999000000000000000e+03 -9.999000000000000000e+03 -9.999000000000000000e+03 -9.999000000000000000e+03 -9.999000000000000000e+03 -9.999000000000000000e+03 6.122920144393246833e-01 7.646324644982773755e-01 7.190119079708489069e-01 7.003066737362102501e-01 6.789445656823025477e-01 4.161142956974037688e-01 5.983929725129250032e-01 7.614145453694975973e-01 9.091927312476238976e-01 -9.999000000000000000e+03 -9.999000000000000000e+03 -9.999000000000000000e+03 -9.999000000000000000e+03 -9.999000000000000000e+03 -9.999000000000000000e+03 -9.999000000000000000e+03 -9.999000000000000000e+03
-9.999000000000000000e+03 -9.999000000000000000e+03 -9.999000000000000000e+03 -9.999000000000000000e+03 -9.999000000000000000e+03 -9.999000000000000000e+03 1.052692371673134009e+00 9.421057413896403165e-01 5.308685843955194272e-01 5.749357299476776095e-01 5.206878177338670755e-01 4.100213196622152223e-01 5.657301232384643885e-01 6.959221715827066390e-01 8.007407199505423012e-01 7.391955758728044890e-01 -9.999000000000000000e+03 -9.999000000000000000e+03 -9.999000000000000000e+03 -9.999000000000000000e+03 -9.999000000000000000e+03 -9.999000000000000000e+03 -9.999000000000000000e+03
-9.999000000000000000e+03 -9.999000000000000000e+03 -9.999000000000000000e+03 -9.999000000000000000e+03 -9.999000000000000000e+03 8.409131747960132408e-01 8.933983100842696201e-01 7.836194623530118308e-01 5.162161333573883626e-01 4.052822186740115962e-01 4.687737931443730632e-01 3.462302114067694059e-01 3.301270657589449042e-01 3.108935274759505596e-01 5.771812601267425347e-01 7.094095063695528003e-01 6.928274930391333797e-01 7.506111225945277798e-01 -9.999000000000000000e+03 -9.999000000000000000e+03 -9.999000000000000000e+03 -9.999000000000000000e+03 -9.999000000000000000e+03
-9.999000000000000000e+03 -9.999000000000000000e+03 -9.999000000000000000e+03 -9.999000000000000000e+03 1.150404954908105237e+00 1.238689258260413872e+00 8.296312404933531282e-01 7.385473641362986230e-01 6.339098805083642763e-01 4.770410299990379133e-01 5.166487632292431353e-01 4.727951161217376352e-01 2.917676027110506776e-01 2.557183089888755978e-01 4.187056780938357980e-01 4.010818702918826362e-01 3.578219589113590948e-01 6.636609792186032308e-01 7.543784157558162118e-01 -9.999000000000000000e+03 -9.999000000000000000e+03 -9.999000000000000000e+03 -9.999000000000000000e+03
-9.999000000000000000e+03 -9.999000000000000000e+03 9.727946002529477276e-01 9.958417534293891871e-01 9.843220411421138571e-01 9.461854456560632176e-01 1.063770668570269473e+00 6.427900128806777191e-01 5.786142783548545721e-01 5.516648749386322548e-01 6.264034345112586832e-01 4.048523812632304764e-01 2.712326503599044036e-01 4.841906746227171432e-01 5.079212027950165131e-01 5.395862536744615578e-01 5.673321537023575667e-01 3.512931208263752048e-01 3.440340003640141031e-01 4.792876982786568041e-01 7.833892666617863210e-01 7.377313896301442853e-01 -9.999000000000000000e+03
-9.999000000000000000e+03 1.108267534559555845e+00 1.082907895077290350e+00 1.003374441633285485e+00 9.795597333805484697e-01 8.805198135794538583e-01 8.617680732872478044e-01 5.619839998880414855e-01 3.301466512504457329e-01 4.033143822993082717e-01 4.654079073562075730e-01 7.738132234468568793e-01 8.024120027954895207e-01 8.189122424768372488e-01 8.195398376592176737e-01 5.128169796265152902e-01 5.176276308026288575e-01 3.782515884193205502e-01 8.690679007130822642e-01 7.722022634252868611e-01 7.676822149674574769e-01 8.842460868324485412e-01 -9.999000000000000000e+03
-9.999000000000000000e+03 1.134364346137246349e+00 7.392548868277395435e-01 9.836164936671211168e-01 8.866811854659123471e-01 8.992303275441819732e-01 5.258369601853810638e-01 6.701536788174252690e-01 3.190213027828346926e-01 4.276774091689100055e-01 6.632070407361475572e-01 7.303276254309861715e-01 1.134209002672435185e+00 6.139559775065355218e-01 4.701156288359764068e-01 3.609057842748867873e-01 5.646478933597375294e-01 7.569242160531133301e-01 9.230969222545820640e-01 8.544952834406248643e-01 6.782079966369182200e-01 -9.999000000000000000e+03 -9.999000000000000000e+03
-9.999000000000000000e+03 1.157624222186222296e+00 9.156135492795589581e-01 1.171237791613297663e+00 9.835287496323085188e-01 6.591323314102899289e-01 4.429294566358644158e-01 4.478611405397440737e-01 4.174942436565937665e-01 4.644010905737888106e-01 4.141092688938872723e-01 5.175167496144695845e-01 3.209644120599328132e-01 5.040070665599284405e-01 5.082619354897680575e-01 3.617624457333433186e-01 7.074001786227395172e-01 9.246512299092896070e-01 8.599026358508771173e-01 7.927572099881998735e-01 -9.999000000000000000e+03 -9.999000000000000000e+03 -9.999000000000000000e+03
-9.999000000000000000e+03 8.954437634554027747e-01 9.067168060237569271e-01 6.229802956866999919e-01 9.222656886871699600e-01 5.611799216316645245e-01 5.763471899396018783e-01 4.534288892872643806e-01 4.963313663446258239e-01 4.874555449228736292e-01 4.422010672554191335e-01 4.914270062475736833e-01 3.490752561159511380e-01 4.953268658119910350e-01 3.873753312682874927e-01 3.997985407765961008e-01 4.285097119323401094e-01 7.701524532782835220e-01 6.210124478151590743e-01 -9.999000000000000000e+03 -9.999000000000000000e+03 -9.999000000000000000e+03 -9.999000000000000000e+03
-9.999000000000000000e+03 9.908962470570796821e-01 9.718247184751287460e-01 8.332402108734241475e-01 5.787476910262235874e-01 4.294590864009163456e-01 5.352081589401788131e-01 5.895282973232669477e-01 7.250817007721617191e-01 6.375682485038649538e-01 5.834312551725406859e-01 2.591580112624678467e-01 3.912738710052695024e-01 3.983931828378128870e-01 -9.999000000000000000e+03 -9.999000000000000000e+03 -9.999000000000000000e+03 -9.999000000000000000e+03 -9.999000000000000000e+03 -9.999000000000000000e+03 -9.999000000000000000e+03 -9.999000000000000000e+03 -9.999000000000000000e+03
-9.999000000000000000e+03 1.137305568464555217e+00 -9.999000000000000000e+03 -9.999000000000000000e+03 -9.999000000000000000e+03 -9.999000000000000000e+03 -9.999000000000000000e+03 4.994855840573949046e-01 6.907485336483204508e-01 6.643308773249571031e-01 5.828413231632886271e-01 7.663541267095460574e-01 6.410776704564726813e-01 6.191965379531811919e-01 -9.999000000000000000e+03 -9.999000000000000000e+03 -9.999000000000000000e+03 -9.999000000000000000e+03 -9.999000000000000000e+03 -9.999000000000000000e+03 -9.999000000000000000e+03 -9.999000000000000000e+03 -9.999000000000000000e+03
-9.999000000000000000e+03 -9.999000000000000000e+03 -9.999000000000000000e+03 -9.999000000000000000e+03 -9.999000000000000000e+03 -9.999000000000000000e+03 -9.999000000000000000e+03 -9.999000000000000000e+03 6.585666613283279736e-01 6.650220124221388751e-01 5.444163260258315651e-01 7.521139637568996505e-01 5.651540600853089957e-01 -9.999000000000000000e+03 -9.999000000000000000e+03 -9.999000000000000000e+03 -9.999000000000000000e+03 -9.999000000000000000e+03 -9.999000000000000000e+03 -9.999000000000000000e+03 -9.999000000000000000e+03 -9.999000000000000000e+03 -9.999000000000000000e+03
-9.999000000000000000e+03 -9.999000000000000000e+03 -9.999000000000000000e+03 -9.999000000000000000e+03 -9.999000000000000000e+03 -9.999000000000000000e+03 -9.999000000000000000e+03 -9.999000000000000000e+03 5.331220497082768128e-01 5.598396147370153786e-01 6.539658914035508808e-01 6.404353245616366541e-01 3.141826985513805903e-01 -9.999000000000000000e+03 -9.999000000000000000e+03 -9.999000000000000000e+03 -9.999000000000000000e+03 -9.999000000000000000e+03 -9.999000000000000000e+03 -9.999000000000000000e+03 -9.999000000000000000e+03 -9.999000000000000000e+03 -9.999000000000000000e+03
-9.999000000000000000e+03 -9.999000000000000000e+03 -9.999000000000000000e+03 -9.999000000000000000e+03 -9.999000000000000000e+03 -9.999000000000000000e+03 -9.999000000000000000e+03 -9.999000000000000000e+03 -9.999000000000000000e+03 8.906367904883221165e-01 8.462408272421821920e-01 8.414624132256010025e-01 4.497468174228894111e-01 -9.999000000000000000e+03 -9.999000000000000000e+03 -9.999000000000000000e+03 -9.999000000000000000e+03 -9.999000000000000000e+03 -9.999000000000000000e+03 -9.999000000000000000e+03 -9.999000000000000000e+03 -9.999000000000000000e+03 -9.999000000000000000e+03
-9.999000000000000000e+03 -9.999000000000000000e+03 -9.999000000000000000e+03 -9.999000000000000000e+03 -9.999000000000000000e+03 -9.999000000000000000e+03 -9.999000000000000000e+03 -9.999000000000000000e+03 -9.999000000000000000e+03 -9.999000000000000000e+03 -9.999000000000000000e+03 -9.999000000000000000e+03 -9.999000000000000000e+03 -9.999000000000000000e+03 -9.999000000000000000e+03 -9.999000000000000000e+03 -9.999000000000000000e+03 -9.999000000000000000e+03 -9.999000000000000000e+03 -9.999000000000000000e+03 -9.999000000000000000e+03 -9.999000000000000000e+03 -9.999000000000000000e+03
