ncols        23
nrows        17
xllcorner    5165373.967557672411
yllcorner    3907485.103055199608
cellsize     5000.000000000000
NODATA_value  -9999
-9.999000000000000000e+03 -9.999000000000000000e+03 -9.999000000000000000e+03 -9.999000000000000000e+03 -9.999000000000000000e+03 -9.999000000000000000e+03 -9.999000000000000000e+03 -9.999000000000000000e+03 -9.999000000000000000e+03 -9.999000000000000000e+03 -9.999000000000000000e+03 -9.999000000000000000e+03 -9.999000000000000000e+03 -9.999000000000000000e+03 -9.999000000000000000e+03 -9.999000000000000000e+03 -9.999000000000000000e+03 -9.999000000000000000e+03 -9.999000000000000000e+03 -9.999000000000000000e+03 -9.999000000000000000e+03 -9.999000000000000000e+03 -9.999000000000000000e+03
-9.999000000000000000e+03 -9.999000000000000000e+03 -9.999000000000000000e+03 -9.999000000000000000e+03 -9.999000000000000000e+03 -9.999000000000000000e+03 4.978004265700361586e+00 6.710146324241615723e+00 -9.999000000000000000e+03 -9.999000000000000000e+03 -9.999000000000000000e+03 4.420244150901178060e+00 3.525538327039136721e+00 4.827301770116182666e+00 -9.999000000000000000e+03 -9.999000000000000000e+03 -9.999000000000000000e+03 -9.999000000000000000e+03 -9.999000000000000000e+03 -9.999000000000000000e+03 -9.999000000000000000e+03 -9.999000000000000000e+03 -9.999000000000000000e+03
-9.999000000000000000e+03 -9.999000000000000000e+03 -9.999000000000000000e+03 -9.999000000000000000e+03 -9.999000000000000000e+03 -9.999000000000000000e+03 5.107780825453516194e+00 6.753867404613237646e+00 6.379939773521219770e+00 6.055365871433683544e+00 5.715671217812284155e+00 3.263845980119664425e+00 4.865518952044948442e+00 6.362530208238015739e+00 7.693698184460674661e+00 -9.999000000000000000e+03 -9.999000000000000000e+03 -9.999000000000000000e+03 -9.999000000000000000e+03 -9.999000000000000000e+03 -9.999000000000000000e+03 -9.999000000000000000e+03 -9.999000000000000000e+03
-9.999000000000000000e+03 -9.999000000000000000e+03 -9.999000000000000000e+03 -9.999000000000000000e+03 -9.999000000000000000e+03 -9.999000000000000000e+03 8.948586954136084515e+00 8.022378517261683939e+00 4.396221075556311142e+00 4.895067716873069408e+00 4.282471935392668350e+00 3.216931854463590756e+00 4.953402405970631861e+00 6.007571268727874170e+00 6.926194762639301672e+00 6.566814924441096046e+00 -9.999000000000000000e+03 -9.999000000000000000e+03 -9.999000000000000000e+03 -9.999000000000000000e+03 -9.999000000000000000e+03 -9.999000000000000000e+03 -9.999000000000000000e+03
-9.999000000000000000e+03 -9.999000000000000000e+03 -9.999000000000000000e+03 -9.999000000000000000e+03 -9.999000000000000000e+03 6.638706369667654705e+00 6.798599543147734181e+00 6.250476936581906173e+00 4.246633210321344443e+00 3.391004946671384079e+00 3.835599813990699047e+00 2.690965976042933860e+00 2.662110347997165949e+00 2.647835171261252896e+00 5.041045568392517495e+00 6.268791925097285223e+00 5.819821643364878838e+00 6.246862303171563546e+00 -9.999000000000000000e+03 -9.999000000000000000e+03 -9.999000000000000000e+03 -9.999000000000000000e+03 -9.999000000000000000e+03
-9.999000000000000000e+03 -9.999000000000000000e+03 -9.999000000000000000e+03 -9.999000000000000000e+03 8.540600218243001862e+00 9.612614557124789627e+00 6.261762585621296395e+00 6.071092861278276409e+00 5.407029011442712196e+00 3.913762129940159262e+00 4.109351536339003630e+00 3.482987759789026860e+00 2.205931089249441257e+00 2.042854957463073440e+00 3.558020187250772182e+00 3.400904256207207155e+00 2.939747720638173689e+00 5.490894781919070766e+00 6.141644709832595694e+00 -9.999000000000000000e+03 -9.999000000000000000e+03 -9.999000000000000000e+03 -9.999000000000000000e+03
-9.999000000000000000e+03 -9.999000000000000000e+03 7.682582996869431469e+00 7.766321220239811751e+00 7.888688473095937681e+00 7.906600142764164119e+00 9.093689828777206330e+00 5.602231830571316351e+00 4.930975963166446263e+00 4.536549694952525691e+00 5.168135756898151634e+00 3.225581560404665815e+00 2.086951760204133421e+00 3.901682999771161509e+00 4.170754197642411398e+00 4.524394013082980948e+00 4.667326678857238065e+00 2.866669802422538549e+00 2.690598284186569877e+00 3.224582018502408776e+00 4.820894107448664201e+00 4.681789981415649393e+00 -9.999000000000000000e+03
-9.999000000000000000e+03 8.201731132623578446e+00 8.910482981801852276e+00 7.810648242595267909e+00 7.863286041998900799e+00 7.425508933807631884e+00 7.241693924688505923e+00 4.789081042524179210e+00 2.613111699932727738e+00 3.068629555196714875e+00 3.715259633254003546e+00 6.480012328977641900e+00 6.507104159091627871e+00 6.823743987122893095e+00 6.682510608709105959e+00 4.241541671670446156e+00 4.365751588646519465e+00 3.156801191907513626e+00 6.970166889369308727e+00 5.921293218149664028e+00 5.362294493791957883e+00 5.528536633504409714e+00 -9.999000000000000000e+03
-9.999000000000000000e+03 8.114744833948750014e+00 5.939065313824182013e+00 7.739499376915880191e+00 7.135104957365302702e+00 7.793882112743516721e+00 4.752670223660057758e+00 6.147095612063436576e+00 2.672844676526332730e+00 3.209390142943907342e+00 4.998284267903494005e+00 5.737638225112837276e+00 8.653004239400301500e+00 4.902444418068384380e+00 3.922426200451630152e+00 3.077000150452801730e+00 4.683780585734945490e+00 5.997592065760533053e+00 7.634636199098046916e+00 6.929839402285018046e+00 5.152206631852696006e+00 -9.999000000000000000e+03 -9.999000000000000000e+03
-9.999000000000000000e+03 8.181157611279658681e+00 7.270834637158546165e+00 9.473128372912304584e+00 8.366614258443373586e+00 5.908020667361699729e+00 3.994390214308998210e+00 4.145012872831429718e+00 3.700970394495920246e+00 3.845821531314189912e+00 3.175696411308048361e+00 4.081059454469921022e+00 2.501411345456864055e+00 4.098544335901523006e+00 4.337080818660020043e+00 3.054930275821310381e+00 5.548776944577338277e+00 7.016494872604131849e+00 6.880690817415657357e+00 6.282555536913349670e+00 -9.999000000000000000e+03 -9.999000000000000000e+03 -9.999000000000000000e+03
-9.999000000000000000e+03 6.147261637405765811e+00 7.047967738674899785e+00 4.906950238170758816e+00 7.873617271654778094e+00 5.188639221356550202e+00 5.353682497323594802e+00 4.115818532460727042e+00 4.353650124248719777e+00 4.184036578799766204e+00 3.715727835860073380e+00 4.082294299637563739e+00 2.769562088922232324e+00 4.022358298468866167e+00 3.183718607759548735e+00 3.376265596600843022e+00 3.645207574013633600e+00 6.804361182447831169e+00 5.367566384177235861e+00 -9.999000000000000000e+03 -9.999000000000000000e+03 -9.999000000000000000e+03 -9.999000000000000000e+03
-9.999000000000000000e+03 6.072495139949265486e+00 7.490287324842879180e+00 6.751785171885378745e+00 4.532135695554274868e+00 3.588949234682354383e+00 4.796695743245126486e+00 5.218522915431902831e+00 6.229486109472106570e+00 5.534869346603290552e+00 4.999920058114677879e+00 2.101083642736556012e+00 3.131821275838011953e+00 3.247431480467532605e+00 -9.999000000000000000e+03 -9.999000000000000000e+03 -9.999000000000000000e+03 -9.999000000000000000e+03 -9.999000000000000000e+03 -9.999000000000000000e+03 -9.999000000000000000e+03 -9.999000000000000000e+03 -9.999000000000000000e+03
-9.999000000000000000e+03 6.278628711016916775e+00 -9.999000000000000000e+03 -9.999000000000000000e+03 -9.999000000000000000e+03 -9.999000000000000000e+03 -9.999000000000000000e+03 4.525044018874885055e+00 5.962239451595562123e+00 5.736706744667151803e+00 5.007034355339781584e+00 6.211567781341265970e+00 5.200533471851711553e+00 4.711431628832531970e+00 -9.999000000000000000e+03 -9.999000000000000000e+03 -9.999000000000000000e+03 -9.999000000000000000e+03 -9.999000000000000000e+03 -9.999000000000000000e+03 -9.999000000000000000e+03 -9.999000000000000000e+03 -9.999000000000000000e+03
-9.999000000000000000e+03 -9.999000000000000000e+03 -9.999000000000000000e+03 -9.999000000000000000e+03 -9.999000000000000000e+03 -9.999000000000000000e+03 -9.999000000000000000e+03 -9.999000000000000000e+03 5.724698588448416281e+00 5.995496555661768312e+00 4.637857773477573886e+00 6.052101653381400936e+00 4.200182673963133162e+00 -9.999000000000000000e+03 -9.999000000000000000e+03 -9.999000000000000000e+03 -9.999000000000000000e+03 -9.999000000000000000e+03 -9.999000000000000000e+03 -9.999000000000000000e+03 -9.999000000000000000e+03 -9.999000000000000000e+03 -9.999000000000000000e+03
-9.999000000000000000e+03 -9.999000000000000000e+03 -9.999000000000000000e+03 -9.999000000000000000e+03 -9.999000000000000000e+03 -9.999000000000000000e+03 -9.999000000000000000e+03 -9.999000000000000000e+03 4.523768348318435883e+00 4.799033272788486570e+00 5.472661933324452832e+00 5.043462436128523407e+00 2.323601651639966903e+00 -9.999000000000000000e+03 -9.999000000000000000e+03 -9.999000000000000000e+03 -9.999000000000000000e+03 -9.999000000000000000e+03 -9.999000000000000000e+03 -9.999000000000000000e+03 -9.999000000000000000e+03 -9.999000000000000000e+03 -9.999000000000000000e+03
-9.999000000000000000e+03 -9.999000000000000000e+03 -9.999000000000000000e+03 -9.999000000000000000e+03 -9.999000000000000000e+03 -9.999000000000000000e+03 -9.999000000000000000e+03 -9.999000000000000000e+03 -9.999000000000000000e+03 7.628337330200753108e+00 7.346924623190213666e+00 7.234721643312004069e+00 3.607843226987901275e+00 -9.999000000000000000e+03 -9.999000000000000000e+03 -9.999000000000000000e+03 -9.999000000000000000e+03 -9.999000000000000000e+03 -9.999000000000000000e+03 -9.999000000000000000e+03 -9.999000000000000000e+03 -9.999000000000000000e+03 -9.999000000000000000e+03
-9.999000000000000000e+03 -9.999000000000000000e+03 -9.999000000000000000e+03 -9.999000000000000000e+03 -9.999000000000000000e+03 -9.999000000000000000e+03 -9.999000000000000000e+03 -9.999000000000000000e+03 -9.999000000000000000e+03 -9.999000000000000000e+03 -9.999000000000000000e+03 -9.999000000000000000e+03 -9.999000000000000000e+03 -9.999000000000000000e+03 -9.999000000000000000e+03 -9.999000000000000000e+03 -9.999000000000000000e+03 -9.999000000000000000e+03 -9.999000000000000000e+03 -9.999000000000000000e+03 -9.999000000000000000e+03 -9.999000000000000000e+03 -9.999000000000000000e+03
