ncols        23
nrows        17
xllcorner    5165373.967557672411
yllcorner    3907485.103055199608
cellsize     5000.000000000000
NODATA_value  -9999
-9.999000000000000000e+03 -9.999000000000000000e+03 -9.999000000000000000e+03 -9.999000000000000000e+03 -9.999000000000000000e+03 -9.999000000000000000e+03 -9.999000000000000000e+03 -9.999000000000000000e+03 -9.999000000000000000e+03 -9.999000000000000000e+03 -9.999000000000000000e+03 -9.999000000000000000e+03 -9.999000000000000000e+03 -9.999000000000000000e+03 -9.999000000000000000e+03 -9.999000000000000000e+03 -9.999000000000000000e+03 -9.999000000000000000e+03 -9.999000000000000000e+03 -9.999000000000000000e+03 -9.999000000000000000e+03 -9.999000000000000000e+03 -9.999000000000000000e+03
-9.999000000000000000e+03 -9.999000000000000000e+03 -9.999000000000000000e+03 -9.999000000000000000e+03 -9.999000000000000000e+03 -9.999000000000000000e+03 2.988144179586260307e+01 4.012141462764238042e+01 -9.999000000000000000e+03 -9.999000000000000000e+03 -9.999000000000000000e+03 2.698638674143143490e+01 2.084526759117037642e+01 2.752948790659477751e+01 -9.999000000000000000e+03 -9.999000000000000000e+03 -9.999000000000000000e+03 -9.999000000000000000e+03 -9.999000000000000000e+03 -9.999000000000000000e+03 -9.999000000000000000e+03 -9.999000000000000000e+03 -9.999000000000000000e+03
-9.999000000000000000e+03 -9.999000000000000000e+03 -9.999000000000000000e+03 -9.999000000000000000e+03 -9.999000000000000000e+03 -9.999000000000000000e+03 2.902365353734041520e+01 3.982318648732479005e+01 3.900632104787852228e+01 3.709187319675374539e+01 3.550649927818211182e+01 2.056795334121471441e+01 2.991616350009764602e+01 3.659922949540124648e+01 4.309450682231135943e+01 -9.999000000000000000e+03 -9.999000000000000000e+03 -9.999000000000000000e+03 -9.999000000000000000e+03 -9.999000000000000000e+03 -9.999000000000000000e+03 -9.999000000000000000e+03 -9.999000000000000000e+03
-9.999000000000000000e+03 -9.999000000000000000e+03 -9.999000000000000000e+03 -9.999000000000000000e+03 -9.999000000000000000e+03 -9.999000000000000000e+03 5.032200720714510567e+01 4.766632382976175109e+01 2.639082699619380179e+01 2.930877217334937868e+01 2.706444370537283817e+01 2.074661017911419592e+01 3.100878708131763517e+01 3.632638349020372459e+01 4.137303933729907612e+01 3.894057688019957908e+01 -9.999000000000000000e+03 -9.999000000000000000e+03 -9.999000000000000000e+03 -9.999000000000000000e+03 -9.999000000000000000e+03 -9.999000000000000000e+03 -9.999000000000000000e+03
-9.999000000000000000e+03 -9.999000000000000000e+03 -9.999000000000000000e+03 -9.999000000000000000e+03 -9.999000000000000000e+03 3.769636877612004611e+01 3.889239333792612285e+01 3.630410413099829725e+01 2.437977342090879063e+01 2.026492410027095303e+01 2.413199226653951612e+01 1.654957408668247965e+01 1.648111622989069502e+01 1.625468154533602316e+01 3.114844339448690747e+01 3.768108190022144299e+01 3.519002994991252109e+01 3.790313417967703202e+01 -9.999000000000000000e+03 -9.999000000000000000e+03 -9.999000000000000000e+03 -9.999000000000000000e+03 -9.999000000000000000e+03
-9.999000000000000000e+03 -9.999000000000000000e+03 -9.999000000000000000e+03 -9.999000000000000000e+03 4.967898124277022021e+01 5.633899524872153108e+01 3.700219645099617338e+01 3.648592308716878563e+01 3.248721510440748972e+01 2.340970047765922502e+01 2.465554222062297995e+01 2.034972698150421166e+01 1.302960547467379371e+01 1.239358274617146272e+01 2.165082048439575502e+01 2.018927605589205143e+01 1.779385596470766018e+01 3.419266210249634952e+01 3.778822661525850890e+01 -9.999000000000000000e+03 -9.999000000000000000e+03 -9.999000000000000000e+03 -9.999000000000000000e+03
-9.999000000000000000e+03 -9.999000000000000000e+03 4.206087456495406940e+01 4.459937419835520700e+01 4.637847382935090224e+01 4.682075978602094324e+01 5.399016384853207740e+01 3.343644698335796051e+01 2.863526522160585586e+01 2.642324842022640752e+01 3.132251780584200773e+01 1.977805198950359156e+01 1.270791038174436416e+01 2.327238719720286397e+01 2.416305256080667618e+01 2.609767656981952300e+01 2.833334543663492155e+01 1.757150478115335801e+01 1.610710030450335140e+01 1.900836772094994487e+01 2.865640755395817152e+01 2.871994551791080852e+01 -9.999000000000000000e+03
-9.999000000000000000e+03 3.906188851316467492e+01 4.730980709563771569e+01 4.388442952617158710e+01 4.533965887913080905e+01 4.387066302646486804e+01 4.320072399750994663e+01 2.850802731518533406e+01 1.533814371196541693e+01 1.791497575129831077e+01 2.222720242255325829e+01 3.978333694315934110e+01 3.897670190323594852e+01 3.967930112890143590e+01 3.775864930471691139e+01 2.421392183513814444e+01 2.604094151370410160e+01 1.887305598968629994e+01 4.139188513163703931e+01 3.475868781327008605e+01 3.225059013052045032e+01 3.454978417830430004e+01 -9.999000000000000000e+03
-9.999000000000000000e+03 3.792290851391010875e+01 3.151497586709779242e+01 4.413737807570807803e+01 4.197199873824298066e+01 4.666422221675329496e+01 2.890922978177219349e+01 3.669874083637659368e+01 1.598867207863230711e+01 1.851073138480849067e+01 2.834247148619618173e+01 3.341106878197372509e+01 4.941194336063398396e+01 2.822856708971262307e+01 2.211982870640924403e+01 1.757974614390996493e+01 2.726540464759943561e+01 3.437524464342308761e+01 4.463583799211707515e+01 4.105551757182165318e+01 3.095529209090374323e+01 -9.999000000000000000e+03 -9.999000000000000000e+03
-9.999000000000000000e+03 3.728566121705213732e+01 3.818954298413741810e+01 5.226669568186768799e+01 4.821393342430869922e+01 3.478154012930418304e+01 2.348633443811670674e+01 2.389655091826232436e+01 2.193756644455348592e+01 2.266333218737510791e+01 1.798609532633680885e+01 2.365385617950503416e+01 1.441461938240759189e+01 2.351840191849807482e+01 2.455919607230447710e+01 1.740866279891562840e+01 3.139060376293551613e+01 3.936701108748353306e+01 3.986026649262108634e+01 3.647819995506954172e+01 -9.999000000000000000e+03 -9.999000000000000000e+03 -9.999000000000000000e+03
-9.999000000000000000e+03 2.734302775807044839e+01 3.604817519948542071e+01 2.695572925124769625e+01 4.561949654013692879e+01 3.040697150265960502e+01 3.150788399662980410e+01 2.394827502229881588e+01 2.533634245506908300e+01 2.449978401197680000e+01 2.201342390478067301e+01 2.415937646175092723e+01 1.641351033868821219e+01 2.341445670656019828e+01 1.840988684731390990e+01 1.930619895820255749e+01 2.107183186405792696e+01 3.932962446133763024e+01 3.074884047965493039e+01 -9.999000000000000000e+03 -9.999000000000000000e+03 -9.999000000000000000e+03 -9.999000000000000000e+03
-9.999000000000000000e+03 2.489365602108158626e+01 3.588589550293616526e+01 3.669709147172485331e+01 2.602302134784131837e+01 2.092002805323999581e+01 2.814855934943407334e+01 3.054212417508830413e+01 3.654257966682440184e+01 3.332305922576139068e+01 3.062473699965477181e+01 1.238024913949178440e+01 1.793049368563375268e+01 1.839992635854558500e+01 -9.999000000000000000e+03 -9.999000000000000000e+03 -9.999000000000000000e+03 -9.999000000000000000e+03 -9.999000000000000000e+03 -9.999000000000000000e+03 -9.999000000000000000e+03 -9.999000000000000000e+03 -9.999000000000000000e+03
-9.999000000000000000e+03 2.489096732456354388e+01 -9.999000000000000000e+03 -9.999000000000000000e+03 -9.999000000000000000e+03 -9.999000000000000000e+03 -9.999000000000000000e+03 2.681308923429494584e+01 3.502712448625716490e+01 3.395890347578711044e+01 2.945208616485100350e+01 3.555645128433480551e+01 2.884963995209566079e+01 2.541780467648622377e+01 -9.999000000000000000e+03 -9.999000000000000000e+03 -9.999000000000000000e+03 -9.999000000000000000e+03 -9.999000000000000000e+03 -9.999000000000000000e+03 -9.999000000000000000e+03 -9.999000000000000000e+03 -9.999000000000000000e+03
-9.999000000000000000e+03 -9.999000000000000000e+03 -9.999000000000000000e+03 -9.999000000000000000e+03 -9.999000000000000000e+03 -9.999000000000000000e+03 -9.999000000000000000e+03 -9.999000000000000000e+03 3.324152209949800607e+01 3.500176845883171950e+01 2.696765219972188277e+01 3.461248788613679039e+01 2.288693638966176280e+01 -9.999000000000000000e+03 -9.999000000000000000e+03 -9.999000000000000000e+03 -9.999000000000000000e+03 -9.999000000000000000e+03 -9.999000000000000000e+03 -9.999000000000000000e+03 -9.999000000000000000e+03 -9.999000000000000000e+03 -9.999000000000000000e+03
-9.999000000000000000e+03 -9.999000000000000000e+03 -9.999000000000000000e+03 -9.999000000000000000e+03 -9.999000000000000000e+03 -9.999000000000000000e+03 -9.999000000000000000e+03 -9.999000000000000000e+03 2.643652858132715622e+01 2.781000304079093866e+01 3.194509825839330830e+01 2.926178608046166829e+01 1.282357851584363395e+01 -9.999000000000000000e+03 -9.999000000000000000e+03 -9.999000000000000000e+03 -9.999000000000000000e+03 -9.999000000000000000e+03 -9.999000000000000000e+03 -9.999000000000000000e+03 -9.999000000000000000e+03 -9.999000000000000000e+03 -9.999000000000000000e+03
-9.999000000000000000e+03 -9.999000000000000000e+03 -9.999000000000000000e+03 -9.999000000000000000e+03 -9.999000000000000000e+03 -9.999000000000000000e+03 -9.999000000000000000e+03 -9.999000000000000000e+03 -9.999000000000000000e+03 4.304263510322530095e+01 4.262220944524398192e+01 4.216102346837678994e+01 2.096194426797496391e+01 -9.999000000000000000e+03 -9.999000000000000000e+03 -9.999000000000000000e+03 -9.999000000000000000e+03 -9.999000000000000000e+03 -9.999000000000000000e+03 -9.999000000000000000e+03 -9.999000000000000000e+03 -9.999000000000000000e+03 -9.999000000000000000e+03
-9.999000000000000000e+03 -9.999000000000000000e+03 -9.999000000000000000e+03 -9.999000000000000000e+03 -9.999000000000000000e+03 -9.999000000000000000e+03 -9.999000000000000000e+03 -9.999000000000000000e+03 -9.999000000000000000e+03 -9.999000000000000000e+03 -9.999000000000000000e+03 -9.999000000000000000e+03 -9.999000000000000000e+03 -9.999000000000000000e+03 -9.999000000000000000e+03 -9.999000000000000000e+03 -9.999000000000000000e+03 -9.999000000000000000e+03 -9.999000000000000000e+03 -9.999000000000000000e+03 -9.999000000000000000e+03 -9.999000000000000000e+03 -9.999000000000000000e+03
