ncols        23
nrows        17
xllcorner    5165373.967557672411
yllcorner    3907485.103055199608
cellsize     5000.000000000000
NODATA_value  -9999
-9.999000000000000000e+03 -9.999000000000000000e+03 -9.999000000000000000e+03 -9.999000000000000000e+03 -9.999000000000000000e+03 -9.999000000000000000e+03 -9.999000000000000000e+03 -9.999000000000000000e+03 -9.999000000000000000e+03 -9.999000000000000000e+03 -9.999000000000000000e+03 -9.999000000000000000e+03 -9.999000000000000000e+03 -9.999000000000000000e+03 -9.999000000000000000e+03 -9.999000000000000000e+03 -9.999000000000000000e+03 -9.999000000000000000e+03 -9.999000000000000000e+03 -9.999000000000000000e+03 -9.999000000000000000e+03 -9.999000000000000000e+03 -9.999000000000000000e+03
-9.999000000000000000e+03 -9.999000000000000000e+03 -9.999000000000000000e+03 -9.999000000000000000e+03 -9.999000000000000000e+03 -9.999000000000000000e+03 3.320160199540289181e+00 4.457934958626931454e+00 -9.999000000000000000e+03 -9.999000000000000000e+03 -9.999000000000000000e+03 2.998487415714603976e+00 2.316140843463375010e+00 3.058831989621642045e+00 -9.999000000000000000e+03 -9.999000000000000000e+03 -9.999000000000000000e+03 -9.999000000000000000e+03 -9.999000000000000000e+03 -9.999000000000000000e+03 -9.999000000000000000e+03 -9.999000000000000000e+03 -9.999000000000000000e+03
-9.999000000000000000e+03 -9.999000000000000000e+03 -9.999000000000000000e+03 -9.999000000000000000e+03 -9.999000000000000000e+03 -9.999000000000000000e+03 3.224850393037824059e+00 4.424798498591642648e+00 4.334035671986502081e+00 4.121319244083749389e+00 3.945166586464678993e+00 2.285328149023857058e+00 3.324018166677516373e+00 4.066581055044582449e+00 4.788278535812373171e+00 -9.999000000000000000e+03 -9.999000000000000000e+03 -9.999000000000000000e+03 -9.999000000000000000e+03 -9.999000000000000000e+03 -9.999000000000000000e+03 -9.999000000000000000e+03 -9.999000000000000000e+03
-9.999000000000000000e+03 -9.999000000000000000e+03 -9.999000000000000000e+03 -9.999000000000000000e+03 -9.999000000000000000e+03 -9.999000000000000000e+03 5.591334134127233568e+00 5.296258203306861034e+00 2.932314110688200248e+00 3.256530241483264199e+00 3.007160411708093228e+00 2.305178908790466163e+00 3.445420786813070624e+00 4.036264832244857992e+00 4.597004370811008656e+00 4.326730764466620194e+00 -9.999000000000000000e+03 -9.999000000000000000e+03 -9.999000000000000000e+03 -9.999000000000000000e+03 -9.999000000000000000e+03 -9.999000000000000000e+03 -9.999000000000000000e+03
-9.999000000000000000e+03 -9.999000000000000000e+03 -9.999000000000000000e+03 -9.999000000000000000e+03 -9.999000000000000000e+03 4.188485419568894308e+00 4.321377037547347477e+00 4.033789347888699695e+00 2.708863713434309872e+00 2.251658233363439177e+00 2.681332474059946236e+00 1.838841565186942084e+00 1.831235136654521867e+00 1.806075727259558228e+00 3.460938154942990064e+00 4.186786877802382456e+00 3.910003327768057702e+00 4.211459353297447805e+00 -9.999000000000000000e+03 -9.999000000000000000e+03 -9.999000000000000000e+03 -9.999000000000000000e+03 -9.999000000000000000e+03
-9.999000000000000000e+03 -9.999000000000000000e+03 -9.999000000000000000e+03 -9.999000000000000000e+03 5.519886804752246690e+00 6.259888360969059207e+00 4.111355161221797339e+00 4.053991454129865168e+00 3.609690567156387697e+00 2.601077830851024952e+00 2.739504691180331353e+00 2.261080775722689840e+00 1.447733941630421572e+00 1.377064749574606894e+00 2.405646720488417323e+00 2.243252895099117072e+00 1.977095107189740020e+00 3.799184678055149700e+00 4.198691846139834816e+00 -9.999000000000000000e+03 -9.999000000000000000e+03 -9.999000000000000000e+03 -9.999000000000000000e+03
-9.999000000000000000e+03 -9.999000000000000000e+03 4.673430507217118723e+00 4.955486022039467642e+00 5.153163758816766915e+00 5.202306642891215915e+00 5.998907094281341834e+00 3.715160775928662229e+00 3.181696135733983688e+00 2.935916491136267403e+00 3.480279756204667674e+00 2.197561332167065729e+00 1.411990042416040314e+00 2.585820799689206861e+00 2.684783617867408267e+00 2.899741841091057815e+00 3.148149492959435580e+00 1.952389420128150865e+00 1.789677811611483316e+00 2.112040857883327405e+00 3.184045283773130119e+00 3.191105057545645440e+00 -9.999000000000000000e+03
-9.999000000000000000e+03 4.340209834796074695e+00 5.256645232848635274e+00 4.876047725130176147e+00 5.037739875458978389e+00 4.874518114051651807e+00 4.800080444167771354e+00 3.167558590576148081e+00 1.704238190218379634e+00 1.990552861255367789e+00 2.469689158061473044e+00 4.420370771462149406e+00 4.330744655915105490e+00 4.408811236544604384e+00 4.195405478301879043e+00 2.690435759459793630e+00 2.893437945967122449e+00 2.097006221076255450e+00 4.599098347959671429e+00 3.862076423696676031e+00 3.583398903391161294e+00 3.838864908700478029e+00 -9.999000000000000000e+03
-9.999000000000000000e+03 4.213656501545567146e+00 3.501663985233088194e+00 4.904153119523120274e+00 4.663555415360331580e+00 5.184913579639254699e+00 3.212136642419132659e+00 4.077637870708509915e+00 1.776519119848034123e+00 2.056747931645387606e+00 3.149163498466242217e+00 3.712340975774858443e+00 5.490215928959331748e+00 3.136507454412513773e+00 2.457758745156582769e+00 1.953305127101107264e+00 3.029489405288826376e+00 3.819471627047009488e+00 4.959537554679674720e+00 4.561724174646850649e+00 3.439476898989304754e+00 -9.999000000000000000e+03 -9.999000000000000000e+03
-9.999000000000000000e+03 4.142851246339126270e+00 4.243282553793046752e+00 5.807410631318631999e+00 5.357103713812077395e+00 3.864615569922686955e+00 2.609592715346300995e+00 2.655172324251369620e+00 2.437507382728165251e+00 2.518148020819456434e+00 1.998455036259645601e+00 2.628206242167225870e+00 1.601624375823065716e+00 2.613155768722008609e+00 2.728799563589386246e+00 1.934295866546180909e+00 3.487844862548390434e+00 4.374112343053726093e+00 4.428918499180120705e+00 4.053133328341059993e+00 -9.999000000000000000e+03 -9.999000000000000000e+03 -9.999000000000000000e+03
-9.999000000000000000e+03 3.038114195341161228e+00 4.005352799942824227e+00 2.995081027916410399e+00 5.068832948904103297e+00 3.378552389184400706e+00 3.500875999625534085e+00 2.660919446922090703e+00 2.815149161674342704e+00 2.722198223552977581e+00 2.445935989420074730e+00 2.684375162416769545e+00 1.823723370965356860e+00 2.601606300728910970e+00 2.045542983034878581e+00 2.145133217578061746e+00 2.341314651561991589e+00 4.369958273481959310e+00 3.416537831072770093e+00 -9.999000000000000000e+03 -9.999000000000000000e+03 -9.999000000000000000e+03 -9.999000000000000000e+03
-9.999000000000000000e+03 2.765961780120176350e+00 3.987321722548462510e+00 4.077454607969428046e+00 2.891446816426813005e+00 2.324447561471110646e+00 3.127617705492674816e+00 3.393569352787589644e+00 4.060286629647155365e+00 3.702562136195709730e+00 3.402748555517197016e+00 1.375583237721309526e+00 1.992277076181528050e+00 2.044436262060620457e+00 -9.999000000000000000e+03 -9.999000000000000000e+03 -9.999000000000000000e+03 -9.999000000000000000e+03 -9.999000000000000000e+03 -9.999000000000000000e+03 -9.999000000000000000e+03 -9.999000000000000000e+03 -9.999000000000000000e+03
-9.999000000000000000e+03 2.765663036062615987e+00 -9.999000000000000000e+03 -9.999000000000000000e+03 -9.999000000000000000e+03 -9.999000000000000000e+03 -9.999000000000000000e+03 2.979232137143883019e+00 3.891902720695240347e+00 3.773211497309679086e+00 3.272454018316778068e+00 3.950716809370534044e+00 3.205515550232851396e+00 2.824200519609580518e+00 -9.999000000000000000e+03 -9.999000000000000000e+03 -9.999000000000000000e+03 -9.999000000000000000e+03 -9.999000000000000000e+03 -9.999000000000000000e+03 -9.999000000000000000e+03 -9.999000000000000000e+03 -9.999000000000000000e+03
-9.999000000000000000e+03 -9.999000000000000000e+03 -9.999000000000000000e+03 -9.999000000000000000e+03 -9.999000000000000000e+03 -9.999000000000000000e+03 -9.999000000000000000e+03 -9.999000000000000000e+03 3.693502455499778847e+00 3.889085384314635352e+00 2.996405799969097838e+00 3.845831987348532266e+00 2.542992932184640065e+00 -9.999000000000000000e+03 -9.999000000000000000e+03 -9.999000000000000000e+03 -9.999000000000000000e+03 -9.999000000000000000e+03 -9.999000000000000000e+03 -9.999000000000000000e+03 -9.999000000000000000e+03 -9.999000000000000000e+03 -9.999000000000000000e+03
-9.999000000000000000e+03 -9.999000000000000000e+03 -9.999000000000000000e+03 -9.999000000000000000e+03 -9.999000000000000000e+03 -9.999000000000000000e+03 -9.999000000000000000e+03 -9.999000000000000000e+03 2.937392064591906493e+00 3.090000337865659752e+00 3.549455362043700823e+00 3.251309564495740823e+00 1.424842057315959254e+00 -9.999000000000000000e+03 -9.999000000000000000e+03 -9.999000000000000000e+03 -9.999000000000000000e+03 -9.999000000000000000e+03 -9.999000000000000000e+03 -9.999000000000000000e+03 -9.999000000000000000e+03 -9.999000000000000000e+03 -9.999000000000000000e+03
-9.999000000000000000e+03 -9.999000000000000000e+03 -9.999000000000000000e+03 -9.999000000000000000e+03 -9.999000000000000000e+03 -9.999000000000000000e+03 -9.999000000000000000e+03 -9.999000000000000000e+03 -9.999000000000000000e+03 4.782515011469477884e+00 4.735801049471553448e+00 4.684558163152976462e+00 2.329104918663885027e+00 -9.999000000000000000e+03 -9.999000000000000000e+03 -9.999000000000000000e+03 -9.999000000000000000e+03 -9.999000000000000000e+03 -9.999000000000000000e+03 -9.999000000000000000e+03 -9.999000000000000000e+03 -9.999000000000000000e+03 -9.999000000000000000e+03
-9.999000000000000000e+03 -9.999000000000000000e+03 -9.999000000000000000e+03 -9.999000000000000000e+03 -9.999000000000000000e+03 -9.999000000000000000e+03 -9.999000000000000000e+03 -9.999000000000000000e+03 -9.999000000000000000e+03 -9.999000000000000000e+03 -9.999000000000000000e+03 -9.999000000000000000e+03 -9.999000000000000000e+03 -9.999000000000000000e+03 -9.999000000000000000e+03 -9.999000000000000000e+03 -9.999000000000000000e+03 -9.999000000000000000e+03 -9.999000000000000000e+03 -9.999000000000000000e+03 -9.999000000000000000e+03 -9.999000000000000000e+03 -9.999000000000000000e+03
