ncols        23
nrows        17
xllcorner    5165373.967557672411
yllcorner    3907485.103055199608
cellsize     5000.000000000000
NODATA_value  -9999
-9.999000000000000000e+03 -9.999000000000000000e+03 -9.999000000000000000e+03 -9.999000000000000000e+03 -9.999000000000000000e+03 -9.999000000000000000e+03 -9.999000000000000000e+03 -9.999000000000000000e+03 -9.999000000000000000e+03 -9.999000000000000000e+03 -9.999000000000000000e+03 -9.999000000000000000e+03 -9.999000000000000000e+03 -9.999000000000000000e+03 -9.999000000000000000e+03 -9.999000000000000000e+03 -9.999000000000000000e+03 -9.999000000000000000e+03 -9.999000000000000000e+03 -9.999000000000000000e+03 -9.999000000000000000e+03 -9.999000000000000000e+03 -9.999000000000000000e+03
-9.999000000000000000e+03 -9.999000000000000000e+03 -9.999000000000000000e+03 -9.999000000000000000e+03 -9.999000000000000000e+03 -9.999000000000000000e+03 8.900000000000000133e-01 8.850000000000000089e-01 -9.999000000000000000e+03 -9.999000000000000000e+03 -9.999000000000000000e+03 8.950000000000000178e-01 8.950000000000000178e-01 9.050000000000000266e-01 -9.999000000000000000e+03 -9.999000000000000000e+03 -9.999000000000000000e+03 -9.999000000000000000e+03 -9.999000000000000000e+03 -9.999000000000000000e+03 -9.999000000000000000e+03 -9.999000000000000000e+03 -9.999000000000000000e+03
-9.999000000000000000e+03 -9.999000000000000000e+03 -9.999000000000000000e+03 -9.999000000000000000e+03 -9.999000000000000000e+03 -9.999000000000000000e+03 9.000000000000000222e-01 8.850000000000000089e-01 8.800000000000000044e-01 8.800000000000000044e-01 8.850000000000000089e-01 8.850000000000000089e-01 8.900000000000000133e-01 8.900000000000000133e-01 8.800000000000000044e-01 -9.999000000000000000e+03 -9.999000000000000000e+03 -9.999000000000000000e+03 -9.999000000000000000e+03 -9.999000000000000000e+03 -9.999000000000000000e+03 -9.999000000000000000e+03 -9.999000000000000000e+03
-9.999000000000000000e+03 -9.999000000000000000e+03 -9.999000000000000000e+03 -9.999000000000000000e+03 -9.999000000000000000e+03 -9.999000000000000000e+03 8.900000000000000133e-01 8.750000000000000000e-01 8.750000000000000000e-01 8.800000000000000044e-01 8.699999999999999956e-01 8.750000000000000000e-01 8.750000000000000000e-01 8.800000000000000044e-01 8.699999999999999956e-01 8.750000000000000000e-01 -9.999000000000000000e+03 -9.999000000000000000e+03 -9.999000000000000000e+03 -9.999000000000000000e+03 -9.999000000000000000e+03 -9.999000000000000000e+03 -9.999000000000000000e+03
-9.999000000000000000e+03 -9.999000000000000000e+03 -9.999000000000000000e+03 -9.999000000000000000e+03 -9.999000000000000000e+03 9.100000000000000311e-01 9.100000000000000311e-01 8.900000000000000133e-01 8.800000000000000044e-01 8.900000000000000133e-01 8.850000000000000089e-01 8.950000000000000178e-01 8.900000000000000133e-01 8.800000000000000044e-01 8.599999999999999867e-01 8.649999999999999911e-01 8.649999999999999911e-01 8.599999999999999867e-01 -9.999000000000000000e+03 -9.999000000000000000e+03 -9.999000000000000000e+03 -9.999000000000000000e+03 -9.999000000000000000e+03
-9.999000000000000000e+03 -9.999000000000000000e+03 -9.999000000000000000e+03 -9.999000000000000000e+03 9.250000000000000444e-01 9.050000000000000266e-01 9.000000000000000222e-01 9.000000000000000222e-01 9.000000000000000222e-01 9.050000000000000266e-01 8.900000000000000133e-01 9.000000000000000222e-01 9.150000000000000355e-01 8.950000000000000178e-01 8.699999999999999956e-01 8.599999999999999867e-01 8.599999999999999867e-01 8.549999999999999822e-01 8.599999999999999867e-01 -9.999000000000000000e+03 -9.999000000000000000e+03 -9.999000000000000000e+03 -9.999000000000000000e+03
-9.999000000000000000e+03 -9.999000000000000000e+03 8.850000000000000089e-01 8.950000000000000178e-01 8.900000000000000133e-01 8.900000000000000133e-01 8.950000000000000178e-01 8.950000000000000178e-01 9.250000000000000444e-01 9.200000000000000400e-01 8.900000000000000133e-01 8.900000000000000133e-01 9.050000000000000266e-01 8.950000000000000178e-01 8.800000000000000044e-01 8.649999999999999911e-01 8.649999999999999911e-01 8.750000000000000000e-01 8.699999999999999956e-01 8.800000000000000044e-01 8.800000000000000044e-01 8.850000000000000089e-01 -9.999000000000000000e+03
-9.999000000000000000e+03 9.150000000000000355e-01 8.950000000000000178e-01 9.000000000000000222e-01 8.950000000000000178e-01 8.900000000000000133e-01 8.900000000000000133e-01 8.950000000000000178e-01 9.150000000000000355e-01 9.100000000000000311e-01 8.950000000000000178e-01 8.850000000000000089e-01 8.900000000000000133e-01 8.850000000000000089e-01 8.850000000000000089e-01 8.800000000000000044e-01 8.800000000000000044e-01 8.750000000000000000e-01 8.599999999999999867e-01 8.750000000000000000e-01 8.800000000000000044e-01 8.750000000000000000e-01 -9.999000000000000000e+03
-9.999000000000000000e+03 9.250000000000000444e-01 8.950000000000000178e-01 8.950000000000000178e-01 9.000000000000000222e-01 8.950000000000000178e-01 8.850000000000000089e-01 8.800000000000000044e-01 8.950000000000000178e-01 9.150000000000000355e-01 9.050000000000000266e-01 9.000000000000000222e-01 9.000000000000000222e-01 8.950000000000000178e-01 8.900000000000000133e-01 8.900000000000000133e-01 8.950000000000000178e-01 8.800000000000000044e-01 8.599999999999999867e-01 8.599999999999999867e-01 8.549999999999999822e-01 -9.999000000000000000e+03 -9.999000000000000000e+03
-9.999000000000000000e+03 9.200000000000000400e-01 8.900000000000000133e-01 8.950000000000000178e-01 8.950000000000000178e-01 8.950000000000000178e-01 9.000000000000000222e-01 8.900000000000000133e-01 8.850000000000000089e-01 9.050000000000000266e-01 9.250000000000000444e-01 9.120833333333332460e-01 9.100000000000000311e-01 8.950000000000000178e-01 8.950000000000000178e-01 9.050000000000000266e-01 9.050000000000000266e-01 8.900000000000000133e-01 8.649999999999999911e-01 8.549999999999999822e-01 -9.999000000000000000e+03 -9.999000000000000000e+03 -9.999000000000000000e+03
-9.999000000000000000e+03 9.400000000000000577e-01 9.000000000000000222e-01 9.050000000000000266e-01 8.900000000000000133e-01 8.850000000000000089e-01 8.900000000000000133e-01 8.950000000000000178e-01 8.950000000000000178e-01 9.000000000000000222e-01 9.200000000000000400e-01 9.150000000000000355e-01 9.200000000000000400e-01 9.050000000000000266e-01 9.100000000000000311e-01 9.050000000000000266e-01 8.800000000000000044e-01 8.699999999999999956e-01 8.699999999999999956e-01 -9.999000000000000000e+03 -9.999000000000000000e+03 -9.999000000000000000e+03 -9.999000000000000000e+03
-9.999000000000000000e+03 9.649999999999999689e-01 8.950000000000000178e-01 8.850000000000000089e-01 9.000000000000000222e-01 8.950000000000000178e-01 8.850000000000000089e-01 8.950000000000000178e-01 9.000000000000000222e-01 9.100000000000000311e-01 9.050000000000000266e-01 9.100000000000000311e-01 9.100000000000000311e-01 8.900000000000000133e-01 -9.999000000000000000e+03 -9.999000000000000000e+03 -9.999000000000000000e+03 -9.999000000000000000e+03 -9.999000000000000000e+03 -9.999000000000000000e+03 -9.999000000000000000e+03 -9.999000000000000000e+03 -9.999000000000000000e+03
-9.999000000000000000e+03 9.849999999999999867e-01 -9.999000000000000000e+03 -9.999000000000000000e+03 -9.999000000000000000e+03 -9.999000000000000000e+03 -9.999000000000000000e+03 8.950000000000000178e-01 9.050000000000000266e-01 9.200000000000000400e-01 9.150000000000000355e-01 9.050000000000000266e-01 9.000000000000000222e-01 8.900000000000000133e-01 -9.999000000000000000e+03 -9.999000000000000000e+03 -9.999000000000000000e+03 -9.999000000000000000e+03 -9.999000000000000000e+03 -9.999000000000000000e+03 -9.999000000000000000e+03 -9.999000000000000000e+03 -9.999000000000000000e+03
-9.999000000000000000e+03 -9.999000000000000000e+03 -9.999000000000000000e+03 -9.999000000000000000e+03 -9.999000000000000000e+03 -9.999000000000000000e+03 -9.999000000000000000e+03 -9.999000000000000000e+03 9.150000000000000355e-01 9.100000000000000311e-01 9.250000000000000444e-01 9.200000000000000400e-01 9.100000000000000311e-01 -9.999000000000000000e+03 -9.999000000000000000e+03 -9.999000000000000000e+03 -9.999000000000000000e+03 -9.999000000000000000e+03 -9.999000000000000000e+03 -9.999000000000000000e+03 -9.999000000000000000e+03 -9.999000000000000000e+03 -9.999000000000000000e+03
-9.999000000000000000e+03 -9.999000000000000000e+03 -9.999000000000000000e+03 -9.999000000000000000e+03 -9.999000000000000000e+03 -9.999000000000000000e+03 -9.999000000000000000e+03 -9.999000000000000000e+03 9.200000000000000400e-01 9.087499999999999467e-01 9.050000000000000266e-01 9.050000000000000266e-01 9.150000000000000355e-01 -9.999000000000000000e+03 -9.999000000000000000e+03 -9.999000000000000000e+03 -9.999000000000000000e+03 -9.999000000000000000e+03 -9.999000000000000000e+03 -9.999000000000000000e+03 -9.999000000000000000e+03 -9.999000000000000000e+03 -9.999000000000000000e+03
-9.999000000000000000e+03 -9.999000000000000000e+03 -9.999000000000000000e+03 -9.999000000000000000e+03 -9.999000000000000000e+03 -9.999000000000000000e+03 -9.999000000000000000e+03 -9.999000000000000000e+03 -9.999000000000000000e+03 8.950000000000000178e-01 8.900000000000000133e-01 8.950000000000000178e-01 9.050000000000000266e-01 -9.999000000000000000e+03 -9.999000000000000000e+03 -9.999000000000000000e+03 -9.999000000000000000e+03 -9.999000000000000000e+03 -9.999000000000000000e+03 -9.999000000000000000e+03 -9.999000000000000000e+03 -9.999000000000000000e+03 -9.999000000000000000e+03
-9.999000000000000000e+03 -9.999000000000000000e+03 -9.999000000000000000e+03 -9.999000000000000000e+03 -9.999000000000000000e+03 -9.999000000000000000e+03 -9.999000000000000000e+03 -9.999000000000000000e+03 -9.999000000000000000e+03 -9.999000000000000000e+03 -9.999000000000000000e+03 -9.999000000000000000e+03 -9.999000000000000000e+03 -9.999000000000000000e+03 -9.999000000000000000e+03 -9.999000000000000000e+03 -9.999000000000000000e+03 -9.999000000000000000e+03 -9.999000000000000000e+03 -9.999000000000000000e+03 -9.999000000000000000e+03 -9.999000000000000000e+03 -9.999000000000000000e+03
