ncols        23
nrows        17
xllcorner    5165373.967557672411
yllcorner    3907485.103055199608
cellsize     5000.000000000000
NODATA_value  -9999
-9.999000000000000000e+03 -9.999000000000000000e+03 -9.999000000000000000e+03 -9.999000000000000000e+03 -9.999000000000000000e+03 -9.999000000000000000e+03 -9.999000000000000000e+03 -9.999000000000000000e+03 -9.999000000000000000e+03 -9.999000000000000000e+03 -9.999000000000000000e+03 -9.999000000000000000e+03 -9.999000000000000000e+03 -9.999000000000000000e+03 -9.999000000000000000e+03 -9.999000000000000000e+03 -9.999000000000000000e+03 -9.999000000000000000e+03 -9.999000000000000000e+03 -9.999000000000000000e+03 -9.999000000000000000e+03 -9.999000000000000000e+03 -9.999000000000000000e+03
-9.999000000000000000e+03 -9.999000000000000000e+03 -9.999000000000000000e+03 -9.999000000000000000e+03 -9.999000000000000000e+03 -9.999000000000000000e+03 1.564999999999999947e+00 1.560000000000000053e+00 -9.999000000000000000e+03 -9.999000000000000000e+03 -9.999000000000000000e+03 1.530000000000000027e+00 1.550000000000000044e+00 1.560000000000000053e+00 -9.999000000000000000e+03 -9.999000000000000000e+03 -9.999000000000000000e+03 -9.999000000000000000e+03 -9.999000000000000000e+03 -9.999000000000000000e+03 -9.999000000000000000e+03 -9.999000000000000000e+03 -9.999000000000000000e+03
-9.999000000000000000e+03 -9.999000000000000000e+03 -9.999000000000000000e+03 -9.999000000000000000e+03 -9.999000000000000000e+03 -9.999000000000000000e+03 1.560000000000000053e+00 1.550000000000000044e+00 1.535000000000000142e+00 1.530000000000000027e+00 1.530000000000000027e+00 1.540000000000000036e+00 1.564999999999999947e+00 1.550000000000000044e+00 1.525000000000000133e+00 -9.999000000000000000e+03 -9.999000000000000000e+03 -9.999000000000000000e+03 -9.999000000000000000e+03 -9.999000000000000000e+03 -9.999000000000000000e+03 -9.999000000000000000e+03 -9.999000000000000000e+03
-9.999000000000000000e+03 -9.999000000000000000e+03 -9.999000000000000000e+03 -9.999000000000000000e+03 -9.999000000000000000e+03 -9.999000000000000000e+03 1.554999999999999938e+00 1.550000000000000044e+00 1.540000000000000036e+00 1.544999999999999929e+00 1.554999999999999938e+00 1.570000000000000062e+00 1.570000000000000062e+00 1.550000000000000044e+00 1.535000000000000142e+00 1.535000000000000142e+00 -9.999000000000000000e+03 -9.999000000000000000e+03 -9.999000000000000000e+03 -9.999000000000000000e+03 -9.999000000000000000e+03 -9.999000000000000000e+03 -9.999000000000000000e+03
-9.999000000000000000e+03 -9.999000000000000000e+03 -9.999000000000000000e+03 -9.999000000000000000e+03 -9.999000000000000000e+03 1.560000000000000053e+00 1.550000000000000044e+00 1.554999999999999938e+00 1.544999999999999929e+00 1.560000000000000053e+00 1.564999999999999947e+00 1.574999999999999956e+00 1.580000000000000071e+00 1.554999999999999938e+00 1.535000000000000142e+00 1.530000000000000027e+00 1.515000000000000124e+00 1.495000000000000107e+00 -9.999000000000000000e+03 -9.999000000000000000e+03 -9.999000000000000000e+03 -9.999000000000000000e+03 -9.999000000000000000e+03
-9.999000000000000000e+03 -9.999000000000000000e+03 -9.999000000000000000e+03 -9.999000000000000000e+03 1.570000000000000062e+00 1.560000000000000053e+00 1.554999999999999938e+00 1.564999999999999947e+00 1.570000000000000062e+00 1.580000000000000071e+00 1.570000000000000062e+00 1.574999999999999956e+00 1.590000000000000080e+00 1.570000000000000062e+00 1.544999999999999929e+00 1.525000000000000133e+00 1.515000000000000124e+00 1.495000000000000107e+00 1.485000000000000098e+00 -9.999000000000000000e+03 -9.999000000000000000e+03 -9.999000000000000000e+03 -9.999000000000000000e+03
-9.999000000000000000e+03 -9.999000000000000000e+03 1.540000000000000036e+00 1.554999999999999938e+00 1.560000000000000053e+00 1.550000000000000044e+00 1.554999999999999938e+00 1.560000000000000053e+00 1.584999999999999964e+00 1.594999999999999973e+00 1.580000000000000071e+00 1.580000000000000071e+00 1.580000000000000071e+00 1.580000000000000071e+00 1.564999999999999947e+00 1.540000000000000036e+00 1.535000000000000142e+00 1.520000000000000018e+00 1.495000000000000107e+00 1.479999999999999982e+00 1.489999999999999991e+00 1.500000000000000000e+00 -9.999000000000000000e+03
-9.999000000000000000e+03 1.520000000000000018e+00 1.554999999999999938e+00 1.574999999999999956e+00 1.570000000000000062e+00 1.560000000000000053e+00 1.560000000000000053e+00 1.574999999999999956e+00 1.594999999999999973e+00 1.590000000000000080e+00 1.580000000000000071e+00 1.584999999999999964e+00 1.584999999999999964e+00 1.580000000000000071e+00 1.564999999999999947e+00 1.550000000000000044e+00 1.540000000000000036e+00 1.525000000000000133e+00 1.479999999999999982e+00 1.479999999999999982e+00 1.489999999999999991e+00 1.489999999999999991e+00 -9.999000000000000000e+03
-9.999000000000000000e+03 1.530000000000000027e+00 1.560000000000000053e+00 1.560000000000000053e+00 1.574999999999999956e+00 1.570000000000000062e+00 1.560000000000000053e+00 1.570000000000000062e+00 1.590000000000000080e+00 1.590000000000000080e+00 1.570000000000000062e+00 1.570000000000000062e+00 1.584999999999999964e+00 1.574999999999999956e+00 1.570000000000000062e+00 1.564999999999999947e+00 1.554999999999999938e+00 1.530000000000000027e+00 1.500000000000000000e+00 1.479999999999999982e+00 1.465000000000000080e+00 -9.999000000000000000e+03 -9.999000000000000000e+03
-9.999000000000000000e+03 1.500000000000000000e+00 1.535000000000000142e+00 1.550000000000000044e+00 1.554999999999999938e+00 1.554999999999999938e+00 1.574999999999999956e+00 1.580000000000000071e+00 1.584999999999999964e+00 1.590000000000000080e+00 1.584999999999999964e+00 1.591666666666666341e+00 1.584999999999999964e+00 1.580000000000000071e+00 1.570000000000000062e+00 1.574999999999999956e+00 1.564999999999999947e+00 1.550000000000000044e+00 1.520000000000000018e+00 1.479999999999999982e+00 -9.999000000000000000e+03 -9.999000000000000000e+03 -9.999000000000000000e+03
-9.999000000000000000e+03 1.489999999999999991e+00 1.530000000000000027e+00 1.560000000000000053e+00 1.554999999999999938e+00 1.554999999999999938e+00 1.574999999999999956e+00 1.590000000000000080e+00 1.600000000000000089e+00 1.604999999999999982e+00 1.614999999999999991e+00 1.614999999999999991e+00 1.620000000000000107e+00 1.610000000000000098e+00 1.604999999999999982e+00 1.590000000000000080e+00 1.564999999999999947e+00 1.554999999999999938e+00 1.540000000000000036e+00 -9.999000000000000000e+03 -9.999000000000000000e+03 -9.999000000000000000e+03 -9.999000000000000000e+03
-9.999000000000000000e+03 1.469999999999999973e+00 1.495000000000000107e+00 1.540000000000000036e+00 1.554999999999999938e+00 1.570000000000000062e+00 1.574999999999999956e+00 1.594999999999999973e+00 1.610000000000000098e+00 1.620000000000000107e+00 1.620000000000000107e+00 1.614999999999999991e+00 1.614999999999999991e+00 1.590000000000000080e+00 -9.999000000000000000e+03 -9.999000000000000000e+03 -9.999000000000000000e+03 -9.999000000000000000e+03 -9.999000000000000000e+03 -9.999000000000000000e+03 -9.999000000000000000e+03 -9.999000000000000000e+03 -9.999000000000000000e+03
-9.999000000000000000e+03 1.469999999999999973e+00 -9.999000000000000000e+03 -9.999000000000000000e+03 -9.999000000000000000e+03 -9.999000000000000000e+03 -9.999000000000000000e+03 1.600000000000000089e+00 1.600000000000000089e+00 1.604999999999999982e+00 1.610000000000000098e+00 1.600000000000000089e+00 1.594999999999999973e+00 1.560000000000000053e+00 -9.999000000000000000e+03 -9.999000000000000000e+03 -9.999000000000000000e+03 -9.999000000000000000e+03 -9.999000000000000000e+03 -9.999000000000000000e+03 -9.999000000000000000e+03 -9.999000000000000000e+03 -9.999000000000000000e+03
-9.999000000000000000e+03 -9.999000000000000000e+03 -9.999000000000000000e+03 -9.999000000000000000e+03 -9.999000000000000000e+03 -9.999000000000000000e+03 -9.999000000000000000e+03 -9.999000000000000000e+03 1.584999999999999964e+00 1.594999999999999973e+00 1.614999999999999991e+00 1.610000000000000098e+00 1.590000000000000080e+00 -9.999000000000000000e+03 -9.999000000000000000e+03 -9.999000000000000000e+03 -9.999000000000000000e+03 -9.999000000000000000e+03 -9.999000000000000000e+03 -9.999000000000000000e+03 -9.999000000000000000e+03 -9.999000000000000000e+03 -9.999000000000000000e+03
-9.999000000000000000e+03 -9.999000000000000000e+03 -9.999000000000000000e+03 -9.999000000000000000e+03 -9.999000000000000000e+03 -9.999000000000000000e+03 -9.999000000000000000e+03 -9.999000000000000000e+03 1.584999999999999964e+00 1.587083333333333179e+00 1.590000000000000080e+00 1.604999999999999982e+00 1.600000000000000089e+00 -9.999000000000000000e+03 -9.999000000000000000e+03 -9.999000000000000000e+03 -9.999000000000000000e+03 -9.999000000000000000e+03 -9.999000000000000000e+03 -9.999000000000000000e+03 -9.999000000000000000e+03 -9.999000000000000000e+03 -9.999000000000000000e+03
-9.999000000000000000e+03 -9.999000000000000000e+03 -9.999000000000000000e+03 -9.999000000000000000e+03 -9.999000000000000000e+03 -9.999000000000000000e+03 -9.999000000000000000e+03 -9.999000000000000000e+03 -9.999000000000000000e+03 1.570000000000000062e+00 1.570000000000000062e+00 1.594999999999999973e+00 1.600000000000000089e+00 -9.999000000000000000e+03 -9.999000000000000000e+03 -9.999000000000000000e+03 -9.999000000000000000e+03 -9.999000000000000000e+03 -9.999000000000000000e+03 -9.999000000000000000e+03 -9.999000000000000000e+03 -9.999000000000000000e+03 -9.999000000000000000e+03
-9.999000000000000000e+03 -9.999000000000000000e+03 -9.999000000000000000e+03 -9.999000000000000000e+03 -9.999000000000000000e+03 -9.999000000000000000e+03 -9.999000000000000000e+03 -9.999000000000000000e+03 -9.999000000000000000e+03 -9.999000000000000000e+03 -9.999000000000000000e+03 -9.999000000000000000e+03 -9.999000000000000000e+03 -9.999000000000000000e+03 -9.999000000000000000e+03 -9.999000000000000000e+03 -9.999000000000000000e+03 -9.999000000000000000e+03 -9.999000000000000000e+03 -9.999000000000000000e+03 -9.999000000000000000e+03 -9.999000000000000000e+03 -9.999000000000000000e+03
