ncols        23
nrows        17
xllcorner    5165373.967557672411
yllcorner    3907485.103055199608
cellsize     5000.000000000000
NODATA_value  -9999
-9.999000000000000000e+03 -9.999000000000000000e+03 -9.999000000000000000e+03 -9.999000000000000000e+03 -9.999000000000000000e+03 -9.999000000000000000e+03 -9.999000000000000000e+03 -9.999000000000000000e+03 -9.999000000000000000e+03 -9.999000000000000000e+03 -9.999000000000000000e+03 -9.999000000000000000e+03 -9.999000000000000000e+03 -9.999000000000000000e+03 -9.999000000000000000e+03 -9.999000000000000000e+03 -9.999000000000000000e+03 -9.999000000000000000e+03 -9.999000000000000000e+03 -9.999000000000000000e+03 -9.999000000000000000e+03 -9.999000000000000000e+03 -9.999000000000000000e+03
-9.999000000000000000e+03 -9.999000000000000000e+03 -9.999000000000000000e+03 -9.999000000000000000e+03 -9.999000000000000000e+03 -9.999000000000000000e+03 1.409999999999999920e+00 1.405000000000000027e+00 -9.999000000000000000e+03 -9.999000000000000000e+03 -9.999000000000000000e+03 1.395000000000000018e+00 1.395000000000000018e+00 1.390000000000000124e+00 -9.999000000000000000e+03 -9.999000000000000000e+03 -9.999000000000000000e+03 -9.999000000000000000e+03 -9.999000000000000000e+03 -9.999000000000000000e+03 -9.999000000000000000e+03 -9.999000000000000000e+03 -9.999000000000000000e+03
-9.999000000000000000e+03 -9.999000000000000000e+03 -9.999000000000000000e+03 -9.999000000000000000e+03 -9.999000000000000000e+03 -9.999000000000000000e+03 1.409999999999999920e+00 1.390000000000000124e+00 1.385000000000000009e+00 1.385000000000000009e+00 1.390000000000000124e+00 1.395000000000000018e+00 1.405000000000000027e+00 1.385000000000000009e+00 1.360000000000000098e+00 -9.999000000000000000e+03 -9.999000000000000000e+03 -9.999000000000000000e+03 -9.999000000000000000e+03 -9.999000000000000000e+03 -9.999000000000000000e+03 -9.999000000000000000e+03 -9.999000000000000000e+03
-9.999000000000000000e+03 -9.999000000000000000e+03 -9.999000000000000000e+03 -9.999000000000000000e+03 -9.999000000000000000e+03 -9.999000000000000000e+03 1.400000000000000133e+00 1.390000000000000124e+00 1.390000000000000124e+00 1.395000000000000018e+00 1.395000000000000018e+00 1.405000000000000027e+00 1.400000000000000133e+00 1.390000000000000124e+00 1.360000000000000098e+00 1.370000000000000107e+00 -9.999000000000000000e+03 -9.999000000000000000e+03 -9.999000000000000000e+03 -9.999000000000000000e+03 -9.999000000000000000e+03 -9.999000000000000000e+03 -9.999000000000000000e+03
-9.999000000000000000e+03 -9.999000000000000000e+03 -9.999000000000000000e+03 -9.999000000000000000e+03 -9.999000000000000000e+03 1.405000000000000027e+00 1.400000000000000133e+00 1.405000000000000027e+00 1.395000000000000018e+00 1.409999999999999920e+00 1.405000000000000027e+00 1.409999999999999920e+00 1.409999999999999920e+00 1.395000000000000018e+00 1.375000000000000000e+00 1.360000000000000098e+00 1.344999999999999973e+00 1.330000000000000071e+00 -9.999000000000000000e+03 -9.999000000000000000e+03 -9.999000000000000000e+03 -9.999000000000000000e+03 -9.999000000000000000e+03
-9.999000000000000000e+03 -9.999000000000000000e+03 -9.999000000000000000e+03 -9.999000000000000000e+03 1.405000000000000027e+00 1.385000000000000009e+00 1.390000000000000124e+00 1.419999999999999929e+00 1.419999999999999929e+00 1.425000000000000044e+00 1.409999999999999920e+00 1.409999999999999920e+00 1.419999999999999929e+00 1.415000000000000036e+00 1.385000000000000009e+00 1.350000000000000089e+00 1.340000000000000080e+00 1.340000000000000080e+00 1.324999999999999956e+00 -9.999000000000000000e+03 -9.999000000000000000e+03 -9.999000000000000000e+03 -9.999000000000000000e+03
-9.999000000000000000e+03 -9.999000000000000000e+03 1.364999999999999991e+00 1.385000000000000009e+00 1.395000000000000018e+00 1.395000000000000018e+00 1.409999999999999920e+00 1.419999999999999929e+00 1.439999999999999947e+00 1.439999999999999947e+00 1.415000000000000036e+00 1.405000000000000027e+00 1.419999999999999929e+00 1.419999999999999929e+00 1.400000000000000133e+00 1.364999999999999991e+00 1.360000000000000098e+00 1.354999999999999982e+00 1.330000000000000071e+00 1.324999999999999956e+00 1.324999999999999956e+00 1.340000000000000080e+00 -9.999000000000000000e+03
-9.999000000000000000e+03 1.340000000000000080e+00 1.370000000000000107e+00 1.395000000000000018e+00 1.405000000000000027e+00 1.409999999999999920e+00 1.415000000000000036e+00 1.425000000000000044e+00 1.439999999999999947e+00 1.425000000000000044e+00 1.409999999999999920e+00 1.409999999999999920e+00 1.409999999999999920e+00 1.409999999999999920e+00 1.400000000000000133e+00 1.380000000000000115e+00 1.364999999999999991e+00 1.340000000000000080e+00 1.314999999999999947e+00 1.320000000000000062e+00 1.330000000000000071e+00 1.324999999999999956e+00 -9.999000000000000000e+03
-9.999000000000000000e+03 1.350000000000000089e+00 1.380000000000000115e+00 1.395000000000000018e+00 1.415000000000000036e+00 1.415000000000000036e+00 1.415000000000000036e+00 1.419999999999999929e+00 1.429999999999999938e+00 1.425000000000000044e+00 1.395000000000000018e+00 1.395000000000000018e+00 1.405000000000000027e+00 1.409999999999999920e+00 1.405000000000000027e+00 1.385000000000000009e+00 1.370000000000000107e+00 1.340000000000000080e+00 1.330000000000000071e+00 1.334999999999999964e+00 1.314999999999999947e+00 -9.999000000000000000e+03 -9.999000000000000000e+03
-9.999000000000000000e+03 1.330000000000000071e+00 1.360000000000000098e+00 1.390000000000000124e+00 1.409999999999999920e+00 1.415000000000000036e+00 1.429999999999999938e+00 1.419999999999999929e+00 1.419999999999999929e+00 1.419999999999999929e+00 1.409999999999999920e+00 1.407083333333333242e+00 1.395000000000000018e+00 1.405000000000000027e+00 1.405000000000000027e+00 1.400000000000000133e+00 1.380000000000000115e+00 1.354999999999999982e+00 1.344999999999999973e+00 1.330000000000000071e+00 -9.999000000000000000e+03 -9.999000000000000000e+03 -9.999000000000000000e+03
-9.999000000000000000e+03 1.324999999999999956e+00 1.350000000000000089e+00 1.390000000000000124e+00 1.400000000000000133e+00 1.400000000000000133e+00 1.415000000000000036e+00 1.425000000000000044e+00 1.419999999999999929e+00 1.425000000000000044e+00 1.429999999999999938e+00 1.415000000000000036e+00 1.425000000000000044e+00 1.425000000000000044e+00 1.425000000000000044e+00 1.409999999999999920e+00 1.385000000000000009e+00 1.364999999999999991e+00 1.354999999999999982e+00 -9.999000000000000000e+03 -9.999000000000000000e+03 -9.999000000000000000e+03 -9.999000000000000000e+03
-9.999000000000000000e+03 1.310000000000000053e+00 1.300000000000000044e+00 1.354999999999999982e+00 1.390000000000000124e+00 1.405000000000000027e+00 1.409999999999999920e+00 1.425000000000000044e+00 1.435000000000000053e+00 1.449999999999999956e+00 1.439999999999999947e+00 1.419999999999999929e+00 1.425000000000000044e+00 1.405000000000000027e+00 -9.999000000000000000e+03 -9.999000000000000000e+03 -9.999000000000000000e+03 -9.999000000000000000e+03 -9.999000000000000000e+03 -9.999000000000000000e+03 -9.999000000000000000e+03 -9.999000000000000000e+03 -9.999000000000000000e+03
-9.999000000000000000e+03 1.314999999999999947e+00 -9.999000000000000000e+03 -9.999000000000000000e+03 -9.999000000000000000e+03 -9.999000000000000000e+03 -9.999000000000000000e+03 1.425000000000000044e+00 1.435000000000000053e+00 1.439999999999999947e+00 1.435000000000000053e+00 1.415000000000000036e+00 1.405000000000000027e+00 1.385000000000000009e+00 -9.999000000000000000e+03 -9.999000000000000000e+03 -9.999000000000000000e+03 -9.999000000000000000e+03 -9.999000000000000000e+03 -9.999000000000000000e+03 -9.999000000000000000e+03 -9.999000000000000000e+03 -9.999000000000000000e+03
-9.999000000000000000e+03 -9.999000000000000000e+03 -9.999000000000000000e+03 -9.999000000000000000e+03 -9.999000000000000000e+03 -9.999000000000000000e+03 -9.999000000000000000e+03 -9.999000000000000000e+03 1.429999999999999938e+00 1.435000000000000053e+00 1.445000000000000062e+00 1.429999999999999938e+00 1.405000000000000027e+00 -9.999000000000000000e+03 -9.999000000000000000e+03 -9.999000000000000000e+03 -9.999000000000000000e+03 -9.999000000000000000e+03 -9.999000000000000000e+03 -9.999000000000000000e+03 -9.999000000000000000e+03 -9.999000000000000000e+03 -9.999000000000000000e+03
-9.999000000000000000e+03 -9.999000000000000000e+03 -9.999000000000000000e+03 -9.999000000000000000e+03 -9.999000000000000000e+03 -9.999000000000000000e+03 -9.999000000000000000e+03 -9.999000000000000000e+03 1.435000000000000053e+00 1.429583333333333206e+00 1.425000000000000044e+00 1.435000000000000053e+00 1.419999999999999929e+00 -9.999000000000000000e+03 -9.999000000000000000e+03 -9.999000000000000000e+03 -9.999000000000000000e+03 -9.999000000000000000e+03 -9.999000000000000000e+03 -9.999000000000000000e+03 -9.999000000000000000e+03 -9.999000000000000000e+03 -9.999000000000000000e+03
-9.999000000000000000e+03 -9.999000000000000000e+03 -9.999000000000000000e+03 -9.999000000000000000e+03 -9.999000000000000000e+03 -9.999000000000000000e+03 -9.999000000000000000e+03 -9.999000000000000000e+03 -9.999000000000000000e+03 1.415000000000000036e+00 1.415000000000000036e+00 1.425000000000000044e+00 1.425000000000000044e+00 -9.999000000000000000e+03 -9.999000000000000000e+03 -9.999000000000000000e+03 -9.999000000000000000e+03 -9.999000000000000000e+03 -9.999000000000000000e+03 -9.999000000000000000e+03 -9.999000000000000000e+03 -9.999000000000000000e+03 -9.999000000000000000e+03
-9.999000000000000000e+03 -9.999000000000000000e+03 -9.999000000000000000e+03 -9.999000000000000000e+03 -9.999000000000000000e+03 -9.999000000000000000e+03 -9.999000000000000000e+03 -9.999000000000000000e+03 -9.999000000000000000e+03 -9.999000000000000000e+03 -9.999000000000000000e+03 -9.999000000000000000e+03 -9.999000000000000000e+03 -9.999000000000000000e+03 -9.999000000000000000e+03 -9.999000000000000000e+03 -9.999000000000000000e+03 -9.999000000000000000e+03 -9.999000000000000000e+03 -9.999000000000000000e+03 -9.999000000000000000e+03 -9.999000000000000000e+03 -9.999000000000000000e+03
