ncols        23
nrows        17
xllcorner    5165373.967557672411
yllcorner    3907485.103055199608
cellsize     5000.000000000000
NODATA_value  -9999
-9.999000000000000000e+03 -9.999000000000000000e+03 -9.999000000000000000e+03 -9.999000000000000000e+03 -9.999000000000000000e+03 -9.999000000000000000e+03 -9.999000000000000000e+03 -9.999000000000000000e+03 -9.999000000000000000e+03 -9.999000000000000000e+03 -9.999000000000000000e+03 -9.999000000000000000e+03 -9.999000000000000000e+03 -9.999000000000000000e+03 -9.999000000000000000e+03 -9.999000000000000000e+03 -9.999000000000000000e+03 -9.999000000000000000e+03 -9.999000000000000000e+03 -9.999000000000000000e+03 -9.999000000000000000e+03 -9.999000000000000000e+03 -9.999000000000000000e+03
-9.999000000000000000e+03 -9.999000000000000000e+03 -9.999000000000000000e+03 -9.999000000000000000e+03 -9.999000000000000000e+03 -9.999000000000000000e+03 1.340000000000000080e-01 1.280000000000000027e-01 -9.999000000000000000e+03 -9.999000000000000000e+03 -9.999000000000000000e+03 1.380000000000000115e-01 1.325000000000000067e-01 1.285000000000000031e-01 -9.999000000000000000e+03 -9.999000000000000000e+03 -9.999000000000000000e+03 -9.999000000000000000e+03 -9.999000000000000000e+03 -9.999000000000000000e+03 -9.999000000000000000e+03 -9.999000000000000000e+03 -9.999000000000000000e+03
-9.999000000000000000e+03 -9.999000000000000000e+03 -9.999000000000000000e+03 -9.999000000000000000e+03 -9.999000000000000000e+03 -9.999000000000000000e+03 1.330000000000000071e-01 1.250000000000000000e-01 1.310000000000000053e-01 1.395000000000000129e-01 1.430000000000000160e-01 1.380000000000000115e-01 1.305000000000000049e-01 1.270000000000000018e-01 1.204999999999999960e-01 -9.999000000000000000e+03 -9.999000000000000000e+03 -9.999000000000000000e+03 -9.999000000000000000e+03 -9.999000000000000000e+03 -9.999000000000000000e+03 -9.999000000000000000e+03 -9.999000000000000000e+03
-9.999000000000000000e+03 -9.999000000000000000e+03 -9.999000000000000000e+03 -9.999000000000000000e+03 -9.999000000000000000e+03 -9.999000000000000000e+03 1.345000000000000084e-01 1.239999999999999991e-01 1.285000000000000031e-01 1.335000000000000075e-01 1.350000000000000089e-01 1.380000000000000115e-01 1.430000000000000160e-01 1.430000000000000160e-01 1.270000000000000018e-01 1.244999999999999996e-01 -9.999000000000000000e+03 -9.999000000000000000e+03 -9.999000000000000000e+03 -9.999000000000000000e+03 -9.999000000000000000e+03 -9.999000000000000000e+03 -9.999000000000000000e+03
-9.999000000000000000e+03 -9.999000000000000000e+03 -9.999000000000000000e+03 -9.999000000000000000e+03 -9.999000000000000000e+03 1.504999999999999949e-01 1.345000000000000084e-01 1.305000000000000049e-01 1.290000000000000036e-01 1.290000000000000036e-01 1.320000000000000062e-01 1.459999999999999909e-01 1.519999999999999962e-01 1.534999999999999976e-01 1.449999999999999900e-01 1.335000000000000075e-01 1.295000000000000040e-01 1.355000000000000093e-01 -9.999000000000000000e+03 -9.999000000000000000e+03 -9.999000000000000000e+03 -9.999000000000000000e+03 -9.999000000000000000e+03
-9.999000000000000000e+03 -9.999000000000000000e+03 -9.999000000000000000e+03 -9.999000000000000000e+03 1.700000000000000122e-01 1.549999999999999989e-01 1.370000000000000107e-01 1.335000000000000075e-01 1.340000000000000080e-01 1.340000000000000080e-01 1.385000000000000120e-01 1.474999999999999922e-01 1.549999999999999989e-01 1.595000000000000029e-01 1.509999999999999953e-01 1.305000000000000049e-01 1.244999999999999996e-01 1.385000000000000120e-01 1.524999999999999967e-01 -9.999000000000000000e+03 -9.999000000000000000e+03 -9.999000000000000000e+03 -9.999000000000000000e+03
-9.999000000000000000e+03 -9.999000000000000000e+03 1.725000000000000144e-01 1.750000000000000167e-01 1.650000000000000078e-01 1.539999999999999980e-01 1.435000000000000164e-01 1.385000000000000120e-01 1.380000000000000115e-01 1.385000000000000120e-01 1.494999999999999940e-01 1.539999999999999980e-01 1.534999999999999976e-01 1.539999999999999980e-01 1.444999999999999896e-01 1.340000000000000080e-01 1.265000000000000013e-01 1.310000000000000053e-01 1.484999999999999931e-01 1.695000000000000118e-01 1.755000000000000171e-01 1.690000000000000113e-01 -9.999000000000000000e+03
-9.999000000000000000e+03 1.615000000000000047e-01 1.715000000000000135e-01 1.740000000000000158e-01 1.575000000000000011e-01 1.494999999999999940e-01 1.459999999999999909e-01 1.350000000000000089e-01 1.270000000000000018e-01 1.330000000000000071e-01 1.454999999999999905e-01 1.444999999999999896e-01 1.435000000000000164e-01 1.459999999999999909e-01 1.435000000000000164e-01 1.405000000000000138e-01 1.350000000000000089e-01 1.415000000000000147e-01 1.544999999999999984e-01 1.705000000000000127e-01 1.665000000000000091e-01 1.605000000000000038e-01 -9.999000000000000000e+03
-9.999000000000000000e+03 1.565000000000000002e-01 1.665000000000000091e-01 1.690000000000000113e-01 1.570000000000000007e-01 1.484999999999999931e-01 1.435000000000000164e-01 1.345000000000000084e-01 1.305000000000000049e-01 1.390000000000000124e-01 1.519999999999999962e-01 1.509999999999999953e-01 1.459999999999999909e-01 1.494999999999999940e-01 1.489999999999999936e-01 1.440000000000000169e-01 1.425000000000000155e-01 1.469999999999999918e-01 1.509999999999999953e-01 1.539999999999999980e-01 1.575000000000000011e-01 -9.999000000000000000e+03 -9.999000000000000000e+03
-9.999000000000000000e+03 1.570000000000000007e-01 1.630000000000000060e-01 1.635000000000000064e-01 1.524999999999999967e-01 1.459999999999999909e-01 1.415000000000000147e-01 1.380000000000000115e-01 1.380000000000000115e-01 1.459999999999999909e-01 1.524999999999999967e-01 1.487916666666666554e-01 1.479999999999999927e-01 1.469999999999999918e-01 1.459999999999999909e-01 1.440000000000000169e-01 1.444999999999999896e-01 1.499999999999999944e-01 1.484999999999999931e-01 1.509999999999999953e-01 -9.999000000000000000e+03 -9.999000000000000000e+03 -9.999000000000000000e+03
-9.999000000000000000e+03 1.660000000000000087e-01 1.665000000000000091e-01 1.690000000000000113e-01 1.650000000000000078e-01 1.580000000000000016e-01 1.479999999999999927e-01 1.420000000000000151e-01 1.400000000000000133e-01 1.430000000000000160e-01 1.454999999999999905e-01 1.469999999999999918e-01 1.449999999999999900e-01 1.444999999999999896e-01 1.474999999999999922e-01 1.494999999999999940e-01 1.459999999999999909e-01 1.435000000000000164e-01 1.410000000000000142e-01 -9.999000000000000000e+03 -9.999000000000000000e+03 -9.999000000000000000e+03 -9.999000000000000000e+03
-9.999000000000000000e+03 1.725000000000000144e-01 1.705000000000000127e-01 1.640000000000000069e-01 1.640000000000000069e-01 1.585000000000000020e-01 1.499999999999999944e-01 1.464999999999999913e-01 1.449999999999999900e-01 1.469999999999999918e-01 1.395000000000000129e-01 1.370000000000000107e-01 1.415000000000000147e-01 1.435000000000000164e-01 -9.999000000000000000e+03 -9.999000000000000000e+03 -9.999000000000000000e+03 -9.999000000000000000e+03 -9.999000000000000000e+03 -9.999000000000000000e+03 -9.999000000000000000e+03 -9.999000000000000000e+03 -9.999000000000000000e+03
-9.999000000000000000e+03 1.834999999999999964e-01 -9.999000000000000000e+03 -9.999000000000000000e+03 -9.999000000000000000e+03 -9.999000000000000000e+03 -9.999000000000000000e+03 1.494999999999999940e-01 1.484999999999999931e-01 1.544999999999999984e-01 1.524999999999999967e-01 1.440000000000000169e-01 1.435000000000000164e-01 1.444999999999999896e-01 -9.999000000000000000e+03 -9.999000000000000000e+03 -9.999000000000000000e+03 -9.999000000000000000e+03 -9.999000000000000000e+03 -9.999000000000000000e+03 -9.999000000000000000e+03 -9.999000000000000000e+03 -9.999000000000000000e+03
-9.999000000000000000e+03 -9.999000000000000000e+03 -9.999000000000000000e+03 -9.999000000000000000e+03 -9.999000000000000000e+03 -9.999000000000000000e+03 -9.999000000000000000e+03 -9.999000000000000000e+03 1.544999999999999984e-01 1.675000000000000100e-01 1.660000000000000087e-01 1.529999999999999971e-01 1.420000000000000151e-01 -9.999000000000000000e+03 -9.999000000000000000e+03 -9.999000000000000000e+03 -9.999000000000000000e+03 -9.999000000000000000e+03 -9.999000000000000000e+03 -9.999000000000000000e+03 -9.999000000000000000e+03 -9.999000000000000000e+03 -9.999000000000000000e+03
-9.999000000000000000e+03 -9.999000000000000000e+03 -9.999000000000000000e+03 -9.999000000000000000e+03 -9.999000000000000000e+03 -9.999000000000000000e+03 -9.999000000000000000e+03 -9.999000000000000000e+03 1.610000000000000042e-01 1.668749999999999956e-01 1.650000000000000078e-01 1.509999999999999953e-01 1.410000000000000142e-01 -9.999000000000000000e+03 -9.999000000000000000e+03 -9.999000000000000000e+03 -9.999000000000000000e+03 -9.999000000000000000e+03 -9.999000000000000000e+03 -9.999000000000000000e+03 -9.999000000000000000e+03 -9.999000000000000000e+03 -9.999000000000000000e+03
-9.999000000000000000e+03 -9.999000000000000000e+03 -9.999000000000000000e+03 -9.999000000000000000e+03 -9.999000000000000000e+03 -9.999000000000000000e+03 -9.999000000000000000e+03 -9.999000000000000000e+03 -9.999000000000000000e+03 1.789999999999999925e-01 1.700000000000000122e-01 1.514999999999999958e-01 1.469999999999999918e-01 -9.999000000000000000e+03 -9.999000000000000000e+03 -9.999000000000000000e+03 -9.999000000000000000e+03 -9.999000000000000000e+03 -9.999000000000000000e+03 -9.999000000000000000e+03 -9.999000000000000000e+03 -9.999000000000000000e+03 -9.999000000000000000e+03
-9.999000000000000000e+03 -9.999000000000000000e+03 -9.999000000000000000e+03 -9.999000000000000000e+03 -9.999000000000000000e+03 -9.999000000000000000e+03 -9.999000000000000000e+03 -9.999000000000000000e+03 -9.999000000000000000e+03 -9.999000000000000000e+03 -9.999000000000000000e+03 -9.999000000000000000e+03 -9.999000000000000000e+03 -9.999000000000000000e+03 -9.999000000000000000e+03 -9.999000000000000000e+03 -9.999000000000000000e+03 -9.999000000000000000e+03 -9.999000000000000000e+03 -9.999000000000000000e+03 -9.999000000000000000e+03 -9.999000000000000000e+03 -9.999000000000000000e+03
