ncols        23
nrows        17
xllcorner    5165373.967557672411
yllcorner    3907485.103055199608
cellsize     5000.000000000000
NODATA_value  -9999
-9.999000000000000000e+03 -9.999000000000000000e+03 -9.999000000000000000e+03 -9.999000000000000000e+03 -9.999000000000000000e+03 -9.999000000000000000e+03 -9.999000000000000000e+03 -9.999000000000000000e+03 -9.999000000000000000e+03 -9.999000000000000000e+03 -9.999000000000000000e+03 -9.999000000000000000e+03 -9.999000000000000000e+03 -9.999000000000000000e+03 -9.999000000000000000e+03 -9.999000000000000000e+03 -9.999000000000000000e+03 -9.999000000000000000e+03 -9.999000000000000000e+03 -9.999000000000000000e+03 -9.999000000000000000e+03 -9.999000000000000000e+03 -9.999000000000000000e+03
-9.999000000000000000e+03 -9.999000000000000000e+03 -9.999000000000000000e+03 -9.999000000000000000e+03 -9.999000000000000000e+03 -9.999000000000000000e+03 1.195000000000000090e-01 1.190000000000000085e-01 -9.999000000000000000e+03 -9.999000000000000000e+03 -9.999000000000000000e+03 1.310000000000000053e-01 1.260000000000000009e-01 1.255000000000000004e-01 -9.999000000000000000e+03 -9.999000000000000000e+03 -9.999000000000000000e+03 -9.999000000000000000e+03 -9.999000000000000000e+03 -9.999000000000000000e+03 -9.999000000000000000e+03 -9.999000000000000000e+03 -9.999000000000000000e+03
-9.999000000000000000e+03 -9.999000000000000000e+03 -9.999000000000000000e+03 -9.999000000000000000e+03 -9.999000000000000000e+03 -9.999000000000000000e+03 1.199999999999999956e-01 1.155000000000000054e-01 1.170000000000000068e-01 1.260000000000000009e-01 1.290000000000000036e-01 1.270000000000000018e-01 1.255000000000000004e-01 1.255000000000000004e-01 1.199999999999999956e-01 -9.999000000000000000e+03 -9.999000000000000000e+03 -9.999000000000000000e+03 -9.999000000000000000e+03 -9.999000000000000000e+03 -9.999000000000000000e+03 -9.999000000000000000e+03 -9.999000000000000000e+03
-9.999000000000000000e+03 -9.999000000000000000e+03 -9.999000000000000000e+03 -9.999000000000000000e+03 -9.999000000000000000e+03 -9.999000000000000000e+03 1.185000000000000081e-01 1.110000000000000014e-01 1.160000000000000059e-01 1.214999999999999969e-01 1.204999999999999960e-01 1.239999999999999991e-01 1.365000000000000102e-01 1.420000000000000151e-01 1.255000000000000004e-01 1.224999999999999978e-01 -9.999000000000000000e+03 -9.999000000000000000e+03 -9.999000000000000000e+03 -9.999000000000000000e+03 -9.999000000000000000e+03 -9.999000000000000000e+03 -9.999000000000000000e+03
-9.999000000000000000e+03 -9.999000000000000000e+03 -9.999000000000000000e+03 -9.999000000000000000e+03 -9.999000000000000000e+03 1.310000000000000053e-01 1.165000000000000063e-01 1.135000000000000037e-01 1.160000000000000059e-01 1.155000000000000054e-01 1.160000000000000059e-01 1.275000000000000022e-01 1.370000000000000107e-01 1.449999999999999900e-01 1.400000000000000133e-01 1.270000000000000018e-01 1.219999999999999973e-01 1.234999999999999987e-01 -9.999000000000000000e+03 -9.999000000000000000e+03 -9.999000000000000000e+03 -9.999000000000000000e+03 -9.999000000000000000e+03
-9.999000000000000000e+03 -9.999000000000000000e+03 -9.999000000000000000e+03 -9.999000000000000000e+03 1.435000000000000164e-01 1.305000000000000049e-01 1.185000000000000081e-01 1.145000000000000046e-01 1.165000000000000063e-01 1.180000000000000077e-01 1.214999999999999969e-01 1.290000000000000036e-01 1.325000000000000067e-01 1.405000000000000138e-01 1.405000000000000138e-01 1.265000000000000013e-01 1.195000000000000090e-01 1.255000000000000004e-01 1.335000000000000075e-01 -9.999000000000000000e+03 -9.999000000000000000e+03 -9.999000000000000000e+03 -9.999000000000000000e+03
-9.999000000000000000e+03 -9.999000000000000000e+03 1.340000000000000080e-01 1.430000000000000160e-01 1.365000000000000102e-01 1.310000000000000053e-01 1.229999999999999982e-01 1.214999999999999969e-01 1.219999999999999973e-01 1.209999999999999964e-01 1.315000000000000058e-01 1.345000000000000084e-01 1.305000000000000049e-01 1.330000000000000071e-01 1.295000000000000040e-01 1.229999999999999982e-01 1.214999999999999969e-01 1.219999999999999973e-01 1.300000000000000044e-01 1.464999999999999913e-01 1.534999999999999976e-01 1.484999999999999931e-01 -9.999000000000000000e+03
-9.999000000000000000e+03 1.290000000000000036e-01 1.340000000000000080e-01 1.420000000000000151e-01 1.320000000000000062e-01 1.275000000000000022e-01 1.255000000000000004e-01 1.204999999999999960e-01 1.140000000000000041e-01 1.180000000000000077e-01 1.280000000000000027e-01 1.239999999999999991e-01 1.234999999999999987e-01 1.239999999999999991e-01 1.234999999999999987e-01 1.209999999999999964e-01 1.214999999999999969e-01 1.310000000000000053e-01 1.400000000000000133e-01 1.469999999999999918e-01 1.395000000000000129e-01 1.355000000000000093e-01 -9.999000000000000000e+03
-9.999000000000000000e+03 1.229999999999999982e-01 1.330000000000000071e-01 1.405000000000000138e-01 1.315000000000000058e-01 1.290000000000000036e-01 1.250000000000000000e-01 1.190000000000000085e-01 1.135000000000000037e-01 1.204999999999999960e-01 1.320000000000000062e-01 1.320000000000000062e-01 1.265000000000000013e-01 1.244999999999999996e-01 1.219999999999999973e-01 1.199999999999999956e-01 1.260000000000000009e-01 1.355000000000000093e-01 1.350000000000000089e-01 1.295000000000000040e-01 1.270000000000000018e-01 -9.999000000000000000e+03 -9.999000000000000000e+03
-9.999000000000000000e+03 1.224999999999999978e-01 1.250000000000000000e-01 1.325000000000000067e-01 1.285000000000000031e-01 1.275000000000000022e-01 1.270000000000000018e-01 1.255000000000000004e-01 1.190000000000000085e-01 1.219999999999999973e-01 1.285000000000000031e-01 1.257499999999999729e-01 1.219999999999999973e-01 1.190000000000000085e-01 1.185000000000000081e-01 1.170000000000000068e-01 1.229999999999999982e-01 1.315000000000000058e-01 1.255000000000000004e-01 1.229999999999999982e-01 -9.999000000000000000e+03 -9.999000000000000000e+03 -9.999000000000000000e+03
-9.999000000000000000e+03 1.285000000000000031e-01 1.275000000000000022e-01 1.345000000000000084e-01 1.340000000000000080e-01 1.330000000000000071e-01 1.300000000000000044e-01 1.275000000000000022e-01 1.204999999999999960e-01 1.199999999999999956e-01 1.204999999999999960e-01 1.234999999999999987e-01 1.180000000000000077e-01 1.165000000000000063e-01 1.185000000000000081e-01 1.190000000000000085e-01 1.195000000000000090e-01 1.209999999999999964e-01 1.185000000000000081e-01 -9.999000000000000000e+03 -9.999000000000000000e+03 -9.999000000000000000e+03 -9.999000000000000000e+03
-9.999000000000000000e+03 1.380000000000000115e-01 1.290000000000000036e-01 1.275000000000000022e-01 1.335000000000000075e-01 1.350000000000000089e-01 1.310000000000000053e-01 1.300000000000000044e-01 1.250000000000000000e-01 1.244999999999999996e-01 1.170000000000000068e-01 1.185000000000000081e-01 1.180000000000000077e-01 1.180000000000000077e-01 -9.999000000000000000e+03 -9.999000000000000000e+03 -9.999000000000000000e+03 -9.999000000000000000e+03 -9.999000000000000000e+03 -9.999000000000000000e+03 -9.999000000000000000e+03 -9.999000000000000000e+03 -9.999000000000000000e+03
-9.999000000000000000e+03 1.494999999999999940e-01 -9.999000000000000000e+03 -9.999000000000000000e+03 -9.999000000000000000e+03 -9.999000000000000000e+03 -9.999000000000000000e+03 1.320000000000000062e-01 1.315000000000000058e-01 1.305000000000000049e-01 1.239999999999999991e-01 1.199999999999999956e-01 1.175000000000000072e-01 1.209999999999999964e-01 -9.999000000000000000e+03 -9.999000000000000000e+03 -9.999000000000000000e+03 -9.999000000000000000e+03 -9.999000000000000000e+03 -9.999000000000000000e+03 -9.999000000000000000e+03 -9.999000000000000000e+03 -9.999000000000000000e+03
-9.999000000000000000e+03 -9.999000000000000000e+03 -9.999000000000000000e+03 -9.999000000000000000e+03 -9.999000000000000000e+03 -9.999000000000000000e+03 -9.999000000000000000e+03 -9.999000000000000000e+03 1.425000000000000155e-01 1.440000000000000169e-01 1.310000000000000053e-01 1.190000000000000085e-01 1.175000000000000072e-01 -9.999000000000000000e+03 -9.999000000000000000e+03 -9.999000000000000000e+03 -9.999000000000000000e+03 -9.999000000000000000e+03 -9.999000000000000000e+03 -9.999000000000000000e+03 -9.999000000000000000e+03 -9.999000000000000000e+03 -9.999000000000000000e+03
-9.999000000000000000e+03 -9.999000000000000000e+03 -9.999000000000000000e+03 -9.999000000000000000e+03 -9.999000000000000000e+03 -9.999000000000000000e+03 -9.999000000000000000e+03 -9.999000000000000000e+03 1.449999999999999900e-01 1.423333333333333117e-01 1.335000000000000075e-01 1.209999999999999964e-01 1.175000000000000072e-01 -9.999000000000000000e+03 -9.999000000000000000e+03 -9.999000000000000000e+03 -9.999000000000000000e+03 -9.999000000000000000e+03 -9.999000000000000000e+03 -9.999000000000000000e+03 -9.999000000000000000e+03 -9.999000000000000000e+03 -9.999000000000000000e+03
-9.999000000000000000e+03 -9.999000000000000000e+03 -9.999000000000000000e+03 -9.999000000000000000e+03 -9.999000000000000000e+03 -9.999000000000000000e+03 -9.999000000000000000e+03 -9.999000000000000000e+03 -9.999000000000000000e+03 1.519999999999999962e-01 1.474999999999999922e-01 1.300000000000000044e-01 1.195000000000000090e-01 -9.999000000000000000e+03 -9.999000000000000000e+03 -9.999000000000000000e+03 -9.999000000000000000e+03 -9.999000000000000000e+03 -9.999000000000000000e+03 -9.999000000000000000e+03 -9.999000000000000000e+03 -9.999000000000000000e+03 -9.999000000000000000e+03
-9.999000000000000000e+03 -9.999000000000000000e+03 -9.999000000000000000e+03 -9.999000000000000000e+03 -9.999000000000000000e+03 -9.999000000000000000e+03 -9.999000000000000000e+03 -9.999000000000000000e+03 -9.999000000000000000e+03 -9.999000000000000000e+03 -9.999000000000000000e+03 -9.999000000000000000e+03 -9.999000000000000000e+03 -9.999000000000000000e+03 -9.999000000000000000e+03 -9.999000000000000000e+03 -9.999000000000000000e+03 -9.999000000000000000e+03 -9.999000000000000000e+03 -9.999000000000000000e+03 -9.999000000000000000e+03 -9.999000000000000000e+03 -9.999000000000000000e+03
