ncols        23
nrows        17
xllcorner    5165373.967557672411
yllcorner    3907485.103055199608
cellsize     5000.000000000000
NODATA_value  -9999
-9.999000000000000000e+03 -9.999000000000000000e+03 -9.999000000000000000e+03 -9.999000000000000000e+03 -9.999000000000000000e+03 -9.999000000000000000e+03 -9.999000000000000000e+03 -9.999000000000000000e+03 -9.999000000000000000e+03 -9.999000000000000000e+03 -9.999000000000000000e+03 -9.999000000000000000e+03 -9.999000000000000000e+03 -9.999000000000000000e+03 -9.999000000000000000e+03 -9.999000000000000000e+03 -9.999000000000000000e+03 -9.999000000000000000e+03 -9.999000000000000000e+03 -9.999000000000000000e+03 -9.999000000000000000e+03 -9.999000000000000000e+03 -9.999000000000000000e+03
-9.999000000000000000e+03 -9.999000000000000000e+03 -9.999000000000000000e+03 -9.999000000000000000e+03 -9.999000000000000000e+03 -9.999000000000000000e+03 1.605000000000000038e-01 1.514999999999999958e-01 -9.999000000000000000e+03 -9.999000000000000000e+03 -9.999000000000000000e+03 1.740000000000000158e-01 1.630000000000000060e-01 1.529999999999999971e-01 -9.999000000000000000e+03 -9.999000000000000000e+03 -9.999000000000000000e+03 -9.999000000000000000e+03 -9.999000000000000000e+03 -9.999000000000000000e+03 -9.999000000000000000e+03 -9.999000000000000000e+03 -9.999000000000000000e+03
-9.999000000000000000e+03 -9.999000000000000000e+03 -9.999000000000000000e+03 -9.999000000000000000e+03 -9.999000000000000000e+03 -9.999000000000000000e+03 1.554999999999999993e-01 1.494999999999999940e-01 1.575000000000000011e-01 1.650000000000000078e-01 1.745000000000000162e-01 1.740000000000000158e-01 1.610000000000000042e-01 1.554999999999999993e-01 1.479999999999999927e-01 -9.999000000000000000e+03 -9.999000000000000000e+03 -9.999000000000000000e+03 -9.999000000000000000e+03 -9.999000000000000000e+03 -9.999000000000000000e+03 -9.999000000000000000e+03 -9.999000000000000000e+03
-9.999000000000000000e+03 -9.999000000000000000e+03 -9.999000000000000000e+03 -9.999000000000000000e+03 -9.999000000000000000e+03 -9.999000000000000000e+03 1.585000000000000020e-01 1.489999999999999936e-01 1.549999999999999989e-01 1.625000000000000056e-01 1.725000000000000144e-01 1.764999999999999902e-01 1.779999999999999916e-01 1.759999999999999898e-01 1.575000000000000011e-01 1.549999999999999989e-01 -9.999000000000000000e+03 -9.999000000000000000e+03 -9.999000000000000000e+03 -9.999000000000000000e+03 -9.999000000000000000e+03 -9.999000000000000000e+03 -9.999000000000000000e+03
-9.999000000000000000e+03 -9.999000000000000000e+03 -9.999000000000000000e+03 -9.999000000000000000e+03 -9.999000000000000000e+03 1.759999999999999898e-01 1.615000000000000047e-01 1.590000000000000024e-01 1.595000000000000029e-01 1.665000000000000091e-01 1.745000000000000162e-01 1.854999999999999982e-01 1.920000000000000040e-01 1.910000000000000031e-01 1.745000000000000162e-01 1.620000000000000051e-01 1.580000000000000016e-01 1.635000000000000064e-01 -9.999000000000000000e+03 -9.999000000000000000e+03 -9.999000000000000000e+03 -9.999000000000000000e+03 -9.999000000000000000e+03
-9.999000000000000000e+03 -9.999000000000000000e+03 -9.999000000000000000e+03 -9.999000000000000000e+03 1.940000000000000058e-01 1.755000000000000171e-01 1.620000000000000051e-01 1.645000000000000073e-01 1.695000000000000118e-01 1.725000000000000144e-01 1.789999999999999925e-01 1.859999999999999987e-01 1.925000000000000044e-01 1.955000000000000071e-01 1.814999999999999947e-01 1.570000000000000007e-01 1.484999999999999931e-01 1.655000000000000082e-01 1.809999999999999942e-01 -9.999000000000000000e+03 -9.999000000000000000e+03 -9.999000000000000000e+03 -9.999000000000000000e+03
-9.999000000000000000e+03 -9.999000000000000000e+03 1.875000000000000000e-01 1.940000000000000058e-01 1.809999999999999942e-01 1.705000000000000127e-01 1.665000000000000091e-01 1.710000000000000131e-01 1.725000000000000144e-01 1.745000000000000162e-01 1.854999999999999982e-01 1.890000000000000013e-01 1.920000000000000040e-01 1.920000000000000040e-01 1.779999999999999916e-01 1.620000000000000051e-01 1.499999999999999944e-01 1.559999999999999998e-01 1.745000000000000162e-01 1.975000000000000089e-01 2.060000000000000164e-01 1.970000000000000084e-01 -9.999000000000000000e+03
-9.999000000000000000e+03 1.670000000000000095e-01 1.854999999999999982e-01 1.960000000000000075e-01 1.774999999999999911e-01 1.735000000000000153e-01 1.735000000000000153e-01 1.695000000000000118e-01 1.645000000000000073e-01 1.715000000000000135e-01 1.844999999999999973e-01 1.824999999999999956e-01 1.819999999999999951e-01 1.849999999999999978e-01 1.824999999999999956e-01 1.715000000000000135e-01 1.600000000000000033e-01 1.605000000000000038e-01 1.774999999999999911e-01 2.055000000000000160e-01 2.045000000000000151e-01 1.925000000000000044e-01 -9.999000000000000000e+03
-9.999000000000000000e+03 1.610000000000000042e-01 1.814999999999999947e-01 1.955000000000000071e-01 1.804999999999999938e-01 1.764999999999999902e-01 1.725000000000000144e-01 1.700000000000000122e-01 1.764999999999999902e-01 1.849999999999999978e-01 1.910000000000000031e-01 1.809999999999999942e-01 1.755000000000000171e-01 1.859999999999999987e-01 1.875000000000000000e-01 1.740000000000000158e-01 1.675000000000000100e-01 1.705000000000000127e-01 1.814999999999999947e-01 1.945000000000000062e-01 2.040000000000000147e-01 -9.999000000000000000e+03 -9.999000000000000000e+03
-9.999000000000000000e+03 1.635000000000000064e-01 1.755000000000000171e-01 1.880000000000000004e-01 1.764999999999999902e-01 1.759999999999999898e-01 1.774999999999999911e-01 1.764999999999999902e-01 1.814999999999999947e-01 1.910000000000000031e-01 1.955000000000000071e-01 1.847499999999999698e-01 1.794999999999999929e-01 1.839999999999999969e-01 1.789999999999999925e-01 1.715000000000000135e-01 1.690000000000000113e-01 1.789999999999999925e-01 1.864999999999999991e-01 1.935000000000000053e-01 -9.999000000000000000e+03 -9.999000000000000000e+03 -9.999000000000000000e+03
-9.999000000000000000e+03 1.705000000000000127e-01 1.735000000000000153e-01 1.864999999999999991e-01 1.875000000000000000e-01 1.875000000000000000e-01 1.854999999999999982e-01 1.829999999999999960e-01 1.854999999999999982e-01 1.935000000000000053e-01 1.930000000000000049e-01 1.819999999999999951e-01 1.814999999999999947e-01 1.859999999999999987e-01 1.834999999999999964e-01 1.809999999999999942e-01 1.784999999999999920e-01 1.814999999999999947e-01 1.814999999999999947e-01 -9.999000000000000000e+03 -9.999000000000000000e+03 -9.999000000000000000e+03 -9.999000000000000000e+03
-9.999000000000000000e+03 1.804999999999999938e-01 1.784999999999999920e-01 1.819999999999999951e-01 1.854999999999999982e-01 1.859999999999999987e-01 1.880000000000000004e-01 1.910000000000000031e-01 1.960000000000000075e-01 2.045000000000000151e-01 1.900000000000000022e-01 1.755000000000000171e-01 1.819999999999999951e-01 1.885000000000000009e-01 -9.999000000000000000e+03 -9.999000000000000000e+03 -9.999000000000000000e+03 -9.999000000000000000e+03 -9.999000000000000000e+03 -9.999000000000000000e+03 -9.999000000000000000e+03 -9.999000000000000000e+03 -9.999000000000000000e+03
-9.999000000000000000e+03 1.940000000000000058e-01 -9.999000000000000000e+03 -9.999000000000000000e+03 -9.999000000000000000e+03 -9.999000000000000000e+03 -9.999000000000000000e+03 1.910000000000000031e-01 1.965000000000000080e-01 2.134999999999999953e-01 2.075000000000000178e-01 1.935000000000000053e-01 1.985000000000000098e-01 1.990000000000000102e-01 -9.999000000000000000e+03 -9.999000000000000000e+03 -9.999000000000000000e+03 -9.999000000000000000e+03 -9.999000000000000000e+03 -9.999000000000000000e+03 -9.999000000000000000e+03 -9.999000000000000000e+03 -9.999000000000000000e+03
-9.999000000000000000e+03 -9.999000000000000000e+03 -9.999000000000000000e+03 -9.999000000000000000e+03 -9.999000000000000000e+03 -9.999000000000000000e+03 -9.999000000000000000e+03 -9.999000000000000000e+03 2.010000000000000120e-01 2.240000000000000047e-01 2.200000000000000011e-01 2.025000000000000133e-01 1.940000000000000058e-01 -9.999000000000000000e+03 -9.999000000000000000e+03 -9.999000000000000000e+03 -9.999000000000000000e+03 -9.999000000000000000e+03 -9.999000000000000000e+03 -9.999000000000000000e+03 -9.999000000000000000e+03 -9.999000000000000000e+03 -9.999000000000000000e+03
-9.999000000000000000e+03 -9.999000000000000000e+03 -9.999000000000000000e+03 -9.999000000000000000e+03 -9.999000000000000000e+03 -9.999000000000000000e+03 -9.999000000000000000e+03 -9.999000000000000000e+03 2.114999999999999936e-01 2.182916666666666339e-01 2.154999999999999971e-01 1.975000000000000089e-01 1.875000000000000000e-01 -9.999000000000000000e+03 -9.999000000000000000e+03 -9.999000000000000000e+03 -9.999000000000000000e+03 -9.999000000000000000e+03 -9.999000000000000000e+03 -9.999000000000000000e+03 -9.999000000000000000e+03 -9.999000000000000000e+03 -9.999000000000000000e+03
-9.999000000000000000e+03 -9.999000000000000000e+03 -9.999000000000000000e+03 -9.999000000000000000e+03 -9.999000000000000000e+03 -9.999000000000000000e+03 -9.999000000000000000e+03 -9.999000000000000000e+03 -9.999000000000000000e+03 2.285000000000000087e-01 2.260000000000000064e-01 2.005000000000000115e-01 1.970000000000000084e-01 -9.999000000000000000e+03 -9.999000000000000000e+03 -9.999000000000000000e+03 -9.999000000000000000e+03 -9.999000000000000000e+03 -9.999000000000000000e+03 -9.999000000000000000e+03 -9.999000000000000000e+03 -9.999000000000000000e+03 -9.999000000000000000e+03
-9.999000000000000000e+03 -9.999000000000000000e+03 -9.999000000000000000e+03 -9.999000000000000000e+03 -9.999000000000000000e+03 -9.999000000000000000e+03 -9.999000000000000000e+03 -9.999000000000000000e+03 -9.999000000000000000e+03 -9.999000000000000000e+03 -9.999000000000000000e+03 -9.999000000000000000e+03 -9.999000000000000000e+03 -9.999000000000000000e+03 -9.999000000000000000e+03 -9.999000000000000000e+03 -9.999000000000000000e+03 -9.999000000000000000e+03 -9.999000000000000000e+03 -9.999000000000000000e+03 -9.999000000000000000e+03 -9.999000000000000000e+03 -9.999000000000000000e+03
