ncols        23
nrows        17
xllcorner    5165373.967557672411
yllcorner    3907485.103055199608
cellsize     5000.000000000000
NODATA_value  -9999
-9.999000000000000000e+03 -9.999000000000000000e+03 -9.999000000000000000e+03 -9.999000000000000000e+03 -9.999000000000000000e+03 -9.999000000000000000e+03 -9.999000000000000000e+03 -9.999000000000000000e+03 -9.999000000000000000e+03 -9.999000000000000000e+03 -9.999000000000000000e+03 -9.999000000000000000e+03 -9.999000000000000000e+03 -9.999000000000000000e+03 -9.999000000000000000e+03 -9.999000000000000000e+03 -9.999000000000000000e+03 -9.999000000000000000e+03 -9.999000000000000000e+03 -9.999000000000000000e+03 -9.999000000000000000e+03 -9.999000000000000000e+03 -9.999000000000000000e+03
-9.999000000000000000e+03 -9.999000000000000000e+03 -9.999000000000000000e+03 -9.999000000000000000e+03 -9.999000000000000000e+03 -9.999000000000000000e+03 4.884000000000000000e+03 4.885000000000000000e+03 -9.999000000000000000e+03 -9.999000000000000000e+03 -9.999000000000000000e+03 4.886000000000000000e+03 4.886000000000000000e+03 4.887000000000000000e+03 -9.999000000000000000e+03 -9.999000000000000000e+03 -9.999000000000000000e+03 -9.999000000000000000e+03 -9.999000000000000000e+03 -9.999000000000000000e+03 -9.999000000000000000e+03 -9.999000000000000000e+03 -9.999000000000000000e+03
-9.999000000000000000e+03 -9.999000000000000000e+03 -9.999000000000000000e+03 -9.999000000000000000e+03 -9.999000000000000000e+03 -9.999000000000000000e+03 4.884000000000000000e+03 4.885000000000000000e+03 4.885000000000000000e+03 4.885000000000000000e+03 4.886000000000000000e+03 4.886000000000000000e+03 4.886000000000000000e+03 4.887000000000000000e+03 4.887000000000000000e+03 -9.999000000000000000e+03 -9.999000000000000000e+03 -9.999000000000000000e+03 -9.999000000000000000e+03 -9.999000000000000000e+03 -9.999000000000000000e+03 -9.999000000000000000e+03 -9.999000000000000000e+03
-9.999000000000000000e+03 -9.999000000000000000e+03 -9.999000000000000000e+03 -9.999000000000000000e+03 -9.999000000000000000e+03 -9.999000000000000000e+03 4.884000000000000000e+03 4.885000000000000000e+03 4.885000000000000000e+03 4.885000000000000000e+03 4.886000000000000000e+03 4.967000000000000000e+03 4.967000000000000000e+03 4.968000000000000000e+03 4.968000000000000000e+03 4.968000000000000000e+03 -9.999000000000000000e+03 -9.999000000000000000e+03 -9.999000000000000000e+03 -9.999000000000000000e+03 -9.999000000000000000e+03 -9.999000000000000000e+03 -9.999000000000000000e+03
-9.999000000000000000e+03 -9.999000000000000000e+03 -9.999000000000000000e+03 -9.999000000000000000e+03 -9.999000000000000000e+03 4.884000000000000000e+03 4.965000000000000000e+03 4.966000000000000000e+03 4.966000000000000000e+03 4.966000000000000000e+03 4.967000000000000000e+03 4.967000000000000000e+03 4.967000000000000000e+03 4.968000000000000000e+03 4.968000000000000000e+03 4.968000000000000000e+03 4.969000000000000000e+03 4.969000000000000000e+03 -9.999000000000000000e+03 -9.999000000000000000e+03 -9.999000000000000000e+03 -9.999000000000000000e+03 -9.999000000000000000e+03
-9.999000000000000000e+03 -9.999000000000000000e+03 -9.999000000000000000e+03 -9.999000000000000000e+03 4.964000000000000000e+03 4.965000000000000000e+03 4.965000000000000000e+03 4.965000000000000000e+03 4.966000000000000000e+03 4.966000000000000000e+03 4.966000000000000000e+03 4.967000000000000000e+03 4.967000000000000000e+03 4.967000000000000000e+03 4.968000000000000000e+03 4.968000000000000000e+03 4.968000000000000000e+03 4.969000000000000000e+03 4.969000000000000000e+03 -9.999000000000000000e+03 -9.999000000000000000e+03 -9.999000000000000000e+03 -9.999000000000000000e+03
-9.999000000000000000e+03 -9.999000000000000000e+03 4.964000000000000000e+03 4.964000000000000000e+03 4.964000000000000000e+03 4.965000000000000000e+03 4.965000000000000000e+03 4.965000000000000000e+03 4.966000000000000000e+03 4.966000000000000000e+03 4.966000000000000000e+03 4.967000000000000000e+03 4.967000000000000000e+03 4.967000000000000000e+03 4.968000000000000000e+03 4.968000000000000000e+03 4.968000000000000000e+03 4.969000000000000000e+03 4.969000000000000000e+03 4.969000000000000000e+03 4.970000000000000000e+03 4.970000000000000000e+03 -9.999000000000000000e+03
-9.999000000000000000e+03 4.963000000000000000e+03 4.964000000000000000e+03 4.964000000000000000e+03 4.964000000000000000e+03 4.965000000000000000e+03 4.965000000000000000e+03 4.965000000000000000e+03 4.966000000000000000e+03 4.966000000000000000e+03 4.966000000000000000e+03 4.967000000000000000e+03 4.967000000000000000e+03 4.967000000000000000e+03 4.968000000000000000e+03 4.968000000000000000e+03 4.968000000000000000e+03 4.969000000000000000e+03 4.969000000000000000e+03 5.068000000000000000e+03 5.069000000000000000e+03 5.069000000000000000e+03 -9.999000000000000000e+03
-9.999000000000000000e+03 4.963000000000000000e+03 4.964000000000000000e+03 4.964000000000000000e+03 4.964000000000000000e+03 4.965000000000000000e+03 4.965000000000000000e+03 4.965000000000000000e+03 4.966000000000000000e+03 4.966000000000000000e+03 4.966000000000000000e+03 4.967000000000000000e+03 4.967000000000000000e+03 4.967000000000000000e+03 4.968000000000000000e+03 5.067000000000000000e+03 5.067000000000000000e+03 5.068000000000000000e+03 5.068000000000000000e+03 5.068000000000000000e+03 5.069000000000000000e+03 -9.999000000000000000e+03 -9.999000000000000000e+03
-9.999000000000000000e+03 4.963000000000000000e+03 4.964000000000000000e+03 4.964000000000000000e+03 4.964000000000000000e+03 4.965000000000000000e+03 4.965000000000000000e+03 4.965000000000000000e+03 4.966000000000000000e+03 5.065000000000000000e+03 5.065000000000000000e+03 5.066000000000000000e+03 5.066000000000000000e+03 5.066000000000000000e+03 5.067000000000000000e+03 5.067000000000000000e+03 5.067000000000000000e+03 5.067000000000000000e+03 5.068000000000000000e+03 5.068000000000000000e+03 -9.999000000000000000e+03 -9.999000000000000000e+03 -9.999000000000000000e+03
-9.999000000000000000e+03 4.963000000000000000e+03 4.963000000000000000e+03 4.964000000000000000e+03 5.063000000000000000e+03 5.063000000000000000e+03 5.064000000000000000e+03 5.064000000000000000e+03 5.064000000000000000e+03 5.065000000000000000e+03 5.065000000000000000e+03 5.065000000000000000e+03 5.066000000000000000e+03 5.066000000000000000e+03 5.066000000000000000e+03 5.067000000000000000e+03 5.067000000000000000e+03 5.067000000000000000e+03 5.068000000000000000e+03 -9.999000000000000000e+03 -9.999000000000000000e+03 -9.999000000000000000e+03 -9.999000000000000000e+03
-9.999000000000000000e+03 5.062000000000000000e+03 5.062000000000000000e+03 5.063000000000000000e+03 5.063000000000000000e+03 5.063000000000000000e+03 5.064000000000000000e+03 5.064000000000000000e+03 5.064000000000000000e+03 5.065000000000000000e+03 5.065000000000000000e+03 5.065000000000000000e+03 5.066000000000000000e+03 5.066000000000000000e+03 -9.999000000000000000e+03 -9.999000000000000000e+03 -9.999000000000000000e+03 -9.999000000000000000e+03 -9.999000000000000000e+03 -9.999000000000000000e+03 -9.999000000000000000e+03 -9.999000000000000000e+03 -9.999000000000000000e+03
-9.999000000000000000e+03 5.062000000000000000e+03 -9.999000000000000000e+03 -9.999000000000000000e+03 -9.999000000000000000e+03 -9.999000000000000000e+03 -9.999000000000000000e+03 5.064000000000000000e+03 5.064000000000000000e+03 5.065000000000000000e+03 5.065000000000000000e+03 5.065000000000000000e+03 5.066000000000000000e+03 5.066000000000000000e+03 -9.999000000000000000e+03 -9.999000000000000000e+03 -9.999000000000000000e+03 -9.999000000000000000e+03 -9.999000000000000000e+03 -9.999000000000000000e+03 -9.999000000000000000e+03 -9.999000000000000000e+03 -9.999000000000000000e+03
-9.999000000000000000e+03 -9.999000000000000000e+03 -9.999000000000000000e+03 -9.999000000000000000e+03 -9.999000000000000000e+03 -9.999000000000000000e+03 -9.999000000000000000e+03 -9.999000000000000000e+03 5.064000000000000000e+03 5.065000000000000000e+03 5.065000000000000000e+03 5.065000000000000000e+03 5.066000000000000000e+03 -9.999000000000000000e+03 -9.999000000000000000e+03 -9.999000000000000000e+03 -9.999000000000000000e+03 -9.999000000000000000e+03 -9.999000000000000000e+03 -9.999000000000000000e+03 -9.999000000000000000e+03 -9.999000000000000000e+03 -9.999000000000000000e+03
-9.999000000000000000e+03 -9.999000000000000000e+03 -9.999000000000000000e+03 -9.999000000000000000e+03 -9.999000000000000000e+03 -9.999000000000000000e+03 -9.999000000000000000e+03 -9.999000000000000000e+03 5.064000000000000000e+03 5.064000000000000000e+03 5.065000000000000000e+03 5.065000000000000000e+03 5.065000000000000000e+03 -9.999000000000000000e+03 -9.999000000000000000e+03 -9.999000000000000000e+03 -9.999000000000000000e+03 -9.999000000000000000e+03 -9.999000000000000000e+03 -9.999000000000000000e+03 -9.999000000000000000e+03 -9.999000000000000000e+03 -9.999000000000000000e+03
-9.999000000000000000e+03 -9.999000000000000000e+03 -9.999000000000000000e+03 -9.999000000000000000e+03 -9.999000000000000000e+03 -9.999000000000000000e+03 -9.999000000000000000e+03 -9.999000000000000000e+03 -9.999000000000000000e+03 5.165000000000000000e+03 5.166000000000000000e+03 5.166000000000000000e+03 5.166000000000000000e+03 -9.999000000000000000e+03 -9.999000000000000000e+03 -9.999000000000000000e+03 -9.999000000000000000e+03 -9.999000000000000000e+03 -9.999000000000000000e+03 -9.999000000000000000e+03 -9.999000000000000000e+03 -9.999000000000000000e+03 -9.999000000000000000e+03
-9.999000000000000000e+03 -9.999000000000000000e+03 -9.999000000000000000e+03 -9.999000000000000000e+03 -9.999000000000000000e+03 -9.999000000000000000e+03 -9.999000000000000000e+03 -9.999000000000000000e+03 -9.999000000000000000e+03 -9.999000000000000000e+03 -9.999000000000000000e+03 -9.999000000000000000e+03 -9.999000000000000000e+03 -9.999000000000000000e+03 -9.999000000000000000e+03 -9.999000000000000000e+03 -9.999000000000000000e+03 -9.999000000000000000e+03 -9.999000000000000000e+03 -9.999000000000000000e+03 -9.999000000000000000e+03 -9.999000000000000000e+03 -9.999000000000000000e+03
