ncols        23
nrows        17
xllcorner    5165373.967557672411
yllcorner    3907485.103055199608
cellsize     5000.000000000000
NODATA_value  -9999
-9.999000000000000000e+03 -9.999000000000000000e+03 -9.999000000000000000e+03 -9.999000000000000000e+03 -9.999000000000000000e+03 -9.999000000000000000e+03 -9.999000000000000000e+03 -9.999000000000000000e+03 -9.999000000000000000e+03 -9.999000000000000000e+03 -9.999000000000000000e+03 -9.999000000000000000e+03 -9.999000000000000000e+03 -9.999000000000000000e+03 -9.999000000000000000e+03 -9.999000000000000000e+03 -9.999000000000000000e+03 -9.999000000000000000e+03 -9.999000000000000000e+03 -9.999000000000000000e+03 -9.999000000000000000e+03 -9.999000000000000000e+03 -9.999000000000000000e+03
-9.999000000000000000e+03 -9.999000000000000000e+03 -9.999000000000000000e+03 -9.999000000000000000e+03 -9.999000000000000000e+03 -9.999000000000000000e+03 -1.082797539300540457e+01 -1.099090606008726390e+01 -9.999000000000000000e+03 -9.999000000000000000e+03 -9.999000000000000000e+03 -1.141888912792367883e+01 -1.148094807328100586e+01 -1.157238718723297488e+01 -9.999000000000000000e+03 -9.999000000000000000e+03 -9.999000000000000000e+03 -9.999000000000000000e+03 -9.999000000000000000e+03 -9.999000000000000000e+03 -9.999000000000000000e+03 -9.999000000000000000e+03 -9.999000000000000000e+03
-9.999000000000000000e+03 -9.999000000000000000e+03 -9.999000000000000000e+03 -9.999000000000000000e+03 -9.999000000000000000e+03 -9.999000000000000000e+03 -1.080827044211005195e+01 -1.119074966761399637e+01 -1.093402969820490256e+01 -1.106161572497365420e+01 -1.133981801946063861e+01 -1.140581274178627780e+01 -1.139672012627823960e+01 -1.155816541490251481e+01 -1.145233373691971579e+01 -9.999000000000000000e+03 -9.999000000000000000e+03 -9.999000000000000000e+03 -9.999000000000000000e+03 -9.999000000000000000e+03 -9.999000000000000000e+03 -9.999000000000000000e+03 -9.999000000000000000e+03
-9.999000000000000000e+03 -9.999000000000000000e+03 -9.999000000000000000e+03 -9.999000000000000000e+03 -9.999000000000000000e+03 -9.999000000000000000e+03 -1.103663535464895240e+01 -1.094424039118975855e+01 -1.085622275731269148e+01 -1.090800214825344305e+01 -1.141700345771729275e+01 -1.117348798407985200e+01 -1.140895579320986286e+01 -1.153495388530476440e+01 -1.149204518229074701e+01 -1.140562917064330861e+01 -9.999000000000000000e+03 -9.999000000000000000e+03 -9.999000000000000000e+03 -9.999000000000000000e+03 -9.999000000000000000e+03 -9.999000000000000000e+03 -9.999000000000000000e+03
-9.999000000000000000e+03 -9.999000000000000000e+03 -9.999000000000000000e+03 -9.999000000000000000e+03 -9.999000000000000000e+03 -1.081837088837061600e+01 -1.090321135439052824e+01 -1.089972511543878753e+01 -1.111821231777407704e+01 -1.110368647627713834e+01 -1.111937156457803688e+01 -1.112657211401760016e+01 -1.119383613176876757e+01 -1.141142756056394347e+01 -1.146537385665519615e+01 -1.144182957966550696e+01 -1.136913732180000203e+01 -1.139660341057172133e+01 -9.999000000000000000e+03 -9.999000000000000000e+03 -9.999000000000000000e+03 -9.999000000000000000e+03 -9.999000000000000000e+03
-9.999000000000000000e+03 -9.999000000000000000e+03 -9.999000000000000000e+03 -9.999000000000000000e+03 -1.089226284463712524e+01 -1.085866960150082683e+01 -1.089894868656296723e+01 -1.076427439562256438e+01 -1.089488529844104114e+01 -1.099791549421237136e+01 -1.087071731196221513e+01 -1.131153103480145994e+01 -1.100392855881761633e+01 -1.118565559626702921e+01 -1.114631735094680209e+01 -1.135988965988356370e+01 -1.175444098040687635e+01 -1.143937563421689951e+01 -1.145917889659328637e+01 -9.999000000000000000e+03 -9.999000000000000000e+03 -9.999000000000000000e+03 -9.999000000000000000e+03
-9.999000000000000000e+03 -9.999000000000000000e+03 -1.083245016659131466e+01 -1.079306798004685852e+01 -1.084121525250938944e+01 -1.082990399615306387e+01 -1.105730654663351231e+01 -1.083390229561913998e+01 -1.083104670660855717e+01 -1.092920056987417787e+01 -1.088651616238955455e+01 -1.108574607258873002e+01 -1.106400224880669825e+01 -1.118823838260331094e+01 -1.115798355184340807e+01 -1.109041156085281443e+01 -1.136230524884201287e+01 -1.134666866994658463e+01 -1.130520047729310562e+01 -1.132402198366686186e+01 -1.155393064518528412e+01 -1.148234813584106462e+01 -9.999000000000000000e+03
-9.999000000000000000e+03 -1.077633113897130812e+01 -1.078024785456325141e+01 -1.075262889535413180e+01 -1.078760188107064799e+01 -1.078322400018249461e+01 -1.083907731636991834e+01 -1.114778792466675483e+01 -1.077667047513798693e+01 -1.087301286100312581e+01 -1.089690015069644780e+01 -1.112751696338332685e+01 -1.117763487777568798e+01 -1.122048439494909822e+01 -1.120582448713013335e+01 -1.132270037103949356e+01 -1.143543014579907613e+01 -1.111078736688559943e+01 -1.110676263943851438e+01 -1.146268710302982896e+01 -1.152273295675532694e+01 -1.163552840059298354e+01 -9.999000000000000000e+03
-9.999000000000000000e+03 -1.073330521687143779e+01 -1.079333983206807268e+01 -1.077390059684180024e+01 -1.080207129800261612e+01 -1.071920381934440769e+01 -1.072959009783327744e+01 -1.084556417389400806e+01 -1.090193163251367103e+01 -1.072541041794766770e+01 -1.104255191483312792e+01 -1.113502851562565432e+01 -1.136395991367059466e+01 -1.116272032387616164e+01 -1.116538316693491240e+01 -1.114750555455793624e+01 -1.111168243232934216e+01 -1.120369132873391393e+01 -1.118473949778160481e+01 -1.117198010256090868e+01 -1.156218528149366875e+01 -9.999000000000000000e+03 -9.999000000000000000e+03
-9.999000000000000000e+03 -1.065007082004339978e+01 -1.082973369807599795e+01 -1.077652426444378619e+01 -1.084642317035417669e+01 -1.075312703922279844e+01 -1.094995805553713275e+01 -1.097915786155482998e+01 -1.121607489865781915e+01 -1.094024011428255960e+01 -1.074331019202492676e+01 -1.112187046146148006e+01 -1.114615488140060329e+01 -1.101950557714857126e+01 -1.141000887984248635e+01 -1.111721699262859708e+01 -1.109903710316146075e+01 -1.120644441818192760e+01 -1.118690437895335954e+01 -1.139823874871830256e+01 -9.999000000000000000e+03 -9.999000000000000000e+03 -9.999000000000000000e+03
-9.999000000000000000e+03 -1.071436323517236389e+01 -1.074494878930614306e+01 -1.075604403845367329e+01 -1.079025782833147495e+01 -1.097358489917946756e+01 -1.108828838369756298e+01 -1.103145903193634325e+01 -1.109175811181501814e+01 -1.115501726194930576e+01 -1.070274078765341308e+01 -1.083106743495574342e+01 -1.102344168315589101e+01 -1.131553716180439295e+01 -1.134429577290992874e+01 -1.107770402648642083e+01 -1.110890927177511500e+01 -1.112098070886617052e+01 -1.118084752908752577e+01 -9.999000000000000000e+03 -9.999000000000000000e+03 -9.999000000000000000e+03 -9.999000000000000000e+03
-9.999000000000000000e+03 -1.045515247436208206e+01 -1.058712265027885735e+01 -1.081364440512012060e+01 -1.075551438467817356e+01 -1.110652042968014719e+01 -1.104851938997614447e+01 -1.109967575478866308e+01 -1.106976396211659619e+01 -1.118115640326737470e+01 -1.088455885738060225e+01 -1.077207769400613913e+01 -1.100936311068409701e+01 -1.107256412941794643e+01 -9.999000000000000000e+03 -9.999000000000000000e+03 -9.999000000000000000e+03 -9.999000000000000000e+03 -9.999000000000000000e+03 -9.999000000000000000e+03 -9.999000000000000000e+03 -9.999000000000000000e+03 -9.999000000000000000e+03
-9.999000000000000000e+03 -1.042887154041921960e+01 -9.999000000000000000e+03 -9.999000000000000000e+03 -9.999000000000000000e+03 -9.999000000000000000e+03 -9.999000000000000000e+03 -1.111218951646477393e+01 -1.117649504181019715e+01 -1.126576699361931588e+01 -1.084576216029003781e+01 -1.090898477510773290e+01 -1.106423669234164819e+01 -1.132161259894781935e+01 -9.999000000000000000e+03 -9.999000000000000000e+03 -9.999000000000000000e+03 -9.999000000000000000e+03 -9.999000000000000000e+03 -9.999000000000000000e+03 -9.999000000000000000e+03 -9.999000000000000000e+03 -9.999000000000000000e+03
-9.999000000000000000e+03 -9.999000000000000000e+03 -9.999000000000000000e+03 -9.999000000000000000e+03 -9.999000000000000000e+03 -9.999000000000000000e+03 -9.999000000000000000e+03 -9.999000000000000000e+03 -1.124063343921990032e+01 -1.124878283936310552e+01 -1.109103764486896004e+01 -1.098574066303957153e+01 -1.106957728181483347e+01 -9.999000000000000000e+03 -9.999000000000000000e+03 -9.999000000000000000e+03 -9.999000000000000000e+03 -9.999000000000000000e+03 -9.999000000000000000e+03 -9.999000000000000000e+03 -9.999000000000000000e+03 -9.999000000000000000e+03 -9.999000000000000000e+03
-9.999000000000000000e+03 -9.999000000000000000e+03 -9.999000000000000000e+03 -9.999000000000000000e+03 -9.999000000000000000e+03 -9.999000000000000000e+03 -9.999000000000000000e+03 -9.999000000000000000e+03 -1.116772504537073907e+01 -1.125456072223881598e+01 -1.116878916008389488e+01 -1.089020813616373218e+01 -1.076073300875748906e+01 -9.999000000000000000e+03 -9.999000000000000000e+03 -9.999000000000000000e+03 -9.999000000000000000e+03 -9.999000000000000000e+03 -9.999000000000000000e+03 -9.999000000000000000e+03 -9.999000000000000000e+03 -9.999000000000000000e+03 -9.999000000000000000e+03
-9.999000000000000000e+03 -9.999000000000000000e+03 -9.999000000000000000e+03 -9.999000000000000000e+03 -9.999000000000000000e+03 -9.999000000000000000e+03 -9.999000000000000000e+03 -9.999000000000000000e+03 -9.999000000000000000e+03 -1.123736457392107546e+01 -1.115142814810880978e+01 -1.115817725540330407e+01 -1.084541420870942474e+01 -9.999000000000000000e+03 -9.999000000000000000e+03 -9.999000000000000000e+03 -9.999000000000000000e+03 -9.999000000000000000e+03 -9.999000000000000000e+03 -9.999000000000000000e+03 -9.999000000000000000e+03 -9.999000000000000000e+03 -9.999000000000000000e+03
-9.999000000000000000e+03 -9.999000000000000000e+03 -9.999000000000000000e+03 -9.999000000000000000e+03 -9.999000000000000000e+03 -9.999000000000000000e+03 -9.999000000000000000e+03 -9.999000000000000000e+03 -9.999000000000000000e+03 -9.999000000000000000e+03 -9.999000000000000000e+03 -9.999000000000000000e+03 -9.999000000000000000e+03 -9.999000000000000000e+03 -9.999000000000000000e+03 -9.999000000000000000e+03 -9.999000000000000000e+03 -9.999000000000000000e+03 -9.999000000000000000e+03 -9.999000000000000000e+03 -9.999000000000000000e+03 -9.999000000000000000e+03 -9.999000000000000000e+03
