ncols        23
nrows        17
xllcorner    5165373.967557672411
yllcorner    3907485.103055199608
cellsize     5000.000000000000
NODATA_value  -9999
-9.999000000000000000e+03 -9.999000000000000000e+03 -9.999000000000000000e+03 -9.999000000000000000e+03 -9.999000000000000000e+03 -9.999000000000000000e+03 -9.999000000000000000e+03 -9.999000000000000000e+03 -9.999000000000000000e+03 -9.999000000000000000e+03 -9.999000000000000000e+03 -9.999000000000000000e+03 -9.999000000000000000e+03 -9.999000000000000000e+03 -9.999000000000000000e+03 -9.999000000000000000e+03 -9.999000000000000000e+03 -9.999000000000000000e+03 -9.999000000000000000e+03 -9.999000000000000000e+03 -9.999000000000000000e+03 -9.999000000000000000e+03 -9.999000000000000000e+03
-9.999000000000000000e+03 -9.999000000000000000e+03 -9.999000000000000000e+03 -9.999000000000000000e+03 -9.999000000000000000e+03 -9.999000000000000000e+03 -9.032471874641053944e+00 -9.535259340285360707e+00 -9.999000000000000000e+03 -9.999000000000000000e+03 -9.999000000000000000e+03 -9.826669515483299477e+00 -9.825048211980156765e+00 -9.848603719254818145e+00 -9.999000000000000000e+03 -9.999000000000000000e+03 -9.999000000000000000e+03 -9.999000000000000000e+03 -9.999000000000000000e+03 -9.999000000000000000e+03 -9.999000000000000000e+03 -9.999000000000000000e+03 -9.999000000000000000e+03
-9.999000000000000000e+03 -9.999000000000000000e+03 -9.999000000000000000e+03 -9.999000000000000000e+03 -9.999000000000000000e+03 -9.999000000000000000e+03 -9.032849707007024165e+00 -9.533147400445939113e+00 -9.522695083819648687e+00 -9.513877538915107124e+00 -9.822381617029765977e+00 -9.818739777685893344e+00 -9.817406881129777219e+00 -9.841547929747759937e+00 -9.843251846345516753e+00 -9.999000000000000000e+03 -9.999000000000000000e+03 -9.999000000000000000e+03 -9.999000000000000000e+03 -9.999000000000000000e+03 -9.999000000000000000e+03 -9.999000000000000000e+03 -9.999000000000000000e+03
-9.999000000000000000e+03 -9.999000000000000000e+03 -9.999000000000000000e+03 -9.999000000000000000e+03 -9.999000000000000000e+03 -9.999000000000000000e+03 -9.034875519028037871e+00 -9.531355993434281970e+00 -9.517040165409929031e+00 -9.505508450528969533e+00 -9.812868284681222519e+00 -9.736445531969998513e+00 -9.735899160614275516e+00 -9.869259172210512077e+00 -9.871987716042365690e+00 -9.875464186706979675e+00 -9.999000000000000000e+03 -9.999000000000000000e+03 -9.999000000000000000e+03 -9.999000000000000000e+03 -9.999000000000000000e+03 -9.999000000000000000e+03 -9.999000000000000000e+03
-9.999000000000000000e+03 -9.999000000000000000e+03 -9.999000000000000000e+03 -9.999000000000000000e+03 -9.999000000000000000e+03 -9.055125072212719672e+00 -9.244870977102884524e+00 -9.549135451354015203e+00 -9.528622773395484913e+00 -9.513374751042722011e+00 -9.730037642016480248e+00 -9.727873550390231827e+00 -9.729553778554068444e+00 -9.865339374253405680e+00 -9.870432268358431571e+00 -9.876149687966123025e+00 -1.002755254165499821e+01 -1.003375514365768595e+01 -9.999000000000000000e+03 -9.999000000000000000e+03 -9.999000000000000000e+03 -9.999000000000000000e+03 -9.999000000000000000e+03
-9.999000000000000000e+03 -9.999000000000000000e+03 -9.999000000000000000e+03 -9.999000000000000000e+03 -8.885186817093213563e+00 -9.275337969789378079e+00 -9.255253974760952573e+00 -9.224429993735229871e+00 -9.518379760260799571e+00 -9.498487063616355641e+00 -9.490938964713887316e+00 -9.714093533814857295e+00 -9.718586491115329906e+00 -9.724803643033506972e+00 -9.863542606347596831e+00 -9.870553887438905605e+00 -9.877542985894367078e+00 -1.002981606053681318e+01 -1.003663652125371009e+01 -9.999000000000000000e+03 -9.999000000000000000e+03 -9.999000000000000000e+03 -9.999000000000000000e+03
-9.999000000000000000e+03 -9.999000000000000000e+03 -8.893271694108292991e+00 -8.897759368344217989e+00 -8.900718903391766190e+00 -9.294834891167832680e+00 -9.270945078404251305e+00 -9.223120935480473293e+00 -9.499739192328863879e+00 -9.475555043617509554e+00 -9.471788159509602067e+00 -9.699922820076650964e+00 -9.708326949790341942e+00 -9.717253143412312610e+00 -9.857817916359113752e+00 -9.866068536380655729e+00 -9.873915773977834931e+00 -1.002679755651927707e+01 -1.003406068218291125e+01 -1.004113490663110753e+01 -1.031350941533832710e+01 -1.032034656104565862e+01 -9.999000000000000000e+03
-9.999000000000000000e+03 -8.493484927989529254e+00 -8.898680800296387972e+00 -8.906869922092260694e+00 -8.915853694988662426e+00 -9.317677668882662800e+00 -9.293988665787104253e+00 -9.222335140169331424e+00 -9.474661221144774714e+00 -9.450217361495544921e+00 -9.454140331663705155e+00 -9.688449355655761153e+00 -9.700713393512526039e+00 -9.711968956364835037e+00 -9.853968211681447542e+00 -9.863133701906164674e+00 -9.871586461080461561e+00 -1.002488334438137940e+01 -1.003244031185046481e+01 -1.039145710543177614e+01 -1.046206652942478499e+01 -1.046902641256448696e+01 -9.999000000000000000e+03
-9.999000000000000000e+03 -8.494680155479272798e+00 -8.900767639782669605e+00 -8.910570726816185783e+00 -8.922541110681837750e+00 -9.329244444444444895e+00 -9.308033742082587381e+00 -9.222072086055296936e+00 -9.459814351723458969e+00 -9.437666666666666870e+00 -9.446518876117703911e+00 -9.683904224459228161e+00 -9.697852455149032380e+00 -9.710046084808997335e+00 -9.852593248263083581e+00 -1.011290186343376796e+01 -1.012157051102945715e+01 -1.037593306950708438e+01 -1.038358936836844748e+01 -1.039094817788689440e+01 -1.046160880314808495e+01 -9.999000000000000000e+03 -9.999000000000000000e+03
-9.999000000000000000e+03 -8.493450346408113916e+00 -8.898660400761805533e+00 -8.906859693311952597e+00 -8.915849614508708498e+00 -9.317675681287424183e+00 -9.293985111013387979e+00 -9.222329236935285834e+00 -9.474656928574949788e+00 -9.621454777260117552e+00 -9.625375594071815755e+00 -9.859724686457688847e+00 -9.871980624796890424e+00 -9.883226463456212585e+00 -1.010473602399206428e+01 -1.011388981387329444e+01 -1.012233028996809026e+01 -1.013024974283848145e+01 -1.038408021271932924e+01 -1.039135559798660502e+01 -9.999000000000000000e+03 -9.999000000000000000e+03 -9.999000000000000000e+03
-9.999000000000000000e+03 -8.490198531963761397e+00 -8.493954794166155509e+00 -8.897727853186967906e+00 -9.179903945219006545e+00 -9.175175063890371518e+00 -9.580412486634154234e+00 -9.532585623350204429e+00 -9.484353854614330004e+00 -9.646778390188808672e+00 -9.643007537308713850e+00 -9.648452969538473312e+00 -9.879567109727993568e+00 -9.888474908027401256e+00 -9.897129423649367652e+00 -1.011676783699347304e+01 -1.012459106452198654e+01 -1.013208322093971248e+01 -1.038560737182112170e+01 -9.999000000000000000e+03 -9.999000000000000000e+03 -9.999000000000000000e+03 -9.999000000000000000e+03
-9.999000000000000000e+03 -8.719086635242186745e+00 -8.720282149187537968e+00 -9.166292556624842547e+00 -9.164337074362169488e+00 -9.155647378157260263e+00 -9.564693213619383627e+00 -9.533867801269064302e+00 -9.502966218993238456e+00 -9.669679676289380410e+00 -9.662124991539368324e+00 -9.662586616052269761e+00 -9.889784063314991158e+00 -9.895975514177983712e+00 -9.999000000000000000e+03 -9.999000000000000000e+03 -9.999000000000000000e+03 -9.999000000000000000e+03 -9.999000000000000000e+03 -9.999000000000000000e+03 -9.999000000000000000e+03 -9.999000000000000000e+03 -9.999000000000000000e+03
-9.999000000000000000e+03 -8.714759682103004224e+00 -9.999000000000000000e+03 -9.999000000000000000e+03 -9.999000000000000000e+03 -9.999000000000000000e+03 -9.999000000000000000e+03 -9.535651108712725588e+00 -9.515126521698636708e+00 -9.686552431337844382e+00 -9.678490081736446982e+00 -9.676308424075669379e+00 -9.900688328227104762e+00 -9.904552699842179564e+00 -9.999000000000000000e+03 -9.999000000000000000e+03 -9.999000000000000000e+03 -9.999000000000000000e+03 -9.999000000000000000e+03 -9.999000000000000000e+03 -9.999000000000000000e+03 -9.999000000000000000e+03 -9.999000000000000000e+03
-9.999000000000000000e+03 -9.999000000000000000e+03 -9.999000000000000000e+03 -9.999000000000000000e+03 -9.999000000000000000e+03 -9.999000000000000000e+03 -9.999000000000000000e+03 -9.999000000000000000e+03 -9.523605040387812082e+00 -9.698776708128614032e+00 -9.691558080772217920e+00 -9.688406765712166191e+00 -9.911145988154837383e+00 -9.999000000000000000e+03 -9.999000000000000000e+03 -9.999000000000000000e+03 -9.999000000000000000e+03 -9.999000000000000000e+03 -9.999000000000000000e+03 -9.999000000000000000e+03 -9.999000000000000000e+03 -9.999000000000000000e+03 -9.999000000000000000e+03
-9.999000000000000000e+03 -9.999000000000000000e+03 -9.999000000000000000e+03 -9.999000000000000000e+03 -9.999000000000000000e+03 -9.999000000000000000e+03 -9.999000000000000000e+03 -9.999000000000000000e+03 -9.530219739530558343e+00 -9.521510625226174085e+00 -9.702055223323970523e+00 -9.698803171478136420e+00 -9.698017236072953295e+00 -9.999000000000000000e+03 -9.999000000000000000e+03 -9.999000000000000000e+03 -9.999000000000000000e+03 -9.999000000000000000e+03 -9.999000000000000000e+03 -9.999000000000000000e+03 -9.999000000000000000e+03 -9.999000000000000000e+03 -9.999000000000000000e+03
-9.999000000000000000e+03 -9.999000000000000000e+03 -9.999000000000000000e+03 -9.999000000000000000e+03 -9.999000000000000000e+03 -9.999000000000000000e+03 -9.999000000000000000e+03 -9.999000000000000000e+03 -9.999000000000000000e+03 -9.695428785561844620e+00 -9.812030423216084429e+00 -9.809045113773894542e+00 -9.807957496356159766e+00 -9.999000000000000000e+03 -9.999000000000000000e+03 -9.999000000000000000e+03 -9.999000000000000000e+03 -9.999000000000000000e+03 -9.999000000000000000e+03 -9.999000000000000000e+03 -9.999000000000000000e+03 -9.999000000000000000e+03 -9.999000000000000000e+03
-9.999000000000000000e+03 -9.999000000000000000e+03 -9.999000000000000000e+03 -9.999000000000000000e+03 -9.999000000000000000e+03 -9.999000000000000000e+03 -9.999000000000000000e+03 -9.999000000000000000e+03 -9.999000000000000000e+03 -9.999000000000000000e+03 -9.999000000000000000e+03 -9.999000000000000000e+03 -9.999000000000000000e+03 -9.999000000000000000e+03 -9.999000000000000000e+03 -9.999000000000000000e+03 -9.999000000000000000e+03 -9.999000000000000000e+03 -9.999000000000000000e+03 -9.999000000000000000e+03 -9.999000000000000000e+03 -9.999000000000000000e+03 -9.999000000000000000e+03
