ncols        23
nrows        17
xllcorner    5165373.967557672411
yllcorner    3907485.103055199608
cellsize     5000.000000000000
NODATA_value  -9999
-9.999000000000000000e+03 -9.999000000000000000e+03 -9.999000000000000000e+03 -9.999000000000000000e+03 -9.999000000000000000e+03 -9.999000000000000000e+03 -9.999000000000000000e+03 -9.999000000000000000e+03 -9.999000000000000000e+03 -9.999000000000000000e+03 -9.999000000000000000e+03 -9.999000000000000000e+03 -9.999000000000000000e+03 -9.999000000000000000e+03 -9.999000000000000000e+03 -9.999000000000000000e+03 -9.999000000000000000e+03 -9.999000000000000000e+03 -9.999000000000000000e+03 -9.999000000000000000e+03 -9.999000000000000000e+03 -9.999000000000000000e+03 -9.999000000000000000e+03
-9.999000000000000000e+03 -9.999000000000000000e+03 -9.999000000000000000e+03 -9.999000000000000000e+03 -9.999000000000000000e+03 -9.999000000000000000e+03 6.718186187744140625e+01 7.005069732666015625e+01 -9.999000000000000000e+03 -9.999000000000000000e+03 -9.999000000000000000e+03 8.612464141845703125e+01 9.433870697021484375e+01 1.200456542968750000e+02 -9.999000000000000000e+03 -9.999000000000000000e+03 -9.999000000000000000e+03 -9.999000000000000000e+03 -9.999000000000000000e+03 -9.999000000000000000e+03 -9.999000000000000000e+03 -9.999000000000000000e+03 -9.999000000000000000e+03
-9.999000000000000000e+03 -9.999000000000000000e+03 -9.999000000000000000e+03 -9.999000000000000000e+03 -9.999000000000000000e+03 -9.999000000000000000e+03 6.470220947265625000e+01 7.876239776611328125e+01 6.775807952880859375e+01 7.696199035644531250e+01 7.932189178466796875e+01 8.478127288818359375e+01 8.457305145263671875e+01 9.723860931396484375e+01 1.191831207275390625e+02 -9.999000000000000000e+03 -9.999000000000000000e+03 -9.999000000000000000e+03 -9.999000000000000000e+03 -9.999000000000000000e+03 -9.999000000000000000e+03 -9.999000000000000000e+03 -9.999000000000000000e+03
-9.999000000000000000e+03 -9.999000000000000000e+03 -9.999000000000000000e+03 -9.999000000000000000e+03 -9.999000000000000000e+03 -9.999000000000000000e+03 7.488861083984375000e+01 6.903166198730468750e+01 6.640718078613281250e+01 6.472865295410156250e+01 7.276796722412109375e+01 6.930736541748046875e+01 7.763021850585937500e+01 1.019840011596679688e+02 1.189903259277343750e+02 8.459213256835937500e+01 -9.999000000000000000e+03 -9.999000000000000000e+03 -9.999000000000000000e+03 -9.999000000000000000e+03 -9.999000000000000000e+03 -9.999000000000000000e+03 -9.999000000000000000e+03
-9.999000000000000000e+03 -9.999000000000000000e+03 -9.999000000000000000e+03 -9.999000000000000000e+03 -9.999000000000000000e+03 5.449180984497070312e+01 6.101023864746093750e+01 5.610300827026367188e+01 7.033692169189453125e+01 7.216622924804687500e+01 6.253311920166015625e+01 5.480217361450195312e+01 6.337417221069335938e+01 8.129408264160156250e+01 1.113086700439453125e+02 8.778068542480468750e+01 7.752330780029296875e+01 8.626948547363281250e+01 -9.999000000000000000e+03 -9.999000000000000000e+03 -9.999000000000000000e+03 -9.999000000000000000e+03 -9.999000000000000000e+03
-9.999000000000000000e+03 -9.999000000000000000e+03 -9.999000000000000000e+03 -9.999000000000000000e+03 5.492972183227539062e+01 6.791701507568359375e+01 5.796087646484375000e+01 4.977421951293945312e+01 6.204962539672851562e+01 6.310379409790039062e+01 5.535192489624023438e+01 5.392009735107421875e+01 6.870626068115234375e+01 5.381960296630859375e+01 5.745547103881835938e+01 8.450622558593750000e+01 9.021973419189453125e+01 8.666810607910156250e+01 7.618052673339843750e+01 -9.999000000000000000e+03 -9.999000000000000000e+03 -9.999000000000000000e+03 -9.999000000000000000e+03
-9.999000000000000000e+03 -9.999000000000000000e+03 5.035437011718750000e+01 4.428335952758789062e+01 5.343325805664062500e+01 5.247505569458007812e+01 7.548694610595703125e+01 6.101478958129882812e+01 6.089968872070312500e+01 6.583587646484375000e+01 4.652128219604492188e+01 5.502069854736328125e+01 6.348139190673828125e+01 6.372068786621093750e+01 5.666963958740234375e+01 6.426477050781250000e+01 8.103473663330078125e+01 6.691573333740234375e+01 6.418530273437500000e+01 6.524949645996093750e+01 6.590526580810546875e+01 8.358121490478515625e+01 -9.999000000000000000e+03
-9.999000000000000000e+03 2.417604827880859375e+01 4.648413848876953125e+01 4.029720687866210938e+01 4.532265090942382812e+01 4.724510192871093750e+01 5.489355850219726562e+01 8.668339538574218750e+01 5.617136764526367188e+01 6.823439025878906250e+01 5.121187591552734375e+01 6.913787841796875000e+01 5.286870574951171875e+01 6.417839813232421875e+01 5.688589859008789062e+01 7.086855316162109375e+01 9.488088989257812500e+01 5.907020950317382812e+01 5.100935745239257812e+01 6.360980987548828125e+01 5.699793243408203125e+01 6.981922912597656250e+01 -9.999000000000000000e+03
-9.999000000000000000e+03 3.345560073852539062e+01 5.117381286621093750e+01 5.863851165771484375e+01 5.039408111572265625e+01 3.718777084350585938e+01 6.046306228637695312e+01 6.334666442871093750e+01 6.326903533935546875e+01 5.787367248535156250e+01 4.457345962524414062e+01 4.200073623657226562e+01 6.154063415527343750e+01 6.457463836669921875e+01 6.711110687255859375e+01 6.615927124023437500e+01 5.640812683105468750e+01 4.623634719848632812e+01 5.788777542114257812e+01 6.393442916870117188e+01 7.495775604248046875e+01 -9.999000000000000000e+03 -9.999000000000000000e+03
-9.999000000000000000e+03 3.256555938720703125e+01 4.925361251831054688e+01 4.195106887817382812e+01 5.154458999633789062e+01 5.667589569091796875e+01 7.568817901611328125e+01 7.259922790527343750e+01 7.298821258544921875e+01 6.313294982910156250e+01 5.695067977905273438e+01 3.900000000000000000e+01 5.912799453735351562e+01 6.015513229370117188e+01 8.021185302734375000e+01 6.290008926391601562e+01 6.284387969970703125e+01 4.399745559692382812e+01 6.899493408203125000e+01 7.100170135498046875e+01 -9.999000000000000000e+03 -9.999000000000000000e+03 -9.999000000000000000e+03
-9.999000000000000000e+03 2.799790954589843750e+01 3.391011428833007812e+01 5.114896392822265625e+01 4.804850006103515625e+01 7.557672882080078125e+01 8.704221343994140625e+01 7.489607238769531250e+01 7.981985473632812500e+01 7.550301361083984375e+01 6.449990081787109375e+01 4.603517913818359375e+01 6.138150787353515625e+01 8.903229522705078125e+01 8.166453552246093750e+01 6.045669174194335938e+01 6.550353240966796875e+01 5.237167739868164062e+01 5.053905868530273438e+01 -9.999000000000000000e+03 -9.999000000000000000e+03 -9.999000000000000000e+03 -9.999000000000000000e+03
-9.999000000000000000e+03 9.064467430114746094e+00 4.223117065429687500e+01 4.522433471679687500e+01 4.753236389160156250e+01 7.701104736328125000e+01 7.364183807373046875e+01 7.889088439941406250e+01 7.297863769531250000e+01 8.711696624755859375e+01 6.889302062988281250e+01 4.807148742675781250e+01 5.402590179443359375e+01 6.850629425048828125e+01 -9.999000000000000000e+03 -9.999000000000000000e+03 -9.999000000000000000e+03 -9.999000000000000000e+03 -9.999000000000000000e+03 -9.999000000000000000e+03 -9.999000000000000000e+03 -9.999000000000000000e+03 -9.999000000000000000e+03
-9.999000000000000000e+03 5.921607494354248047e+00 -9.999000000000000000e+03 -9.999000000000000000e+03 -9.999000000000000000e+03 -9.999000000000000000e+03 -9.999000000000000000e+03 9.591950225830078125e+01 9.572784423828125000e+01 1.000191955566406250e+02 6.392566299438476562e+01 6.189770507812500000e+01 6.822096252441406250e+01 7.086457824707031250e+01 -9.999000000000000000e+03 -9.999000000000000000e+03 -9.999000000000000000e+03 -9.999000000000000000e+03 -9.999000000000000000e+03 -9.999000000000000000e+03 -9.999000000000000000e+03 -9.999000000000000000e+03 -9.999000000000000000e+03
-9.999000000000000000e+03 -9.999000000000000000e+03 -9.999000000000000000e+03 -9.999000000000000000e+03 -9.999000000000000000e+03 -9.999000000000000000e+03 -9.999000000000000000e+03 -9.999000000000000000e+03 8.791550445556640625e+01 9.409690093994140625e+01 7.928571319580078125e+01 5.254335021972656250e+01 5.419182586669921875e+01 -9.999000000000000000e+03 -9.999000000000000000e+03 -9.999000000000000000e+03 -9.999000000000000000e+03 -9.999000000000000000e+03 -9.999000000000000000e+03 -9.999000000000000000e+03 -9.999000000000000000e+03 -9.999000000000000000e+03 -9.999000000000000000e+03
-9.999000000000000000e+03 -9.999000000000000000e+03 -9.999000000000000000e+03 -9.999000000000000000e+03 -9.999000000000000000e+03 -9.999000000000000000e+03 -9.999000000000000000e+03 -9.999000000000000000e+03 8.755539703369140625e+01 8.260336303710937500e+01 8.346084594726562500e+01 6.215496444702148438e+01 6.141492080688476562e+01 -9.999000000000000000e+03 -9.999000000000000000e+03 -9.999000000000000000e+03 -9.999000000000000000e+03 -9.999000000000000000e+03 -9.999000000000000000e+03 -9.999000000000000000e+03 -9.999000000000000000e+03 -9.999000000000000000e+03 -9.999000000000000000e+03
-9.999000000000000000e+03 -9.999000000000000000e+03 -9.999000000000000000e+03 -9.999000000000000000e+03 -9.999000000000000000e+03 -9.999000000000000000e+03 -9.999000000000000000e+03 -9.999000000000000000e+03 -9.999000000000000000e+03 9.607032775878906250e+01 7.857619476318359375e+01 7.261771392822265625e+01 6.160846328735351562e+01 -9.999000000000000000e+03 -9.999000000000000000e+03 -9.999000000000000000e+03 -9.999000000000000000e+03 -9.999000000000000000e+03 -9.999000000000000000e+03 -9.999000000000000000e+03 -9.999000000000000000e+03 -9.999000000000000000e+03 -9.999000000000000000e+03
-9.999000000000000000e+03 -9.999000000000000000e+03 -9.999000000000000000e+03 -9.999000000000000000e+03 -9.999000000000000000e+03 -9.999000000000000000e+03 -9.999000000000000000e+03 -9.999000000000000000e+03 -9.999000000000000000e+03 -9.999000000000000000e+03 -9.999000000000000000e+03 -9.999000000000000000e+03 -9.999000000000000000e+03 -9.999000000000000000e+03 -9.999000000000000000e+03 -9.999000000000000000e+03 -9.999000000000000000e+03 -9.999000000000000000e+03 -9.999000000000000000e+03 -9.999000000000000000e+03 -9.999000000000000000e+03 -9.999000000000000000e+03 -9.999000000000000000e+03
