ncols        23
nrows        17
xllcorner    5165373.967557672411
yllcorner    3907485.103055199608
cellsize     5000.000000000000
NODATA_value  -9999
-9.999000000000000000e+03 -9.999000000000000000e+03 -9.999000000000000000e+03 -9.999000000000000000e+03 -9.999000000000000000e+03 -9.999000000000000000e+03 -9.999000000000000000e+03 -9.999000000000000000e+03 -9.999000000000000000e+03 -9.999000000000000000e+03 -9.999000000000000000e+03 -9.999000000000000000e+03 -9.999000000000000000e+03 -9.999000000000000000e+03 -9.999000000000000000e+03 -9.999000000000000000e+03 -9.999000000000000000e+03 -9.999000000000000000e+03 -9.999000000000000000e+03 -9.999000000000000000e+03 -9.999000000000000000e+03 -9.999000000000000000e+03 -9.999000000000000000e+03
-9.999000000000000000e+03 -9.999000000000000000e+03 -9.999000000000000000e+03 -9.999000000000000000e+03 -9.999000000000000000e+03 -9.999000000000000000e+03 1.055843224760774390e+01 1.109426883904696126e+01 -9.999000000000000000e+03 -9.999000000000000000e+03 -9.999000000000000000e+03 1.112053008254477149e+01 9.207487892454336631e+00 9.497571361451059957e+00 -9.999000000000000000e+03 -9.999000000000000000e+03 -9.999000000000000000e+03 -9.999000000000000000e+03 -9.999000000000000000e+03 -9.999000000000000000e+03 -9.999000000000000000e+03 -9.999000000000000000e+03 -9.999000000000000000e+03
-9.999000000000000000e+03 -9.999000000000000000e+03 -9.999000000000000000e+03 -9.999000000000000000e+03 -9.999000000000000000e+03 -9.999000000000000000e+03 1.082447302741507933e+01 1.074382090685139701e+01 1.093872207933289253e+01 1.094959703702103049e+01 1.122749964569693937e+01 1.035500188789193032e+01 1.032436851612014372e+01 9.778500278071287966e+00 1.006075152947276408e+01 -9.999000000000000000e+03 -9.999000000000000000e+03 -9.999000000000000000e+03 -9.999000000000000000e+03 -9.999000000000000000e+03 -9.999000000000000000e+03 -9.999000000000000000e+03 -9.999000000000000000e+03
-9.999000000000000000e+03 -9.999000000000000000e+03 -9.999000000000000000e+03 -9.999000000000000000e+03 -9.999000000000000000e+03 -9.999000000000000000e+03 9.581166757416555768e+00 9.793878675320044636e+00 9.590744518269318064e+00 1.020646823032734041e+01 1.074702595963239737e+01 1.017526459930714466e+01 9.811790870487318017e+00 9.900122950086693407e+00 9.837794706636902475e+00 1.062034342279522825e+01 -9.999000000000000000e+03 -9.999000000000000000e+03 -9.999000000000000000e+03 -9.999000000000000000e+03 -9.999000000000000000e+03 -9.999000000000000000e+03 -9.999000000000000000e+03
-9.999000000000000000e+03 -9.999000000000000000e+03 -9.999000000000000000e+03 -9.999000000000000000e+03 -9.999000000000000000e+03 1.114660252375741045e+01 1.049360582822303734e+01 1.022007212979767665e+01 9.446059154830374283e+00 1.001652692851746629e+01 1.025368062814724013e+01 1.140078848719808313e+01 1.036923362889837996e+01 9.666620863328750701e+00 8.949408683140708476e+00 1.035302188974900695e+01 1.093861792373502873e+01 1.032074641383391977e+01 -9.999000000000000000e+03 -9.999000000000000000e+03 -9.999000000000000000e+03 -9.999000000000000000e+03 -9.999000000000000000e+03
-9.999000000000000000e+03 -9.999000000000000000e+03 -9.999000000000000000e+03 -9.999000000000000000e+03 1.091255276024342535e+01 1.086640475448261611e+01 1.030530294890565557e+01 1.071598998091862853e+01 9.860701846491785716e+00 1.027778136480083937e+01 1.075733134664398882e+01 9.183417450063089404e+00 1.158103259036654009e+01 9.501542945789013928e+00 9.752443375344320486e+00 9.762731786397589318e+00 9.694617537439116361e+00 1.046421556966356725e+01 1.012499188211798185e+01 -9.999000000000000000e+03 -9.999000000000000000e+03 -9.999000000000000000e+03 -9.999000000000000000e+03
-9.999000000000000000e+03 -9.999000000000000000e+03 1.031314887411243930e+01 1.076768010718962643e+01 1.081920946787643345e+01 1.080748380476112658e+01 1.008357531262089246e+01 9.769305565995985319e+00 1.109794116696481225e+01 1.066235990348277518e+01 1.151973632649626467e+01 1.306180729842741073e+01 1.138111376585165324e+01 1.061345623030418039e+01 1.054568264978688852e+01 1.053368305941783589e+01 9.766565987852153796e+00 1.109083290037457736e+01 9.872361671297664287e+00 9.062181783692322412e+00 8.066258427748005388e+00 1.129832370862805391e+01 -9.999000000000000000e+03
-9.999000000000000000e+03 9.507164792755871119e+00 1.002194735360268929e+01 1.113359180569870688e+01 1.070908223641247403e+01 1.107028592160168934e+01 1.070379091794907644e+01 9.362810697867139709e+00 1.045936035197658676e+01 1.048345472888193619e+01 1.063765964616787940e+01 1.060297687142094247e+01 1.090161058496608426e+01 1.027800854883321513e+01 1.022817979182147674e+01 1.062915821481570688e+01 9.407128813108920795e+00 1.187752433991210843e+01 1.067755089332895047e+01 1.077430347590403237e+01 1.043964353979938053e+01 1.037327020858230320e+01 -9.999000000000000000e+03
-9.999000000000000000e+03 8.734903895531806128e+00 9.232664251966735236e+00 9.970267991406247532e+00 1.049893161207105408e+01 1.026454738896801189e+01 1.031813486359091314e+01 9.736181896964403393e+00 9.950003315415333560e+00 1.152556822069443143e+01 1.082641313380913317e+01 1.128970202234552822e+01 1.093295372181554725e+01 1.083651914106276948e+01 1.015659528370439979e+01 1.040449148491304499e+01 1.095096700810321799e+01 1.079519689126648885e+01 1.110944001002584436e+01 1.009574382324629482e+01 9.556786002530877511e+00 -9.999000000000000000e+03 -9.999000000000000000e+03
-9.999000000000000000e+03 8.199417235159787154e+00 8.423796794163587620e+00 1.045254246808442034e+01 1.058814156929764927e+01 9.686420376635918927e+00 8.766835943679197385e+00 9.880657352694711903e+00 9.963779612647822859e+00 1.085551292922826150e+01 1.228141679222899008e+01 1.095053045707492601e+01 1.039941761233665751e+01 1.036730109595819194e+01 9.415089232614203496e+00 1.151034499765042263e+01 1.174256765806708280e+01 1.087291555359108841e+01 1.042663943412889260e+01 9.856784418648061319e+00 -9.999000000000000000e+03 -9.999000000000000000e+03 -9.999000000000000000e+03
-9.999000000000000000e+03 8.547051796256724288e+00 8.857784978576527024e+00 9.705743954298759135e+00 1.045736116242321323e+01 9.575750610216481107e+00 7.751735010231699086e+00 9.681547535966778639e+00 1.004399964858247074e+01 1.053945565254939964e+01 1.136536439251633368e+01 1.178352971317346309e+01 1.133753950215272610e+01 1.051239116524107153e+01 1.117329053060954891e+01 1.101648030689005076e+01 1.070332658644156076e+01 1.052328187118522251e+01 9.601171158177228548e+00 -9.999000000000000000e+03 -9.999000000000000000e+03 -9.999000000000000000e+03 -9.999000000000000000e+03
-9.999000000000000000e+03 1.140919002854159281e+01 8.107339969303296812e+00 9.734167935532195060e+00 9.711868388054650580e+00 8.360122416714411031e+00 9.567394289847698019e+00 1.054869509764983171e+01 1.064415302875298508e+01 1.035855674150008099e+01 1.064331108967685857e+01 1.241787374343635442e+01 1.243568495218643477e+01 1.046759212600066746e+01 -9.999000000000000000e+03 -9.999000000000000000e+03 -9.999000000000000000e+03 -9.999000000000000000e+03 -9.999000000000000000e+03 -9.999000000000000000e+03 -9.999000000000000000e+03 -9.999000000000000000e+03 -9.999000000000000000e+03
-9.999000000000000000e+03 1.071037812866966377e+01 -9.999000000000000000e+03 -9.999000000000000000e+03 -9.999000000000000000e+03 -9.999000000000000000e+03 -9.999000000000000000e+03 8.809442031096988757e+00 9.870774208481694956e+00 9.859154477132065608e+00 1.024445470603058794e+01 1.215927298042142723e+01 1.171572074832992882e+01 1.077505774385833348e+01 -9.999000000000000000e+03 -9.999000000000000000e+03 -9.999000000000000000e+03 -9.999000000000000000e+03 -9.999000000000000000e+03 -9.999000000000000000e+03 -9.999000000000000000e+03 -9.999000000000000000e+03 -9.999000000000000000e+03
-9.999000000000000000e+03 -9.999000000000000000e+03 -9.999000000000000000e+03 -9.999000000000000000e+03 -9.999000000000000000e+03 -9.999000000000000000e+03 -9.999000000000000000e+03 -9.999000000000000000e+03 1.000307763952172024e+01 1.016426426051425125e+01 1.029210726520544128e+01 1.065990144144609530e+01 1.150950485576818672e+01 -9.999000000000000000e+03 -9.999000000000000000e+03 -9.999000000000000000e+03 -9.999000000000000000e+03 -9.999000000000000000e+03 -9.999000000000000000e+03 -9.999000000000000000e+03 -9.999000000000000000e+03 -9.999000000000000000e+03 -9.999000000000000000e+03
-9.999000000000000000e+03 -9.999000000000000000e+03 -9.999000000000000000e+03 -9.999000000000000000e+03 -9.999000000000000000e+03 -9.999000000000000000e+03 -9.999000000000000000e+03 -9.999000000000000000e+03 1.044242324158681257e+01 1.055739810042640414e+01 1.020785706840694651e+01 1.070103017038900539e+01 9.500248546200452893e+00 -9.999000000000000000e+03 -9.999000000000000000e+03 -9.999000000000000000e+03 -9.999000000000000000e+03 -9.999000000000000000e+03 -9.999000000000000000e+03 -9.999000000000000000e+03 -9.999000000000000000e+03 -9.999000000000000000e+03 -9.999000000000000000e+03
-9.999000000000000000e+03 -9.999000000000000000e+03 -9.999000000000000000e+03 -9.999000000000000000e+03 -9.999000000000000000e+03 -9.999000000000000000e+03 -9.999000000000000000e+03 -9.999000000000000000e+03 -9.999000000000000000e+03 9.821086742129644165e+00 1.045132141286368466e+01 1.007998692041530120e+01 9.157179244625082148e+00 -9.999000000000000000e+03 -9.999000000000000000e+03 -9.999000000000000000e+03 -9.999000000000000000e+03 -9.999000000000000000e+03 -9.999000000000000000e+03 -9.999000000000000000e+03 -9.999000000000000000e+03 -9.999000000000000000e+03 -9.999000000000000000e+03
-9.999000000000000000e+03 -9.999000000000000000e+03 -9.999000000000000000e+03 -9.999000000000000000e+03 -9.999000000000000000e+03 -9.999000000000000000e+03 -9.999000000000000000e+03 -9.999000000000000000e+03 -9.999000000000000000e+03 -9.999000000000000000e+03 -9.999000000000000000e+03 -9.999000000000000000e+03 -9.999000000000000000e+03 -9.999000000000000000e+03 -9.999000000000000000e+03 -9.999000000000000000e+03 -9.999000000000000000e+03 -9.999000000000000000e+03 -9.999000000000000000e+03 -9.999000000000000000e+03 -9.999000000000000000e+03 -9.999000000000000000e+03 -9.999000000000000000e+03
