ncols        23
nrows        17
xllcorner    5165373.967557672411
yllcorner    3907485.103055199608
cellsize     5000.000000000000
NODATA_value  -9999
-9.999000000000000000e+03 -9.999000000000000000e+03 -9.999000000000000000e+03 -9.999000000000000000e+03 -9.999000000000000000e+03 -9.999000000000000000e+03 -9.999000000000000000e+03 -9.999000000000000000e+03 -9.999000000000000000e+03 -9.999000000000000000e+03 -9.999000000000000000e+03 -9.999000000000000000e+03 -9.999000000000000000e+03 -9.999000000000000000e+03 -9.999000000000000000e+03 -9.999000000000000000e+03 -9.999000000000000000e+03 -9.999000000000000000e+03 -9.999000000000000000e+03 -9.999000000000000000e+03 -9.999000000000000000e+03 -9.999000000000000000e+03 -9.999000000000000000e+03
-9.999000000000000000e+03 -9.999000000000000000e+03 -9.999000000000000000e+03 -9.999000000000000000e+03 -9.999000000000000000e+03 -9.999000000000000000e+03 1.461770513170050911e+01 1.427745564336754214e+01 -9.999000000000000000e+03 -9.999000000000000000e+03 -9.999000000000000000e+03 1.331396942691135976e+01 1.157314243401951970e+01 1.289967536436845563e+01 -9.999000000000000000e+03 -9.999000000000000000e+03 -9.999000000000000000e+03 -9.999000000000000000e+03 -9.999000000000000000e+03 -9.999000000000000000e+03 -9.999000000000000000e+03 -9.999000000000000000e+03 -9.999000000000000000e+03
-9.999000000000000000e+03 -9.999000000000000000e+03 -9.999000000000000000e+03 -9.999000000000000000e+03 -9.999000000000000000e+03 -9.999000000000000000e+03 1.452681268600593434e+01 1.358996185617856156e+01 1.339236115879613465e+01 1.401807719745334424e+01 1.374895576660903096e+01 1.067500000000000071e+01 1.275652116850984363e+01 1.231315951842645973e+01 1.308179584528806316e+01 -9.999000000000000000e+03 -9.999000000000000000e+03 -9.999000000000000000e+03 -9.999000000000000000e+03 -9.999000000000000000e+03 -9.999000000000000000e+03 -9.999000000000000000e+03 -9.999000000000000000e+03
-9.999000000000000000e+03 -9.999000000000000000e+03 -9.999000000000000000e+03 -9.999000000000000000e+03 -9.999000000000000000e+03 -9.999000000000000000e+03 1.233296690493277481e+01 1.291306245143967857e+01 1.298231624999634803e+01 1.344785160939475155e+01 1.377009868041746721e+01 1.232232474185298443e+01 1.204805990382842218e+01 1.282154498690120192e+01 1.265493748643775973e+01 1.411945095355947544e+01 -9.999000000000000000e+03 -9.999000000000000000e+03 -9.999000000000000000e+03 -9.999000000000000000e+03 -9.999000000000000000e+03 -9.999000000000000000e+03 -9.999000000000000000e+03
-9.999000000000000000e+03 -9.999000000000000000e+03 -9.999000000000000000e+03 -9.999000000000000000e+03 -9.999000000000000000e+03 1.469739944898313055e+01 1.349922695868256284e+01 1.358989482195057263e+01 1.262913246227592445e+01 1.301219154724770632e+01 1.337394676918600211e+01 1.340901545772230463e+01 1.314596055996988433e+01 1.274662926707204313e+01 1.207164936543405709e+01 1.335966621816517907e+01 1.436840316292714448e+01 1.373674253837638304e+01 -9.999000000000000000e+03 -9.999000000000000000e+03 -9.999000000000000000e+03 -9.999000000000000000e+03 -9.999000000000000000e+03
-9.999000000000000000e+03 -9.999000000000000000e+03 -9.999000000000000000e+03 -9.999000000000000000e+03 1.428860478013716317e+01 1.339588168393854595e+01 1.363501103256885472e+01 1.451696854040192619e+01 1.346343381609932166e+01 1.372997699955073614e+01 1.402685725532785455e+01 1.271761581047776701e+01 1.478481944223121936e+01 1.335840712403470931e+01 1.359253549617600143e+01 1.339199178992996409e+01 1.304136933943067156e+01 1.392103263061177287e+01 1.338006258725943809e+01 -9.999000000000000000e+03 -9.999000000000000000e+03 -9.999000000000000000e+03 -9.999000000000000000e+03
-9.999000000000000000e+03 -9.999000000000000000e+03 1.373846410556683573e+01 1.466142997049955632e+01 1.425542186224152985e+01 1.423638404775739197e+01 1.273839230586576043e+01 1.324541926108313916e+01 1.529538779634929924e+01 1.513945786483835576e+01 1.515640909527149205e+01 1.579085211771153396e+01 1.406962880523681036e+01 1.465178533541942940e+01 1.463277487519766495e+01 1.399918242406298496e+01 1.344686978475519190e+01 1.434381375916517953e+01 1.361030323501089079e+01 1.380000000000000071e+01 1.116528539648006912e+01 1.528789540901257382e+01 -9.999000000000000000e+03
-9.999000000000000000e+03 1.335391994224192125e+01 1.343325913653925952e+01 1.552653930931401405e+01 1.494475771130657549e+01 1.523284609410475454e+01 1.372359040662458440e+01 1.252891790533487359e+01 1.415925678182026104e+01 1.425222760632683716e+01 1.470330075404001846e+01 1.433448565490860283e+01 1.410772837335114893e+01 1.349729237704132245e+01 1.341556708408395870e+01 1.388775019058591376e+01 1.305126257999867789e+01 1.505645159651768594e+01 1.471298713218108212e+01 1.407747121461260065e+01 1.390695188165456742e+01 1.335609777437707280e+01 -9.999000000000000000e+03
-9.999000000000000000e+03 1.242361958303898994e+01 1.342613707862055428e+01 1.301230476976435924e+01 1.437857247403657723e+01 1.422765911493035951e+01 1.435215992717488120e+01 1.331024701158543877e+01 1.387222805304149631e+01 1.622457566856238032e+01 1.434878390654504798e+01 1.516456384776927990e+01 1.455196678944646926e+01 1.575375346615395600e+01 1.379187897398586671e+01 1.397495872420824448e+01 1.526703169309979913e+01 1.415310594418888890e+01 1.458995441418592698e+01 1.331423277920993442e+01 1.296827385814309253e+01 -9.999000000000000000e+03 -9.999000000000000000e+03
-9.999000000000000000e+03 1.229561002466633823e+01 1.308392265033560520e+01 1.367886827785357440e+01 1.381611557376104571e+01 1.368128516849142251e+01 1.266823480213326647e+01 1.326974696057041214e+01 1.349634456882448141e+01 1.471306976319257842e+01 1.542297328206386098e+01 1.388231864182186115e+01 1.395856933093560315e+01 1.434641549298257779e+01 1.311086340910932435e+01 1.478707813995712961e+01 1.712341341941187522e+01 1.451945029776741158e+01 1.410109153030528972e+01 1.356983669914827573e+01 -9.999000000000000000e+03 -9.999000000000000000e+03 -9.999000000000000000e+03
-9.999000000000000000e+03 1.311325397455087582e+01 1.339433020103463967e+01 1.411263088743258010e+01 1.419350139031686808e+01 1.351845815721702415e+01 1.190965603759755176e+01 1.336585316268557833e+01 1.399610449967421744e+01 1.512605736658685096e+01 1.634635602357877104e+01 1.540382559227061243e+01 1.466636128285072616e+01 1.387135088072445299e+01 1.450766265055603554e+01 1.432189698651397336e+01 1.406042108610769503e+01 1.390269138735306953e+01 1.299369537750226833e+01 -9.999000000000000000e+03 -9.999000000000000000e+03 -9.999000000000000000e+03 -9.999000000000000000e+03
-9.999000000000000000e+03 1.644500000000000028e+01 1.258312494593850772e+01 1.360490337321873788e+01 1.370563416366965548e+01 1.198931519291920189e+01 1.355195205661060420e+01 1.485019443103572812e+01 1.318341870756300871e+01 1.385944174797615958e+01 1.453027555571869023e+01 1.590800975843887244e+01 1.565329035263804158e+01 1.396738657339895084e+01 -9.999000000000000000e+03 -9.999000000000000000e+03 -9.999000000000000000e+03 -9.999000000000000000e+03 -9.999000000000000000e+03 -9.999000000000000000e+03 -9.999000000000000000e+03 -9.999000000000000000e+03 -9.999000000000000000e+03
-9.999000000000000000e+03 1.538884786129706939e+01 -9.999000000000000000e+03 -9.999000000000000000e+03 -9.999000000000000000e+03 -9.999000000000000000e+03 -9.999000000000000000e+03 1.233440761049982726e+01 1.314865207266166358e+01 1.254893040694411965e+01 1.435770384849037384e+01 1.620890519545069708e+01 1.625495661905837963e+01 1.517350603440508827e+01 -9.999000000000000000e+03 -9.999000000000000000e+03 -9.999000000000000000e+03 -9.999000000000000000e+03 -9.999000000000000000e+03 -9.999000000000000000e+03 -9.999000000000000000e+03 -9.999000000000000000e+03 -9.999000000000000000e+03
-9.999000000000000000e+03 -9.999000000000000000e+03 -9.999000000000000000e+03 -9.999000000000000000e+03 -9.999000000000000000e+03 -9.999000000000000000e+03 -9.999000000000000000e+03 -9.999000000000000000e+03 1.329132705156540339e+01 1.341097413963841234e+01 1.496916951161341025e+01 1.453438021786919876e+01 1.607160118065489485e+01 -9.999000000000000000e+03 -9.999000000000000000e+03 -9.999000000000000000e+03 -9.999000000000000000e+03 -9.999000000000000000e+03 -9.999000000000000000e+03 -9.999000000000000000e+03 -9.999000000000000000e+03 -9.999000000000000000e+03 -9.999000000000000000e+03
-9.999000000000000000e+03 -9.999000000000000000e+03 -9.999000000000000000e+03 -9.999000000000000000e+03 -9.999000000000000000e+03 -9.999000000000000000e+03 -9.999000000000000000e+03 -9.999000000000000000e+03 1.455848109427167714e+01 1.361050294314470754e+01 1.395850767851951701e+01 1.508350312288556161e+01 1.379659464995117446e+01 -9.999000000000000000e+03 -9.999000000000000000e+03 -9.999000000000000000e+03 -9.999000000000000000e+03 -9.999000000000000000e+03 -9.999000000000000000e+03 -9.999000000000000000e+03 -9.999000000000000000e+03 -9.999000000000000000e+03 -9.999000000000000000e+03
-9.999000000000000000e+03 -9.999000000000000000e+03 -9.999000000000000000e+03 -9.999000000000000000e+03 -9.999000000000000000e+03 -9.999000000000000000e+03 -9.999000000000000000e+03 -9.999000000000000000e+03 -9.999000000000000000e+03 1.254924130140284788e+01 1.361915734830702185e+01 1.332786629404135859e+01 1.285464630154498167e+01 -9.999000000000000000e+03 -9.999000000000000000e+03 -9.999000000000000000e+03 -9.999000000000000000e+03 -9.999000000000000000e+03 -9.999000000000000000e+03 -9.999000000000000000e+03 -9.999000000000000000e+03 -9.999000000000000000e+03 -9.999000000000000000e+03
-9.999000000000000000e+03 -9.999000000000000000e+03 -9.999000000000000000e+03 -9.999000000000000000e+03 -9.999000000000000000e+03 -9.999000000000000000e+03 -9.999000000000000000e+03 -9.999000000000000000e+03 -9.999000000000000000e+03 -9.999000000000000000e+03 -9.999000000000000000e+03 -9.999000000000000000e+03 -9.999000000000000000e+03 -9.999000000000000000e+03 -9.999000000000000000e+03 -9.999000000000000000e+03 -9.999000000000000000e+03 -9.999000000000000000e+03 -9.999000000000000000e+03 -9.999000000000000000e+03 -9.999000000000000000e+03 -9.999000000000000000e+03 -9.999000000000000000e+03
