ncols        23
nrows        17
xllcorner    5165373.967557672411
yllcorner    3907485.103055199608
cellsize     5000.000000000000
NODATA_value  -9999
-9.999000000000000000e+03 -9.999000000000000000e+03 -9.999000000000000000e+03 -9.999000000000000000e+03 -9.999000000000000000e+03 -9.999000000000000000e+03 -9.999000000000000000e+03 -9.999000000000000000e+03 -9.999000000000000000e+03 -9.999000000000000000e+03 -9.999000000000000000e+03 -9.999000000000000000e+03 -9.999000000000000000e+03 -9.999000000000000000e+03 -9.999000000000000000e+03 -9.999000000000000000e+03 -9.999000000000000000e+03 -9.999000000000000000e+03 -9.999000000000000000e+03 -9.999000000000000000e+03 -9.999000000000000000e+03 -9.999000000000000000e+03 -9.999000000000000000e+03
-9.999000000000000000e+03 -9.999000000000000000e+03 -9.999000000000000000e+03 -9.999000000000000000e+03 -9.999000000000000000e+03 -9.999000000000000000e+03 8.770623079020305468e+00 8.566473386020524217e+00 -9.999000000000000000e+03 -9.999000000000000000e+03 -9.999000000000000000e+03 7.988381656146815502e+00 6.943885460411711286e+00 7.739805218621072846e+00 -9.999000000000000000e+03 -9.999000000000000000e+03 -9.999000000000000000e+03 -9.999000000000000000e+03 -9.999000000000000000e+03 -9.999000000000000000e+03 -9.999000000000000000e+03 -9.999000000000000000e+03 -9.999000000000000000e+03
-9.999000000000000000e+03 -9.999000000000000000e+03 -9.999000000000000000e+03 -9.999000000000000000e+03 -9.999000000000000000e+03 -9.999000000000000000e+03 8.716087611603560603e+00 8.153977113707137292e+00 8.035416695277680432e+00 8.410846318472005478e+00 8.249373459965418931e+00 6.405000000000000249e+00 7.653912701105905825e+00 7.387895711055875836e+00 7.849077507172837365e+00 -9.999000000000000000e+03 -9.999000000000000000e+03 -9.999000000000000000e+03 -9.999000000000000000e+03 -9.999000000000000000e+03 -9.999000000000000000e+03 -9.999000000000000000e+03 -9.999000000000000000e+03
-9.999000000000000000e+03 -9.999000000000000000e+03 -9.999000000000000000e+03 -9.999000000000000000e+03 -9.999000000000000000e+03 -9.999000000000000000e+03 7.399780142959664353e+00 7.747837470863807141e+00 7.789389749997808643e+00 8.068710965636849863e+00 8.262059208250480680e+00 7.393394845111790126e+00 7.228835942297052952e+00 7.692926992140720621e+00 7.592962491862655483e+00 8.471670572135684196e+00 -9.999000000000000000e+03 -9.999000000000000000e+03 -9.999000000000000000e+03 -9.999000000000000000e+03 -9.999000000000000000e+03 -9.999000000000000000e+03 -9.999000000000000000e+03
-9.999000000000000000e+03 -9.999000000000000000e+03 -9.999000000000000000e+03 -9.999000000000000000e+03 -9.999000000000000000e+03 8.818439669389878333e+00 8.099536175209538058e+00 8.153936893170342870e+00 7.577479477365554494e+00 7.807314928348623617e+00 8.024368061511600203e+00 8.045409274633382068e+00 7.887576335981930420e+00 7.647977560243225170e+00 7.242989619260433720e+00 8.015799730899107800e+00 8.621041897756287042e+00 8.242045523025829823e+00 -9.999000000000000000e+03 -9.999000000000000000e+03 -9.999000000000000000e+03 -9.999000000000000000e+03 -9.999000000000000000e+03
-9.999000000000000000e+03 -9.999000000000000000e+03 -9.999000000000000000e+03 -9.999000000000000000e+03 8.573162868082297550e+00 8.037529010363126503e+00 8.181006619541312475e+00 8.710181124241154649e+00 8.078060289659592996e+00 8.237986199730441328e+00 8.416114353196713083e+00 7.630569486286660208e+00 8.870891665338731968e+00 8.015044274420825232e+00 8.155521297705600858e+00 8.035195073957977385e+00 7.824821603658402402e+00 8.352619578367063369e+00 8.028037552355662854e+00 -9.999000000000000000e+03 -9.999000000000000000e+03 -9.999000000000000000e+03 -9.999000000000000000e+03
-9.999000000000000000e+03 -9.999000000000000000e+03 8.243078463340101081e+00 8.796857982299734147e+00 8.553253117344917555e+00 8.541830428654435536e+00 7.643035383519455550e+00 7.947251556649883142e+00 9.177232677809579187e+00 9.083674718903013812e+00 9.093845457162894164e+00 9.474511270626919668e+00 8.441777283142085864e+00 8.791071201251657641e+00 8.779664925118598973e+00 8.399509454437790623e+00 8.068121870853115496e+00 8.606288255499107365e+00 8.166181941006534828e+00 8.279999999999999361e+00 6.699171237888041475e+00 9.172737245407544648e+00 -9.999000000000000000e+03
-9.999000000000000000e+03 8.012351965345152038e+00 8.059955481923555709e+00 9.315923585588407718e+00 8.966854626783945292e+00 9.139707656462851659e+00 8.234154243974749932e+00 7.517350743200923446e+00 8.495554069092156269e+00 8.551336563796102297e+00 8.821980452424011077e+00 8.600691392945162050e+00 8.464637024010688293e+00 8.098375426224793117e+00 8.049340250450374157e+00 8.332650114351547899e+00 7.830757547999206203e+00 9.033870957910611565e+00 8.827792279308649626e+00 8.446482728767559678e+00 8.344171128992739384e+00 8.013658664626243322e+00 -9.999000000000000000e+03
-9.999000000000000000e+03 7.454171749823393256e+00 8.055682247172331500e+00 7.807382861858615186e+00 8.627143484421946340e+00 8.536595468958214639e+00 8.611295956304928723e+00 7.986148206951263262e+00 8.323336831824898141e+00 9.734745401137427478e+00 8.609270343927027724e+00 9.098738308661568297e+00 8.731180073667880848e+00 9.452252079692373243e+00 8.275127384391518959e+00 8.384975234524945975e+00 9.160219015859878411e+00 8.491863566513332628e+00 8.753972648511556542e+00 7.988539667525960120e+00 7.780964314885855160e+00 -9.999000000000000000e+03 -9.999000000000000000e+03
-9.999000000000000000e+03 7.377366014799802585e+00 7.850353590201362586e+00 8.207320966712144283e+00 8.289669344256626715e+00 8.208771101094853861e+00 7.600940881279959704e+00 7.961848176342247285e+00 8.097806741294688138e+00 8.827841857915545987e+00 9.253783969238316587e+00 8.329391185093117045e+00 8.375141598561361533e+00 8.607849295789545607e+00 7.866518045465594078e+00 8.872246883974277409e+00 1.027404805164712442e+01 8.711670178660446240e+00 8.460654918183173834e+00 8.141902019488965081e+00 -9.999000000000000000e+03 -9.999000000000000000e+03 -9.999000000000000000e+03
-9.999000000000000000e+03 7.867952384730525495e+00 8.036598120620784158e+00 8.467578532459548057e+00 8.516100834190121205e+00 8.111074894330213780e+00 7.145793622558531233e+00 8.019511897611346640e+00 8.397662699804529396e+00 9.075634419952109511e+00 9.807813614147262271e+00 9.242295355362367459e+00 8.799816769710435693e+00 8.322810528434670729e+00 8.704597590333621682e+00 8.593138191908384016e+00 8.436252651664617019e+00 8.341614832411840652e+00 7.796217226501360287e+00 -9.999000000000000000e+03 -9.999000000000000000e+03 -9.999000000000000000e+03 -9.999000000000000000e+03
-9.999000000000000000e+03 9.866999999999999105e+00 7.549874967563104278e+00 8.162942023931242019e+00 8.223380498201793287e+00 7.193589115751520602e+00 8.131171233966362877e+00 8.910116658621436869e+00 7.910051224537804515e+00 8.315665048785694680e+00 8.718165333431214137e+00 9.544805855063323463e+00 9.391974211582825305e+00 8.380431944039370862e+00 -9.999000000000000000e+03 -9.999000000000000000e+03 -9.999000000000000000e+03 -9.999000000000000000e+03 -9.999000000000000000e+03 -9.999000000000000000e+03 -9.999000000000000000e+03 -9.999000000000000000e+03 -9.999000000000000000e+03
-9.999000000000000000e+03 9.233308716778241276e+00 -9.999000000000000000e+03 -9.999000000000000000e+03 -9.999000000000000000e+03 -9.999000000000000000e+03 -9.999000000000000000e+03 7.400644566299895644e+00 7.889191243596997971e+00 7.529358244166471259e+00 8.614622309094224661e+00 9.725343117270417892e+00 9.752973971435027423e+00 9.104103620643051897e+00 -9.999000000000000000e+03 -9.999000000000000000e+03 -9.999000000000000000e+03 -9.999000000000000000e+03 -9.999000000000000000e+03 -9.999000000000000000e+03 -9.999000000000000000e+03 -9.999000000000000000e+03 -9.999000000000000000e+03
-9.999000000000000000e+03 -9.999000000000000000e+03 -9.999000000000000000e+03 -9.999000000000000000e+03 -9.999000000000000000e+03 -9.999000000000000000e+03 -9.999000000000000000e+03 -9.999000000000000000e+03 7.974796230939241504e+00 8.046584483783046693e+00 8.981501706968046506e+00 8.720628130721518545e+00 9.642960708392935842e+00 -9.999000000000000000e+03 -9.999000000000000000e+03 -9.999000000000000000e+03 -9.999000000000000000e+03 -9.999000000000000000e+03 -9.999000000000000000e+03 -9.999000000000000000e+03 -9.999000000000000000e+03 -9.999000000000000000e+03 -9.999000000000000000e+03
-9.999000000000000000e+03 -9.999000000000000000e+03 -9.999000000000000000e+03 -9.999000000000000000e+03 -9.999000000000000000e+03 -9.999000000000000000e+03 -9.999000000000000000e+03 -9.999000000000000000e+03 8.735088656563005927e+00 8.166301765886824882e+00 8.375104607111710564e+00 9.050101873731335900e+00 8.277956789970703610e+00 -9.999000000000000000e+03 -9.999000000000000000e+03 -9.999000000000000000e+03 -9.999000000000000000e+03 -9.999000000000000000e+03 -9.999000000000000000e+03 -9.999000000000000000e+03 -9.999000000000000000e+03 -9.999000000000000000e+03 -9.999000000000000000e+03
-9.999000000000000000e+03 -9.999000000000000000e+03 -9.999000000000000000e+03 -9.999000000000000000e+03 -9.999000000000000000e+03 -9.999000000000000000e+03 -9.999000000000000000e+03 -9.999000000000000000e+03 -9.999000000000000000e+03 7.529544780841708196e+00 8.171494408984212754e+00 7.996719776424814796e+00 7.712787780926988468e+00 -9.999000000000000000e+03 -9.999000000000000000e+03 -9.999000000000000000e+03 -9.999000000000000000e+03 -9.999000000000000000e+03 -9.999000000000000000e+03 -9.999000000000000000e+03 -9.999000000000000000e+03 -9.999000000000000000e+03 -9.999000000000000000e+03
-9.999000000000000000e+03 -9.999000000000000000e+03 -9.999000000000000000e+03 -9.999000000000000000e+03 -9.999000000000000000e+03 -9.999000000000000000e+03 -9.999000000000000000e+03 -9.999000000000000000e+03 -9.999000000000000000e+03 -9.999000000000000000e+03 -9.999000000000000000e+03 -9.999000000000000000e+03 -9.999000000000000000e+03 -9.999000000000000000e+03 -9.999000000000000000e+03 -9.999000000000000000e+03 -9.999000000000000000e+03 -9.999000000000000000e+03 -9.999000000000000000e+03 -9.999000000000000000e+03 -9.999000000000000000e+03 -9.999000000000000000e+03 -9.999000000000000000e+03
