ncols        23
nrows        17
xllcorner    5165373.967557672411
yllcorner    3907485.103055199608
cellsize     5000.000000000000
NODATA_value  -9999
-9.999000000000000000e+03 -9.999000000000000000e+03 -9.999000000000000000e+03 -9.999000000000000000e+03 -9.999000000000000000e+03 -9.999000000000000000e+03 -9.999000000000000000e+03 -9.999000000000000000e+03 -9.999000000000000000e+03 -9.999000000000000000e+03 -9.999000000000000000e+03 -9.999000000000000000e+03 -9.999000000000000000e+03 -9.999000000000000000e+03 -9.999000000000000000e+03 -9.999000000000000000e+03 -9.999000000000000000e+03 -9.999000000000000000e+03 -9.999000000000000000e+03 -9.999000000000000000e+03 -9.999000000000000000e+03 -9.999000000000000000e+03 -9.999000000000000000e+03
-9.999000000000000000e+03 -9.999000000000000000e+03 -9.999000000000000000e+03 -9.999000000000000000e+03 -9.999000000000000000e+03 -9.999000000000000000e+03 2.111686449521548781e+01 2.218853767809392252e+01 -9.999000000000000000e+03 -9.999000000000000000e+03 -9.999000000000000000e+03 2.224106016508954298e+01 1.841497578490867326e+01 1.899514272290211991e+01 -9.999000000000000000e+03 -9.999000000000000000e+03 -9.999000000000000000e+03 -9.999000000000000000e+03 -9.999000000000000000e+03 -9.999000000000000000e+03 -9.999000000000000000e+03 -9.999000000000000000e+03 -9.999000000000000000e+03
-9.999000000000000000e+03 -9.999000000000000000e+03 -9.999000000000000000e+03 -9.999000000000000000e+03 -9.999000000000000000e+03 -9.999000000000000000e+03 2.164894605483015866e+01 2.148764181370279402e+01 2.187744415866578507e+01 2.189919407404206098e+01 2.245499929139387874e+01 2.071000377578386065e+01 2.064873703224028745e+01 1.955700055614257593e+01 2.012150305894552815e+01 -9.999000000000000000e+03 -9.999000000000000000e+03 -9.999000000000000000e+03 -9.999000000000000000e+03 -9.999000000000000000e+03 -9.999000000000000000e+03 -9.999000000000000000e+03 -9.999000000000000000e+03
-9.999000000000000000e+03 -9.999000000000000000e+03 -9.999000000000000000e+03 -9.999000000000000000e+03 -9.999000000000000000e+03 -9.999000000000000000e+03 1.916233351483311154e+01 1.958775735064008927e+01 1.918148903653863613e+01 2.041293646065468081e+01 2.149405191926479475e+01 2.035052919861428933e+01 1.962358174097463603e+01 1.980024590017338681e+01 1.967558941327380495e+01 2.124068684559045650e+01 -9.999000000000000000e+03 -9.999000000000000000e+03 -9.999000000000000000e+03 -9.999000000000000000e+03 -9.999000000000000000e+03 -9.999000000000000000e+03 -9.999000000000000000e+03
-9.999000000000000000e+03 -9.999000000000000000e+03 -9.999000000000000000e+03 -9.999000000000000000e+03 -9.999000000000000000e+03 2.229320504751482090e+01 2.098721165644607467e+01 2.044014425959535330e+01 1.889211830966074857e+01 2.003305385703493258e+01 2.050736125629448026e+01 2.280157697439616626e+01 2.073846725779675992e+01 1.933324172665750140e+01 1.789881736628141695e+01 2.070604377949801389e+01 2.187723584747005745e+01 2.064149282766783955e+01 -9.999000000000000000e+03 -9.999000000000000000e+03 -9.999000000000000000e+03 -9.999000000000000000e+03 -9.999000000000000000e+03
-9.999000000000000000e+03 -9.999000000000000000e+03 -9.999000000000000000e+03 -9.999000000000000000e+03 2.182510552048685071e+01 2.173280950896523223e+01 2.061060589781131114e+01 2.143197996183725706e+01 1.972140369298357143e+01 2.055556272960167874e+01 2.151466269328797765e+01 1.836683490012617881e+01 2.316206518073308018e+01 1.900308589157802786e+01 1.950488675068864097e+01 1.952546357279517864e+01 1.938923507487823272e+01 2.092843113932713450e+01 2.024998376423596369e+01 -9.999000000000000000e+03 -9.999000000000000000e+03 -9.999000000000000000e+03 -9.999000000000000000e+03
-9.999000000000000000e+03 -9.999000000000000000e+03 2.062629774822487860e+01 2.153536021437925285e+01 2.163841893575286690e+01 2.161496760952225316e+01 2.016715062524178492e+01 1.953861113199197064e+01 2.219588233392962451e+01 2.132471980696555036e+01 2.303947265299252933e+01 2.612361459685482146e+01 2.276222753170330648e+01 2.122691246060836079e+01 2.109136529957377704e+01 2.106736611883567178e+01 1.953313197570430759e+01 2.218166580074915473e+01 1.974472334259532857e+01 1.812436356738464482e+01 1.613251685549601078e+01 2.259664741725610781e+01 -9.999000000000000000e+03
-9.999000000000000000e+03 1.901432958551174224e+01 2.004389470720537858e+01 2.226718361139741376e+01 2.141816447282494806e+01 2.214057184320337868e+01 2.140758183589815289e+01 1.872562139573427942e+01 2.091872070395317351e+01 2.096690945776387238e+01 2.127531929233575880e+01 2.120595374284188495e+01 2.180322116993216852e+01 2.055601709766643026e+01 2.045635958364295348e+01 2.125831642963141377e+01 1.881425762621784159e+01 2.375504867982421686e+01 2.135510178665790093e+01 2.154860695180806474e+01 2.087928707959876107e+01 2.074654041716460640e+01 -9.999000000000000000e+03
-9.999000000000000000e+03 1.746980779106361226e+01 1.846532850393347047e+01 1.994053598281249506e+01 2.099786322414210815e+01 2.052909477793602377e+01 2.063626972718182628e+01 1.947236379392880679e+01 1.990000663083066712e+01 2.305113644138886286e+01 2.165282626761826634e+01 2.257940404469105644e+01 2.186590744363109451e+01 2.167303828212553896e+01 2.031319056740879958e+01 2.080898296982608997e+01 2.190193401620643598e+01 2.159039378253297770e+01 2.221888002005168872e+01 2.019148764649258965e+01 1.911357200506175502e+01 -9.999000000000000000e+03 -9.999000000000000000e+03
-9.999000000000000000e+03 1.639883447031957431e+01 1.684759358832717524e+01 2.090508493616884067e+01 2.117628313859529854e+01 1.937284075327183785e+01 1.753367188735839477e+01 1.976131470538942381e+01 1.992755922529564572e+01 2.171102585845652300e+01 2.456283358445798015e+01 2.190106091414985201e+01 2.079883522467331503e+01 2.073460219191638387e+01 1.883017846522840699e+01 2.302068999530084525e+01 2.348513531613416561e+01 2.174583110718217682e+01 2.085327886825778521e+01 1.971356883729612264e+01 -9.999000000000000000e+03 -9.999000000000000000e+03 -9.999000000000000000e+03
-9.999000000000000000e+03 1.709410359251344858e+01 1.771556995715305405e+01 1.941148790859751827e+01 2.091472232484642646e+01 1.915150122043296221e+01 1.550347002046339817e+01 1.936309507193355728e+01 2.008799929716494148e+01 2.107891130509879929e+01 2.273072878503266736e+01 2.356705942634692619e+01 2.267507900430545220e+01 2.102478233048214307e+01 2.234658106121909782e+01 2.203296061378010151e+01 2.140665317288312153e+01 2.104656374237044503e+01 1.920234231635445710e+01 -9.999000000000000000e+03 -9.999000000000000000e+03 -9.999000000000000000e+03 -9.999000000000000000e+03
-9.999000000000000000e+03 2.281838005708318562e+01 1.621467993860659362e+01 1.946833587106439012e+01 1.942373677610930116e+01 1.672024483342882206e+01 1.913478857969539604e+01 2.109739019529966342e+01 2.128830605750597016e+01 2.071711348300016198e+01 2.128662217935371714e+01 2.483574748687270883e+01 2.487136990437286954e+01 2.093518425200133493e+01 -9.999000000000000000e+03 -9.999000000000000000e+03 -9.999000000000000000e+03 -9.999000000000000000e+03 -9.999000000000000000e+03 -9.999000000000000000e+03 -9.999000000000000000e+03 -9.999000000000000000e+03 -9.999000000000000000e+03
-9.999000000000000000e+03 2.142075625733932753e+01 -9.999000000000000000e+03 -9.999000000000000000e+03 -9.999000000000000000e+03 -9.999000000000000000e+03 -9.999000000000000000e+03 1.761888406219397751e+01 1.974154841696338991e+01 1.971830895426413122e+01 2.048890941206117589e+01 2.431854596084285447e+01 2.343144149665985765e+01 2.155011548771666696e+01 -9.999000000000000000e+03 -9.999000000000000000e+03 -9.999000000000000000e+03 -9.999000000000000000e+03 -9.999000000000000000e+03 -9.999000000000000000e+03 -9.999000000000000000e+03 -9.999000000000000000e+03 -9.999000000000000000e+03
-9.999000000000000000e+03 -9.999000000000000000e+03 -9.999000000000000000e+03 -9.999000000000000000e+03 -9.999000000000000000e+03 -9.999000000000000000e+03 -9.999000000000000000e+03 -9.999000000000000000e+03 2.000615527904344049e+01 2.032852852102850250e+01 2.058421453041088256e+01 2.131980288289219061e+01 2.301900971153637343e+01 -9.999000000000000000e+03 -9.999000000000000000e+03 -9.999000000000000000e+03 -9.999000000000000000e+03 -9.999000000000000000e+03 -9.999000000000000000e+03 -9.999000000000000000e+03 -9.999000000000000000e+03 -9.999000000000000000e+03 -9.999000000000000000e+03
-9.999000000000000000e+03 -9.999000000000000000e+03 -9.999000000000000000e+03 -9.999000000000000000e+03 -9.999000000000000000e+03 -9.999000000000000000e+03 -9.999000000000000000e+03 -9.999000000000000000e+03 2.088484648317362513e+01 2.111479620085280828e+01 2.041571413681389302e+01 2.140206034077801078e+01 1.900049709240090579e+01 -9.999000000000000000e+03 -9.999000000000000000e+03 -9.999000000000000000e+03 -9.999000000000000000e+03 -9.999000000000000000e+03 -9.999000000000000000e+03 -9.999000000000000000e+03 -9.999000000000000000e+03 -9.999000000000000000e+03 -9.999000000000000000e+03
-9.999000000000000000e+03 -9.999000000000000000e+03 -9.999000000000000000e+03 -9.999000000000000000e+03 -9.999000000000000000e+03 -9.999000000000000000e+03 -9.999000000000000000e+03 -9.999000000000000000e+03 -9.999000000000000000e+03 1.964217348425928833e+01 2.090264282572736931e+01 2.015997384083060240e+01 1.831435848925016430e+01 -9.999000000000000000e+03 -9.999000000000000000e+03 -9.999000000000000000e+03 -9.999000000000000000e+03 -9.999000000000000000e+03 -9.999000000000000000e+03 -9.999000000000000000e+03 -9.999000000000000000e+03 -9.999000000000000000e+03 -9.999000000000000000e+03
-9.999000000000000000e+03 -9.999000000000000000e+03 -9.999000000000000000e+03 -9.999000000000000000e+03 -9.999000000000000000e+03 -9.999000000000000000e+03 -9.999000000000000000e+03 -9.999000000000000000e+03 -9.999000000000000000e+03 -9.999000000000000000e+03 -9.999000000000000000e+03 -9.999000000000000000e+03 -9.999000000000000000e+03 -9.999000000000000000e+03 -9.999000000000000000e+03 -9.999000000000000000e+03 -9.999000000000000000e+03 -9.999000000000000000e+03 -9.999000000000000000e+03 -9.999000000000000000e+03 -9.999000000000000000e+03 -9.999000000000000000e+03 -9.999000000000000000e+03
