ncols        23
nrows        17
xllcorner    5165373.967557672411
yllcorner    3907485.103055199608
cellsize     5000.000000000000
NODATA_value  -9999
-9.999000000000000000e+03 -9.999000000000000000e+03 -9.999000000000000000e+03 -9.999000000000000000e+03 -9.999000000000000000e+03 -9.999000000000000000e+03 -9.999000000000000000e+03 -9.999000000000000000e+03 -9.999000000000000000e+03 -9.999000000000000000e+03 -9.999000000000000000e+03 -9.999000000000000000e+03 -9.999000000000000000e+03 -9.999000000000000000e+03 -9.999000000000000000e+03 -9.999000000000000000e+03 -9.999000000000000000e+03 -9.999000000000000000e+03 -9.999000000000000000e+03 -9.999000000000000000e+03 -9.999000000000000000e+03 -9.999000000000000000e+03 -9.999000000000000000e+03
-9.999000000000000000e+03 -9.999000000000000000e+03 -9.999000000000000000e+03 -9.999000000000000000e+03 -9.999000000000000000e+03 -9.999000000000000000e+03 1.583764837141161586e+01 1.664140325857044189e+01 -9.999000000000000000e+03 -9.999000000000000000e+03 -9.999000000000000000e+03 1.668079512381715546e+01 1.381123183868150406e+01 1.424635704217659082e+01 -9.999000000000000000e+03 -9.999000000000000000e+03 -9.999000000000000000e+03 -9.999000000000000000e+03 -9.999000000000000000e+03 -9.999000000000000000e+03 -9.999000000000000000e+03 -9.999000000000000000e+03 -9.999000000000000000e+03
-9.999000000000000000e+03 -9.999000000000000000e+03 -9.999000000000000000e+03 -9.999000000000000000e+03 -9.999000000000000000e+03 -9.999000000000000000e+03 1.623670954112261811e+01 1.611573136027709552e+01 1.640808311899933969e+01 1.642439555553154662e+01 1.684124946854540994e+01 1.553250283183789549e+01 1.548655277418021470e+01 1.466775041710693195e+01 1.509112729420914611e+01 -9.999000000000000000e+03 -9.999000000000000000e+03 -9.999000000000000000e+03 -9.999000000000000000e+03 -9.999000000000000000e+03 -9.999000000000000000e+03 -9.999000000000000000e+03 -9.999000000000000000e+03
-9.999000000000000000e+03 -9.999000000000000000e+03 -9.999000000000000000e+03 -9.999000000000000000e+03 -9.999000000000000000e+03 -9.999000000000000000e+03 1.437175013612483454e+01 1.469081801298006695e+01 1.438611677740397710e+01 1.530970234549101150e+01 1.612053893944859695e+01 1.526289689896071700e+01 1.471768630573097703e+01 1.485018442513004011e+01 1.475669205995535371e+01 1.593051513419284149e+01 -9.999000000000000000e+03 -9.999000000000000000e+03 -9.999000000000000000e+03 -9.999000000000000000e+03 -9.999000000000000000e+03 -9.999000000000000000e+03 -9.999000000000000000e+03
-9.999000000000000000e+03 -9.999000000000000000e+03 -9.999000000000000000e+03 -9.999000000000000000e+03 -9.999000000000000000e+03 1.671990378563611657e+01 1.574040874233455511e+01 1.533010819469651409e+01 1.416908873224556231e+01 1.502479039277620032e+01 1.538052094222086019e+01 1.710118273079712381e+01 1.555385044334757083e+01 1.449993129499312516e+01 1.342411302471106183e+01 1.552953283462350953e+01 1.640792688560254220e+01 1.548111962075087966e+01 -9.999000000000000000e+03 -9.999000000000000000e+03 -9.999000000000000000e+03 -9.999000000000000000e+03 -9.999000000000000000e+03
-9.999000000000000000e+03 -9.999000000000000000e+03 -9.999000000000000000e+03 -9.999000000000000000e+03 1.636882914036513625e+01 1.629960713172392417e+01 1.545795442335848335e+01 1.607398497137794280e+01 1.479105276973767857e+01 1.541667204720125994e+01 1.613599701996598412e+01 1.377512617509463411e+01 1.737154888554981014e+01 1.425231441868352178e+01 1.462866506301648073e+01 1.464409767959638486e+01 1.454192630615867543e+01 1.569632335449535177e+01 1.518748782317697277e+01 -9.999000000000000000e+03 -9.999000000000000000e+03 -9.999000000000000000e+03 -9.999000000000000000e+03
-9.999000000000000000e+03 -9.999000000000000000e+03 1.546972331116865895e+01 1.615152016078443964e+01 1.622881420181465018e+01 1.621122570714168987e+01 1.512536296893133780e+01 1.465395834899397798e+01 1.664691175044721660e+01 1.599353985522416366e+01 1.727960448974439700e+01 1.959271094764111609e+01 1.707167064877748075e+01 1.592018434545627059e+01 1.581852397468033189e+01 1.580052458912675384e+01 1.464984898177823069e+01 1.663624935056186516e+01 1.480854250694649643e+01 1.359327267553848273e+01 1.209938764162200897e+01 1.694748556294208086e+01 -9.999000000000000000e+03
-9.999000000000000000e+03 1.426074718913380579e+01 1.503292103040403305e+01 1.670038770854806032e+01 1.606362335461871282e+01 1.660542888240253490e+01 1.605568637692361378e+01 1.404421604680070956e+01 1.568904052796488102e+01 1.572518209332290340e+01 1.595648946925181910e+01 1.590446530713141371e+01 1.635241587744912550e+01 1.541701282324982358e+01 1.534226968773221600e+01 1.594373732222356033e+01 1.411069321966338208e+01 1.781628650986816353e+01 1.601632633999342659e+01 1.616145521385604766e+01 1.565946530969907080e+01 1.555990531287345391e+01 -9.999000000000000000e+03
-9.999000000000000000e+03 1.310235584329770830e+01 1.384899637795010285e+01 1.495540198710937219e+01 1.574839741810658111e+01 1.539682108345201783e+01 1.547720229538636971e+01 1.460427284544660509e+01 1.492500497312300034e+01 1.728835233104164715e+01 1.623961970071369976e+01 1.693455303351829144e+01 1.639943058272331911e+01 1.625477871159415599e+01 1.523489292555660057e+01 1.560673722736956748e+01 1.642645051215482610e+01 1.619279533689973505e+01 1.666416001503876743e+01 1.514361573486944224e+01 1.433517900379631627e+01 -9.999000000000000000e+03 -9.999000000000000000e+03
-9.999000000000000000e+03 1.229912585273968162e+01 1.263569519124538232e+01 1.567881370212663050e+01 1.588221235394647479e+01 1.452963056495387839e+01 1.315025391551879608e+01 1.482098602904206786e+01 1.494566941897173429e+01 1.628326939384239225e+01 1.842212518834348600e+01 1.642579568561238901e+01 1.559912641850498716e+01 1.555095164393728879e+01 1.412263384892130524e+01 1.726551749647563483e+01 1.761385148710062509e+01 1.630937333038663439e+01 1.563995915119333802e+01 1.478517662797209198e+01 -9.999000000000000000e+03 -9.999000000000000000e+03 -9.999000000000000000e+03
-9.999000000000000000e+03 1.282057769438508643e+01 1.328667746786479142e+01 1.455861593144813781e+01 1.568604174363482073e+01 1.436362591532472166e+01 1.162760251534754907e+01 1.452232130395016796e+01 1.506599947287370611e+01 1.580918347882409947e+01 1.704804658877450052e+01 1.767529456976019375e+01 1.700630925322909093e+01 1.576858674786160819e+01 1.675993579591432336e+01 1.652472046033507524e+01 1.605498987966234026e+01 1.578492280677783377e+01 1.440175673726584193e+01 -9.999000000000000000e+03 -9.999000000000000000e+03 -9.999000000000000000e+03 -9.999000000000000000e+03
-9.999000000000000000e+03 1.711378504281238833e+01 1.216100995395494522e+01 1.460125190329829259e+01 1.456780258208197587e+01 1.254018362507161655e+01 1.435109143477154703e+01 1.582304264647474668e+01 1.596622954312947762e+01 1.553783511225012148e+01 1.596496663451528875e+01 1.862681061515453251e+01 1.865352742827965216e+01 1.570138818900100119e+01 -9.999000000000000000e+03 -9.999000000000000000e+03 -9.999000000000000000e+03 -9.999000000000000000e+03 -9.999000000000000000e+03 -9.999000000000000000e+03 -9.999000000000000000e+03 -9.999000000000000000e+03 -9.999000000000000000e+03
-9.999000000000000000e+03 1.606556719300449743e+01 -9.999000000000000000e+03 -9.999000000000000000e+03 -9.999000000000000000e+03 -9.999000000000000000e+03 -9.999000000000000000e+03 1.321416304664548313e+01 1.480616131272254243e+01 1.478873171569809841e+01 1.536668205904588191e+01 1.823890947063214085e+01 1.757358112249489324e+01 1.616258661578750022e+01 -9.999000000000000000e+03 -9.999000000000000000e+03 -9.999000000000000000e+03 -9.999000000000000000e+03 -9.999000000000000000e+03 -9.999000000000000000e+03 -9.999000000000000000e+03 -9.999000000000000000e+03 -9.999000000000000000e+03
-9.999000000000000000e+03 -9.999000000000000000e+03 -9.999000000000000000e+03 -9.999000000000000000e+03 -9.999000000000000000e+03 -9.999000000000000000e+03 -9.999000000000000000e+03 -9.999000000000000000e+03 1.500461645928258037e+01 1.524639639077137687e+01 1.543816089780816192e+01 1.598985216216914296e+01 1.726425728365228096e+01 -9.999000000000000000e+03 -9.999000000000000000e+03 -9.999000000000000000e+03 -9.999000000000000000e+03 -9.999000000000000000e+03 -9.999000000000000000e+03 -9.999000000000000000e+03 -9.999000000000000000e+03 -9.999000000000000000e+03 -9.999000000000000000e+03
-9.999000000000000000e+03 -9.999000000000000000e+03 -9.999000000000000000e+03 -9.999000000000000000e+03 -9.999000000000000000e+03 -9.999000000000000000e+03 -9.999000000000000000e+03 -9.999000000000000000e+03 1.566363486238021885e+01 1.583609715063960621e+01 1.531178560261042065e+01 1.605154525558350898e+01 1.425037281930067934e+01 -9.999000000000000000e+03 -9.999000000000000000e+03 -9.999000000000000000e+03 -9.999000000000000000e+03 -9.999000000000000000e+03 -9.999000000000000000e+03 -9.999000000000000000e+03 -9.999000000000000000e+03 -9.999000000000000000e+03 -9.999000000000000000e+03
-9.999000000000000000e+03 -9.999000000000000000e+03 -9.999000000000000000e+03 -9.999000000000000000e+03 -9.999000000000000000e+03 -9.999000000000000000e+03 -9.999000000000000000e+03 -9.999000000000000000e+03 -9.999000000000000000e+03 1.473163011319446625e+01 1.567698211929552699e+01 1.511998038062295180e+01 1.373576886693762233e+01 -9.999000000000000000e+03 -9.999000000000000000e+03 -9.999000000000000000e+03 -9.999000000000000000e+03 -9.999000000000000000e+03 -9.999000000000000000e+03 -9.999000000000000000e+03 -9.999000000000000000e+03 -9.999000000000000000e+03 -9.999000000000000000e+03
-9.999000000000000000e+03 -9.999000000000000000e+03 -9.999000000000000000e+03 -9.999000000000000000e+03 -9.999000000000000000e+03 -9.999000000000000000e+03 -9.999000000000000000e+03 -9.999000000000000000e+03 -9.999000000000000000e+03 -9.999000000000000000e+03 -9.999000000000000000e+03 -9.999000000000000000e+03 -9.999000000000000000e+03 -9.999000000000000000e+03 -9.999000000000000000e+03 -9.999000000000000000e+03 -9.999000000000000000e+03 -9.999000000000000000e+03 -9.999000000000000000e+03 -9.999000000000000000e+03 -9.999000000000000000e+03 -9.999000000000000000e+03 -9.999000000000000000e+03
