ncols        23
nrows        17
xllcorner    5165373.967557672411
yllcorner    3907485.103055199608
cellsize     5000.000000000000
NODATA_value  -9999
-9.999000000000000000e+03 -9.999000000000000000e+03 -9.999000000000000000e+03 -9.999000000000000000e+03 -9.999000000000000000e+03 -9.999000000000000000e+03 -9.999000000000000000e+03 -9.999000000000000000e+03 -9.999000000000000000e+03 -9.999000000000000000e+03 -9.999000000000000000e+03 -9.999000000000000000e+03 -9.999000000000000000e+03 -9.999000000000000000e+03 -9.999000000000000000e+03 -9.999000000000000000e+03 -9.999000000000000000e+03 -9.999000000000000000e+03 -9.999000000000000000e+03 -9.999000000000000000e+03 -9.999000000000000000e+03 -9.999000000000000000e+03 -9.999000000000000000e+03
-9.999000000000000000e+03 -9.999000000000000000e+03 -9.999000000000000000e+03 -9.999000000000000000e+03 -9.999000000000000000e+03 -9.999000000000000000e+03 2.208274529296642696e-01 1.799655651754982211e-01 -9.999000000000000000e+03 -9.999000000000000000e+03 -9.999000000000000000e+03 3.126137690277613901e-01 2.910391883065550078e-01 2.286742369678136100e-01 -9.999000000000000000e+03 -9.999000000000000000e+03 -9.999000000000000000e+03 -9.999000000000000000e+03 -9.999000000000000000e+03 -9.999000000000000000e+03 -9.999000000000000000e+03 -9.999000000000000000e+03 -9.999000000000000000e+03
-9.999000000000000000e+03 -9.999000000000000000e+03 -9.999000000000000000e+03 -9.999000000000000000e+03 -9.999000000000000000e+03 -9.999000000000000000e+03 1.694561026990387687e-01 1.145804705402274776e-01 1.548715467910406762e-01 2.183991874061938787e-01 2.128784180206646504e-01 1.591596169357593071e-01 1.747648942564445640e-01 1.432596604281203279e-01 1.024548495063357934e-01 -9.999000000000000000e+03 -9.999000000000000000e+03 -9.999000000000000000e+03 -9.999000000000000000e+03 -9.999000000000000000e+03 -9.999000000000000000e+03 -9.999000000000000000e+03 -9.999000000000000000e+03
-9.999000000000000000e+03 -9.999000000000000000e+03 -9.999000000000000000e+03 -9.999000000000000000e+03 -9.999000000000000000e+03 -9.999000000000000000e+03 1.167531559677520564e-01 6.517285803235829678e-02 1.193098006135869943e-01 2.003016893667585174e-01 2.132440745836574336e-01 1.976518172154745068e-01 1.710013873381249216e-01 9.145109733836963295e-02 5.497124953680672388e-02 8.729235410172024590e-02 -9.999000000000000000e+03 -9.999000000000000000e+03 -9.999000000000000000e+03 -9.999000000000000000e+03 -9.999000000000000000e+03 -9.999000000000000000e+03 -9.999000000000000000e+03
-9.999000000000000000e+03 -9.999000000000000000e+03 -9.999000000000000000e+03 -9.999000000000000000e+03 -9.999000000000000000e+03 1.454738531055765893e-01 9.551577757531820589e-02 1.040569594495515116e-01 1.466128387616802975e-01 2.110304336897111110e-01 2.150627466348726813e-01 2.288039195328611108e-01 2.149825712268690070e-01 1.178099543038652885e-01 7.217404319317675954e-02 7.964459776778309852e-02 6.100963544525486726e-02 8.291108911969423401e-02 -9.999000000000000000e+03 -9.999000000000000000e+03 -9.999000000000000000e+03 -9.999000000000000000e+03 -9.999000000000000000e+03
-9.999000000000000000e+03 -9.999000000000000000e+03 -9.999000000000000000e+03 -9.999000000000000000e+03 6.778372176557370676e-02 3.740286259764633026e-02 4.770720027374018152e-02 1.206821788596218192e-01 1.826434155729329822e-01 2.065966134392329956e-01 2.022803057213244660e-01 2.329764123141330467e-01 2.732194887230069980e-01 2.000053259372295000e-01 1.257997794262294133e-01 9.540597498347587468e-02 5.228938367675352999e-02 5.231192831245572161e-02 7.569196002429540160e-02 -9.999000000000000000e+03 -9.999000000000000000e+03 -9.999000000000000000e+03 -9.999000000000000000e+03
-9.999000000000000000e+03 -9.999000000000000000e+03 5.745972211266944796e-02 7.017228130937788744e-02 7.332662657230423764e-02 7.435496237955967203e-02 7.457967363106243752e-02 1.085543226564425617e-01 2.031144119730330100e-01 2.083991025522199114e-01 1.835571483420616878e-01 2.119000596353504129e-01 2.550910296955817280e-01 2.095128357060543900e-01 1.464539860886450717e-01 1.127333348530120266e-01 1.010553496154631414e-01 1.292679326789211713e-01 1.263639949423525644e-01 1.238526552570205497e-01 1.412620228136199640e-01 2.415015044660231702e-01 -9.999000000000000000e+03
-9.999000000000000000e+03 9.402771146199058461e-02 1.040727097355949593e-01 1.217989918024893758e-01 1.352703436135445914e-01 1.316039337564483547e-01 1.295376001222315054e-01 1.205272412750482275e-01 2.063139791873423168e-01 2.344195900662350007e-01 1.711154319294299064e-01 1.543481664346454119e-01 1.676291595077793739e-01 1.480865193511039235e-01 1.422054830382603052e-01 1.270844109196838101e-01 1.068410734219864128e-01 1.091005733596232680e-01 8.001443225114227009e-02 7.477348227159720528e-02 8.004508660165153555e-02 1.135978390673867827e-01 -9.999000000000000000e+03
-9.999000000000000000e+03 1.184601789140418276e-01 1.275281584977339677e-01 1.374183796289929205e-01 1.345830984612122194e-01 1.624954782273847764e-01 2.137455437186236706e-01 1.945767328229537629e-01 2.078459817643070473e-01 2.602336756145038899e-01 1.831774620595104930e-01 1.358519376696992187e-01 1.535795135927189026e-01 1.503372054575302097e-01 1.438010069400770530e-01 1.541312363340161806e-01 1.057701660248673431e-01 4.577360556934578079e-02 1.409331980964398899e-02 2.890337939424015776e-02 4.625616970967562358e-02 -9.999000000000000000e+03 -9.999000000000000000e+03
-9.999000000000000000e+03 1.304715284678525100e-01 1.243105317720491071e-01 1.362372449016475973e-01 1.067759492226148105e-01 1.620414199351628837e-01 2.538319414359675452e-01 2.371678239970664570e-01 2.065602609945336732e-01 2.424539228362558863e-01 2.051901387300308355e-01 1.682997785452337580e-01 1.999482291823864444e-01 1.960607664484423363e-01 1.505792003505029009e-01 1.561115885241517731e-01 1.084083499915404758e-01 4.290256067247340266e-02 3.178319221763582086e-02 3.306533632050755872e-02 -9.999000000000000000e+03 -9.999000000000000000e+03 -9.999000000000000000e+03
-9.999000000000000000e+03 1.456112701388766750e-01 1.089934121323018756e-01 1.454503741553106744e-01 1.464096165191205168e-01 1.897928035943063918e-01 2.128119624590724124e-01 2.134379313494383368e-01 2.084370500801717430e-01 2.190964299944636873e-01 2.058662821731114256e-01 1.981750112552730092e-01 2.083122772983634352e-01 2.011934985292890277e-01 1.833758663753572160e-01 1.314474727874942184e-01 7.946456275466147468e-02 5.427137045056670134e-02 5.756888554538563962e-02 -9.999000000000000000e+03 -9.999000000000000000e+03 -9.999000000000000000e+03 -9.999000000000000000e+03
-9.999000000000000000e+03 1.554905735752811491e-01 9.025000607507267791e-02 1.419804592624408779e-01 1.785100501164523235e-01 2.242351225304842210e-01 2.081165637318220796e-01 1.995144425253564391e-01 1.855979676029077263e-01 1.892511724797870942e-01 1.962104578270463529e-01 2.204849177069676536e-01 2.134624357431113562e-01 1.830753295495113897e-01 -9.999000000000000000e+03 -9.999000000000000000e+03 -9.999000000000000000e+03 -9.999000000000000000e+03 -9.999000000000000000e+03 -9.999000000000000000e+03 -9.999000000000000000e+03 -9.999000000000000000e+03 -9.999000000000000000e+03
-9.999000000000000000e+03 1.449805851507366405e-01 -9.999000000000000000e+03 -9.999000000000000000e+03 -9.999000000000000000e+03 -9.999000000000000000e+03 -9.999000000000000000e+03 2.124522532261577945e-01 1.640643239396767372e-01 1.570017664959886539e-01 1.728650879868021961e-01 2.096266476580349036e-01 2.293454567168927150e-01 2.034508082520681826e-01 -9.999000000000000000e+03 -9.999000000000000000e+03 -9.999000000000000000e+03 -9.999000000000000000e+03 -9.999000000000000000e+03 -9.999000000000000000e+03 -9.999000000000000000e+03 -9.999000000000000000e+03 -9.999000000000000000e+03
-9.999000000000000000e+03 -9.999000000000000000e+03 -9.999000000000000000e+03 -9.999000000000000000e+03 -9.999000000000000000e+03 -9.999000000000000000e+03 -9.999000000000000000e+03 -9.999000000000000000e+03 1.518638597358196174e-01 9.774597313314639657e-02 1.419384647872265481e-01 1.715077319785829058e-01 2.232313677986842992e-01 -9.999000000000000000e+03 -9.999000000000000000e+03 -9.999000000000000000e+03 -9.999000000000000000e+03 -9.999000000000000000e+03 -9.999000000000000000e+03 -9.999000000000000000e+03 -9.999000000000000000e+03 -9.999000000000000000e+03 -9.999000000000000000e+03
-9.999000000000000000e+03 -9.999000000000000000e+03 -9.999000000000000000e+03 -9.999000000000000000e+03 -9.999000000000000000e+03 -9.999000000000000000e+03 -9.999000000000000000e+03 -9.999000000000000000e+03 1.644043109072950148e-01 5.400895609139596404e-02 1.158666377193371538e-01 1.675166244925695713e-01 2.059922448523412719e-01 -9.999000000000000000e+03 -9.999000000000000000e+03 -9.999000000000000000e+03 -9.999000000000000000e+03 -9.999000000000000000e+03 -9.999000000000000000e+03 -9.999000000000000000e+03 -9.999000000000000000e+03 -9.999000000000000000e+03 -9.999000000000000000e+03
-9.999000000000000000e+03 -9.999000000000000000e+03 -9.999000000000000000e+03 -9.999000000000000000e+03 -9.999000000000000000e+03 -9.999000000000000000e+03 -9.999000000000000000e+03 -9.999000000000000000e+03 -9.999000000000000000e+03 9.934101851747757783e-02 1.159135509512355250e-01 1.643853936555530748e-01 2.045707283871495419e-01 -9.999000000000000000e+03 -9.999000000000000000e+03 -9.999000000000000000e+03 -9.999000000000000000e+03 -9.999000000000000000e+03 -9.999000000000000000e+03 -9.999000000000000000e+03 -9.999000000000000000e+03 -9.999000000000000000e+03 -9.999000000000000000e+03
-9.999000000000000000e+03 -9.999000000000000000e+03 -9.999000000000000000e+03 -9.999000000000000000e+03 -9.999000000000000000e+03 -9.999000000000000000e+03 -9.999000000000000000e+03 -9.999000000000000000e+03 -9.999000000000000000e+03 -9.999000000000000000e+03 -9.999000000000000000e+03 -9.999000000000000000e+03 -9.999000000000000000e+03 -9.999000000000000000e+03 -9.999000000000000000e+03 -9.999000000000000000e+03 -9.999000000000000000e+03 -9.999000000000000000e+03 -9.999000000000000000e+03 -9.999000000000000000e+03 -9.999000000000000000e+03 -9.999000000000000000e+03 -9.999000000000000000e+03
