ncols        23
nrows        17
xllcorner    5165373.967557672411
yllcorner    3907485.103055199608
cellsize     5000.000000000000
NODATA_value  -9999
-9.999000000000000000e+03 -9.999000000000000000e+03 -9.999000000000000000e+03 -9.999000000000000000e+03 -9.999000000000000000e+03 -9.999000000000000000e+03 -9.999000000000000000e+03 -9.999000000000000000e+03 -9.999000000000000000e+03 -9.999000000000000000e+03 -9.999000000000000000e+03 -9.999000000000000000e+03 -9.999000000000000000e+03 -9.999000000000000000e+03 -9.999000000000000000e+03 -9.999000000000000000e+03 -9.999000000000000000e+03 -9.999000000000000000e+03 -9.999000000000000000e+03 -9.999000000000000000e+03 -9.999000000000000000e+03 -9.999000000000000000e+03 -9.999000000000000000e+03
-9.999000000000000000e+03 -9.999000000000000000e+03 -9.999000000000000000e+03 -9.999000000000000000e+03 -9.999000000000000000e+03 -9.999000000000000000e+03 5.976288359172520437e+00 8.024282925528476440e+00 -9.999000000000000000e+03 -9.999000000000000000e+03 -9.999000000000000000e+03 5.397277348286287690e+00 4.169053518234075106e+00 5.505897581318955680e+00 -9.999000000000000000e+03 -9.999000000000000000e+03 -9.999000000000000000e+03 -9.999000000000000000e+03 -9.999000000000000000e+03 -9.999000000000000000e+03 -9.999000000000000000e+03 -9.999000000000000000e+03 -9.999000000000000000e+03
-9.999000000000000000e+03 -9.999000000000000000e+03 -9.999000000000000000e+03 -9.999000000000000000e+03 -9.999000000000000000e+03 -9.999000000000000000e+03 5.804730707468083395e+00 7.964637297464958188e+00 7.801264209575704989e+00 7.418374639350749256e+00 7.101299855636423075e+00 4.113590668242943060e+00 5.983232700019529560e+00 7.319845899080249296e+00 8.618901364462272952e+00 -9.999000000000000000e+03 -9.999000000000000000e+03 -9.999000000000000000e+03 -9.999000000000000000e+03 -9.999000000000000000e+03 -9.999000000000000000e+03 -9.999000000000000000e+03 -9.999000000000000000e+03
-9.999000000000000000e+03 -9.999000000000000000e+03 -9.999000000000000000e+03 -9.999000000000000000e+03 -9.999000000000000000e+03 -9.999000000000000000e+03 1.006440144142902149e+01 9.533264765952351283e+00 5.278165399238760713e+00 5.861754434669875558e+00 5.412888741074568522e+00 4.149322035822838650e+00 6.201757416263527389e+00 7.265276698040745273e+00 8.274607867459815580e+00 7.788115376039915994e+00 -9.999000000000000000e+03 -9.999000000000000000e+03 -9.999000000000000000e+03 -9.999000000000000000e+03 -9.999000000000000000e+03 -9.999000000000000000e+03 -9.999000000000000000e+03
-9.999000000000000000e+03 -9.999000000000000000e+03 -9.999000000000000000e+03 -9.999000000000000000e+03 -9.999000000000000000e+03 7.539273755224010110e+00 7.778478667585225104e+00 7.260820826199660516e+00 4.875954684181758481e+00 4.052984820054191140e+00 4.826398453307903402e+00 3.309914817336495840e+00 3.296223245978139538e+00 3.250936309067204988e+00 6.229688678897382204e+00 7.536216380044288066e+00 7.038005989982504040e+00 7.580626835935406760e+00 -9.999000000000000000e+03 -9.999000000000000000e+03 -9.999000000000000000e+03 -9.999000000000000000e+03 -9.999000000000000000e+03
-9.999000000000000000e+03 -9.999000000000000000e+03 -9.999000000000000000e+03 -9.999000000000000000e+03 9.935796248554044752e+00 1.126779904974430657e+01 7.400439290199234854e+00 7.297184617433758014e+00 6.497443020881497944e+00 4.681940095531844648e+00 4.931108444124596701e+00 4.069945396300842511e+00 2.605921094934759097e+00 2.478716549234292632e+00 4.330164096879151714e+00 4.037855211178411174e+00 3.558771192941532213e+00 6.838532420499269904e+00 7.557645323051702668e+00 -9.999000000000000000e+03 -9.999000000000000000e+03 -9.999000000000000000e+03 -9.999000000000000000e+03
-9.999000000000000000e+03 -9.999000000000000000e+03 8.412174912990813880e+00 8.919874839671042110e+00 9.275694765870181158e+00 9.364151957204189358e+00 1.079803276970641690e+01 6.687289396671592279e+00 5.727053044321171349e+00 5.284649684045281681e+00 6.264503561168401902e+00 3.955610397900718667e+00 2.541582076348873009e+00 4.654477439440572795e+00 4.832610512161335414e+00 5.219535313963905132e+00 5.666669087326984489e+00 3.514300956230671957e+00 3.221420060900670013e+00 3.801673544189989151e+00 5.731281510791634837e+00 5.743989103582161526e+00 -9.999000000000000000e+03
-9.999000000000000000e+03 7.812377702632934628e+00 9.461961419127543849e+00 8.776885905234317775e+00 9.067931775826162166e+00 8.774132605292974674e+00 8.640144799501989326e+00 5.701605463037067167e+00 3.067628742393083474e+00 3.582995150259661976e+00 4.445440484510651658e+00 7.956667388631868398e+00 7.795340380647189704e+00 7.935860225780288602e+00 7.551729860943383166e+00 4.842784367027628711e+00 5.208188302740820674e+00 3.774611197937259632e+00 8.278377026327408572e+00 6.951737562654017211e+00 6.450118026104090241e+00 6.909956835660860719e+00 -9.999000000000000000e+03
-9.999000000000000000e+03 7.584581702782021040e+00 6.302995173419558839e+00 8.827475615141615606e+00 8.394399747648597199e+00 9.332844443350658992e+00 5.781845956354438876e+00 7.339748167275318202e+00 3.197734415726461332e+00 3.702146276961698401e+00 5.668494297239236701e+00 6.682213756394745019e+00 9.882388672126797502e+00 5.645713417942524792e+00 4.423965741281849162e+00 3.515949228781992897e+00 5.453080929519887654e+00 6.875048928684617700e+00 8.927167598423414674e+00 8.211103514364330280e+00 6.191058418180749534e+00 -9.999000000000000000e+03 -9.999000000000000000e+03
-9.999000000000000000e+03 7.457132243410427463e+00 7.637908596827484686e+00 1.045333913637353795e+01 9.642786684861739843e+00 6.956308025860836075e+00 4.697266887623341880e+00 4.779310183652465405e+00 4.387513288910697362e+00 4.532666437475022292e+00 3.597219065267362126e+00 4.730771235901007010e+00 2.882923876481518377e+00 4.703680383699615497e+00 4.911839214460895775e+00 3.481732559783125680e+00 6.278120752587103226e+00 7.873402217496706434e+00 7.972053298524217624e+00 7.295639991013907810e+00 -9.999000000000000000e+03 -9.999000000000000000e+03 -9.999000000000000000e+03
-9.999000000000000000e+03 5.468605551614090565e+00 7.209635039897084319e+00 5.391145850249539073e+00 9.123899308027386468e+00 6.081394300531921537e+00 6.301576799325961709e+00 4.789655004459763887e+00 5.067268491013816600e+00 4.899956802395360356e+00 4.402684780956134247e+00 4.831875292350185092e+00 3.282702067737642615e+00 4.682891341312039657e+00 3.681977369462781979e+00 3.861239791640511232e+00 4.214366372811585215e+00 7.865924892267526225e+00 6.149768095930986611e+00 -9.999000000000000000e+03 -9.999000000000000000e+03 -9.999000000000000000e+03 -9.999000000000000000e+03
-9.999000000000000000e+03 4.978731204216317430e+00 7.177179100587233407e+00 7.339418294344970839e+00 5.204604269568263497e+00 4.184005610647999696e+00 5.629711869886814490e+00 6.108424835017661536e+00 7.308515933364880368e+00 6.664611845152277780e+00 6.124947399930954717e+00 2.476049827898357147e+00 3.586098737126750979e+00 3.679985271709117267e+00 -9.999000000000000000e+03 -9.999000000000000000e+03 -9.999000000000000000e+03 -9.999000000000000000e+03 -9.999000000000000000e+03 -9.999000000000000000e+03 -9.999000000000000000e+03 -9.999000000000000000e+03 -9.999000000000000000e+03
-9.999000000000000000e+03 4.978193464912709310e+00 -9.999000000000000000e+03 -9.999000000000000000e+03 -9.999000000000000000e+03 -9.999000000000000000e+03 -9.999000000000000000e+03 5.362617846858989346e+00 7.005424897251432803e+00 6.791780695157423331e+00 5.890417232970200700e+00 7.111290256866961812e+00 5.769927990419132513e+00 5.083560935297245287e+00 -9.999000000000000000e+03 -9.999000000000000000e+03 -9.999000000000000000e+03 -9.999000000000000000e+03 -9.999000000000000000e+03 -9.999000000000000000e+03 -9.999000000000000000e+03 -9.999000000000000000e+03 -9.999000000000000000e+03
-9.999000000000000000e+03 -9.999000000000000000e+03 -9.999000000000000000e+03 -9.999000000000000000e+03 -9.999000000000000000e+03 -9.999000000000000000e+03 -9.999000000000000000e+03 -9.999000000000000000e+03 6.648304419899601747e+00 7.000353691766344255e+00 5.393530439944377086e+00 6.922497577227358256e+00 4.577387277932352561e+00 -9.999000000000000000e+03 -9.999000000000000000e+03 -9.999000000000000000e+03 -9.999000000000000000e+03 -9.999000000000000000e+03 -9.999000000000000000e+03 -9.999000000000000000e+03 -9.999000000000000000e+03 -9.999000000000000000e+03 -9.999000000000000000e+03
-9.999000000000000000e+03 -9.999000000000000000e+03 -9.999000000000000000e+03 -9.999000000000000000e+03 -9.999000000000000000e+03 -9.999000000000000000e+03 -9.999000000000000000e+03 -9.999000000000000000e+03 5.287305716265431776e+00 5.562000608158188086e+00 6.389019651678661482e+00 5.852357216092333836e+00 2.564715703168726879e+00 -9.999000000000000000e+03 -9.999000000000000000e+03 -9.999000000000000000e+03 -9.999000000000000000e+03 -9.999000000000000000e+03 -9.999000000000000000e+03 -9.999000000000000000e+03 -9.999000000000000000e+03 -9.999000000000000000e+03 -9.999000000000000000e+03
-9.999000000000000000e+03 -9.999000000000000000e+03 -9.999000000000000000e+03 -9.999000000000000000e+03 -9.999000000000000000e+03 -9.999000000000000000e+03 -9.999000000000000000e+03 -9.999000000000000000e+03 -9.999000000000000000e+03 8.608527020645059480e+00 8.524441889048796739e+00 8.432204693675357632e+00 4.192388853594993137e+00 -9.999000000000000000e+03 -9.999000000000000000e+03 -9.999000000000000000e+03 -9.999000000000000000e+03 -9.999000000000000000e+03 -9.999000000000000000e+03 -9.999000000000000000e+03 -9.999000000000000000e+03 -9.999000000000000000e+03 -9.999000000000000000e+03
-9.999000000000000000e+03 -9.999000000000000000e+03 -9.999000000000000000e+03 -9.999000000000000000e+03 -9.999000000000000000e+03 -9.999000000000000000e+03 -9.999000000000000000e+03 -9.999000000000000000e+03 -9.999000000000000000e+03 -9.999000000000000000e+03 -9.999000000000000000e+03 -9.999000000000000000e+03 -9.999000000000000000e+03 -9.999000000000000000e+03 -9.999000000000000000e+03 -9.999000000000000000e+03 -9.999000000000000000e+03 -9.999000000000000000e+03 -9.999000000000000000e+03 -9.999000000000000000e+03 -9.999000000000000000e+03 -9.999000000000000000e+03 -9.999000000000000000e+03
