ncols        23
nrows        17
xllcorner    5165373.967557672411
yllcorner    3907485.103055199608
cellsize     5000.000000000000
NODATA_value  -9999
-9.999000000000000000e+03 -9.999000000000000000e+03 -9.999000000000000000e+03 -9.999000000000000000e+03 -9.999000000000000000e+03 -9.999000000000000000e+03 -9.999000000000000000e+03 -9.999000000000000000e+03 -9.999000000000000000e+03 -9.999000000000000000e+03 -9.999000000000000000e+03 -9.999000000000000000e+03 -9.999000000000000000e+03 -9.999000000000000000e+03 -9.999000000000000000e+03 -9.999000000000000000e+03 -9.999000000000000000e+03 -9.999000000000000000e+03 -9.999000000000000000e+03 -9.999000000000000000e+03 -9.999000000000000000e+03 -9.999000000000000000e+03 -9.999000000000000000e+03
-9.999000000000000000e+03 -9.999000000000000000e+03 -9.999000000000000000e+03 -9.999000000000000000e+03 -9.999000000000000000e+03 -9.999000000000000000e+03 1.790653150273935346e-01 1.333634379123406766e-01 -9.999000000000000000e+03 -9.999000000000000000e+03 -9.999000000000000000e+03 1.982751466476998514e-01 2.566879875850247572e-01 1.943635786761974682e-01 -9.999000000000000000e+03 -9.999000000000000000e+03 -9.999000000000000000e+03 -9.999000000000000000e+03 -9.999000000000000000e+03 -9.999000000000000000e+03 -9.999000000000000000e+03 -9.999000000000000000e+03 -9.999000000000000000e+03
-9.999000000000000000e+03 -9.999000000000000000e+03 -9.999000000000000000e+03 -9.999000000000000000e+03 -9.999000000000000000e+03 -9.999000000000000000e+03 1.843575544948148626e-01 1.343621709014151955e-01 1.371759664819729718e-01 1.442561220962319535e-01 1.506971933990900459e-01 2.601488684791452011e-01 1.788574858080113072e-01 1.461978807319205820e-01 1.241626876184280248e-01 -9.999000000000000000e+03 -9.999000000000000000e+03 -9.999000000000000000e+03 -9.999000000000000000e+03 -9.999000000000000000e+03 -9.999000000000000000e+03 -9.999000000000000000e+03 -9.999000000000000000e+03
-9.999000000000000000e+03 -9.999000000000000000e+03 -9.999000000000000000e+03 -9.999000000000000000e+03 -9.999000000000000000e+03 -9.999000000000000000e+03 1.063298164284894182e-01 1.122538798619915623e-01 2.027496064985218616e-01 1.825641059612284900e-01 1.977032983532794053e-01 2.579086290460834152e-01 1.725552752068977846e-01 1.472959671334145848e-01 1.293289029366767318e-01 1.374075634552190950e-01 -9.999000000000000000e+03 -9.999000000000000000e+03 -9.999000000000000000e+03 -9.999000000000000000e+03 -9.999000000000000000e+03 -9.999000000000000000e+03 -9.999000000000000000e+03
-9.999000000000000000e+03 -9.999000000000000000e+03 -9.999000000000000000e+03 -9.999000000000000000e+03 -9.999000000000000000e+03 1.419428438963715178e-01 1.375777968241174987e-01 1.473863607635516604e-01 2.194741393314148803e-01 2.640389750375289335e-01 2.217276439321578807e-01 3.233152563699279169e-01 3.246582157429726001e-01 3.291808439141123976e-01 1.717816110706806287e-01 1.420004288310367513e-01 1.520524363367915521e-01 1.411685314276154291e-01 -9.999000000000000000e+03 -9.999000000000000000e+03 -9.999000000000000000e+03 -9.999000000000000000e+03 -9.999000000000000000e+03
-9.999000000000000000e+03 -9.999000000000000000e+03 -9.999000000000000000e+03 -9.999000000000000000e+03 1.077061094006945274e-01 9.497382345969830608e-02 1.446057343037756016e-01 1.466518957425139991e-01 1.647026306026131426e-01 2.285689128639329382e-01 2.170193517047568632e-01 2.629386523717059387e-01 4.106593863528182342e-01 4.317338979563250523e-01 2.471375065210694999e-01 2.650283137362570707e-01 3.007065921665040276e-01 1.564876631310380961e-01 1.415978009004606186e-01 -9.999000000000000000e+03 -9.999000000000000000e+03 -9.999000000000000000e+03 -9.999000000000000000e+03
-9.999000000000000000e+03 -9.999000000000000000e+03 1.272139451210363703e-01 1.199732033201083015e-01 1.153709759475228525e-01 1.142811396718598910e-01 9.910564086562484443e-02 1.600268650347937693e-01 1.868580488862255640e-01 2.025008319776835652e-01 1.708269374070206237e-01 2.705387664815799842e-01 4.210550458661943551e-01 2.299175303035509987e-01 2.214426250650107786e-01 2.050270557355544365e-01 1.888492059864694261e-01 3.045117566930229946e-01 3.321969620536144308e-01 2.814933858182673276e-01 1.867201873987094085e-01 1.863071009418158785e-01 -9.999000000000000000e+03
-9.999000000000000000e+03 1.369808268959027131e-01 1.130998014393137380e-01 1.219277508314838276e-01 1.180143371372325417e-01 1.219660114418842090e-01 1.238574100970454284e-01 1.876920394908803413e-01 3.488511966721704050e-01 2.986735713700918726e-01 2.407288909745852745e-01 1.344967566771421152e-01 1.372802091344888786e-01 1.348493959423977540e-01 1.417087180600083984e-01 2.209774122952740671e-01 2.054737454800943941e-01 2.835115728779120658e-01 1.292700192714619778e-01 1.539393494194586098e-01 1.659110660299260853e-01 1.548701364105445344e-01 -9.999000000000000000e+03
-9.999000000000000000e+03 1.410949212053768387e-01 1.697837184205214789e-01 1.212289905275036328e-01 1.274833210116705362e-01 1.146645017202891081e-01 1.850872482262601315e-01 1.458014544015390768e-01 3.346575476896371248e-01 2.890609602298120362e-01 1.887883980497206127e-01 1.601484173872264882e-01 1.082881875257660081e-01 1.895501734694438334e-01 2.418974332788789150e-01 3.043690019666455138e-01 1.962461169311845444e-01 1.556564860600228584e-01 1.198751951199802379e-01 1.303291276084489192e-01 1.728534743893171410e-01 -9.999000000000000000e+03 -9.999000000000000000e+03
-9.999000000000000000e+03 1.435063671662009099e-01 1.401098146388231047e-01 1.023735998391253205e-01 1.109789102158404012e-01 1.538382075306883312e-01 2.278231114671089019e-01 2.239122209289083343e-01 2.439071718448198867e-01 2.360963403091073942e-01 2.974925736557092470e-01 2.262096187633464706e-01 3.712016007289926089e-01 2.275124733045878478e-01 2.178707223516532232e-01 3.073601832865734962e-01 1.704564152081311790e-01 1.359191272296028652e-01 1.342371805175809896e-01 1.466829447516432849e-01 -9.999000000000000000e+03 -9.999000000000000000e+03 -9.999000000000000000e+03
-9.999000000000000000e+03 1.956890010861932483e-01 1.484327503136758375e-01 1.985006504100123026e-01 1.172904173534923544e-01 1.759704937461742391e-01 1.698219337490640135e-01 2.234286095205883227e-01 2.111879328335464490e-01 2.183990596012250207e-01 2.430666765785053085e-01 2.214763198512231801e-01 3.259954560747848618e-01 2.285224831695414904e-01 2.906443604475254516e-01 2.771508674614334145e-01 2.539280791137842885e-01 1.360483315549786687e-01 1.740140345190963889e-01 -9.999000000000000000e+03 -9.999000000000000000e+03 -9.999000000000000000e+03 -9.999000000000000000e+03
-9.999000000000000000e+03 2.149435094675330449e-01 1.491039784199078289e-01 1.458080075030361300e-01 2.056152403338330770e-01 2.557706794193406741e-01 1.900889392677368728e-01 1.751918025732207007e-01 1.464245227740881838e-01 1.605713854900908955e-01 1.747192078321906650e-01 4.321988780969323041e-01 2.984150845180557621e-01 2.908016958537331664e-01 -9.999000000000000000e+03 -9.999000000000000000e+03 -9.999000000000000000e+03 -9.999000000000000000e+03 -9.999000000000000000e+03 -9.999000000000000000e+03 -9.999000000000000000e+03 -9.999000000000000000e+03 -9.999000000000000000e+03
-9.999000000000000000e+03 2.149667274428710417e-01 -9.999000000000000000e+03 -9.999000000000000000e+03 -9.999000000000000000e+03 -9.999000000000000000e+03 -9.999000000000000000e+03 1.995566322811128113e-01 1.527596075078390125e-01 1.575648575480053659e-01 1.816757481524205742e-01 1.504854842194627562e-01 1.854695517009452010e-01 2.105110908181134777e-01 -9.999000000000000000e+03 -9.999000000000000000e+03 -9.999000000000000000e+03 -9.999000000000000000e+03 -9.999000000000000000e+03 -9.999000000000000000e+03 -9.999000000000000000e+03 -9.999000000000000000e+03 -9.999000000000000000e+03
-9.999000000000000000e+03 -9.999000000000000000e+03 -9.999000000000000000e+03 -9.999000000000000000e+03 -9.999000000000000000e+03 -9.999000000000000000e+03 -9.999000000000000000e+03 -9.999000000000000000e+03 1.609652461951994740e-01 1.528702698248594893e-01 1.984128892282303602e-01 1.545895749028768362e-01 2.337896910949529283e-01 -9.999000000000000000e+03 -9.999000000000000000e+03 -9.999000000000000000e+03 -9.999000000000000000e+03 -9.999000000000000000e+03 -9.999000000000000000e+03 -9.999000000000000000e+03 -9.999000000000000000e+03 -9.999000000000000000e+03 -9.999000000000000000e+03
-9.999000000000000000e+03 -9.999000000000000000e+03 -9.999000000000000000e+03 -9.999000000000000000e+03 -9.999000000000000000e+03 -9.999000000000000000e+03 -9.999000000000000000e+03 -9.999000000000000000e+03 2.023991074390995570e-01 1.924030637753099127e-01 1.674976782155616351e-01 1.828572519099094795e-01 4.172571472181491048e-01 -9.999000000000000000e+03 -9.999000000000000000e+03 -9.999000000000000000e+03 -9.999000000000000000e+03 -9.999000000000000000e+03 -9.999000000000000000e+03 -9.999000000000000000e+03 -9.999000000000000000e+03 -9.999000000000000000e+03 -9.999000000000000000e+03
-9.999000000000000000e+03 -9.999000000000000000e+03 -9.999000000000000000e+03 -9.999000000000000000e+03 -9.999000000000000000e+03 -9.999000000000000000e+03 -9.999000000000000000e+03 -9.999000000000000000e+03 -9.999000000000000000e+03 1.243123190719314652e-01 1.255385363239522323e-01 1.269117622977587179e-01 2.552592316936719841e-01 -9.999000000000000000e+03 -9.999000000000000000e+03 -9.999000000000000000e+03 -9.999000000000000000e+03 -9.999000000000000000e+03 -9.999000000000000000e+03 -9.999000000000000000e+03 -9.999000000000000000e+03 -9.999000000000000000e+03 -9.999000000000000000e+03
-9.999000000000000000e+03 -9.999000000000000000e+03 -9.999000000000000000e+03 -9.999000000000000000e+03 -9.999000000000000000e+03 -9.999000000000000000e+03 -9.999000000000000000e+03 -9.999000000000000000e+03 -9.999000000000000000e+03 -9.999000000000000000e+03 -9.999000000000000000e+03 -9.999000000000000000e+03 -9.999000000000000000e+03 -9.999000000000000000e+03 -9.999000000000000000e+03 -9.999000000000000000e+03 -9.999000000000000000e+03 -9.999000000000000000e+03 -9.999000000000000000e+03 -9.999000000000000000e+03 -9.999000000000000000e+03 -9.999000000000000000e+03 -9.999000000000000000e+03
