ncols        23
nrows        17
xllcorner    5165373.967557672411
yllcorner    3907485.103055199608
cellsize     5000.000000000000
NODATA_value  -9999
-9.999000000000000000e+03 -9.999000000000000000e+03 -9.999000000000000000e+03 -9.999000000000000000e+03 -9.999000000000000000e+03 -9.999000000000000000e+03 -9.999000000000000000e+03 -9.999000000000000000e+03 -9.999000000000000000e+03 -9.999000000000000000e+03 -9.999000000000000000e+03 -9.999000000000000000e+03 -9.999000000000000000e+03 -9.999000000000000000e+03 -9.999000000000000000e+03 -9.999000000000000000e+03 -9.999000000000000000e+03 -9.999000000000000000e+03 -9.999000000000000000e+03 -9.999000000000000000e+03 -9.999000000000000000e+03 -9.999000000000000000e+03 -9.999000000000000000e+03
-9.999000000000000000e+03 -9.999000000000000000e+03 -9.999000000000000000e+03 -9.999000000000000000e+03 -9.999000000000000000e+03 -9.999000000000000000e+03 7.957091309236337395e-02 6.693451609786030265e-02 -9.999000000000000000e+03 -9.999000000000000000e+03 -9.999000000000000000e+03 8.608705306140818081e-02 7.391210614185156347e-02 7.646009791400132372e-02 -9.999000000000000000e+03 -9.999000000000000000e+03 -9.999000000000000000e+03 -9.999000000000000000e+03 -9.999000000000000000e+03 -9.999000000000000000e+03 -9.999000000000000000e+03 -9.999000000000000000e+03 -9.999000000000000000e+03
-9.999000000000000000e+03 -9.999000000000000000e+03 -9.999000000000000000e+03 -9.999000000000000000e+03 -9.999000000000000000e+03 -9.999000000000000000e+03 7.149446960957216157e-02 6.002844857734352529e-02 6.232531051472429279e-02 7.188819217571772169e-02 7.056227889487448612e-02 8.249526543194028727e-02 6.632291380027839633e-02 6.046179852635864826e-02 6.399215938211938459e-02 -9.999000000000000000e+03 -9.999000000000000000e+03 -9.999000000000000000e+03 -9.999000000000000000e+03 -9.999000000000000000e+03 -9.999000000000000000e+03 -9.999000000000000000e+03 -9.999000000000000000e+03
-9.999000000000000000e+03 -9.999000000000000000e+03 -9.999000000000000000e+03 -9.999000000000000000e+03 -9.999000000000000000e+03 -9.999000000000000000e+03 5.880162320402202575e-02 5.914753010238752579e-02 6.696149810573398531e-02 6.723625151646719922e-02 7.695089545152394850e-02 8.049709726155167278e-02 6.298957186170153766e-02 6.337392728442906020e-02 5.966832021389033291e-02 5.998906822725229293e-02 -9.999000000000000000e+03 -9.999000000000000000e+03 -9.999000000000000000e+03 -9.999000000000000000e+03 -9.999000000000000000e+03 -9.999000000000000000e+03 -9.999000000000000000e+03
-9.999000000000000000e+03 -9.999000000000000000e+03 -9.999000000000000000e+03 -9.999000000000000000e+03 -9.999000000000000000e+03 6.367770841759688716e-02 6.273471406921968252e-02 5.993799986119614787e-02 6.461470881150714607e-02 7.614898095910910270e-02 7.243579859166743296e-02 8.484816884608872845e-02 8.536903849839277969e-02 7.435126422797852519e-02 6.094287708014487631e-02 6.003850729995525992e-02 6.374388129301489236e-02 6.423465067207061174e-02 -9.999000000000000000e+03 -9.999000000000000000e+03 -9.999000000000000000e+03 -9.999000000000000000e+03 -9.999000000000000000e+03
-9.999000000000000000e+03 -9.999000000000000000e+03 -9.999000000000000000e+03 -9.999000000000000000e+03 5.799503032151177156e-02 5.407126208525248057e-02 6.348223854787998777e-02 6.497847308529078325e-02 6.213177660377069284e-02 7.798844864192186477e-02 7.457831962035092743e-02 9.021559783542974775e-02 9.484393903132497250e-02 8.765715956644229423e-02 6.380909875891634109e-02 6.314816135878556502e-02 7.533090774215044083e-02 6.205383692668681866e-02 5.984719582562489371e-02 -9.999000000000000000e+03 -9.999000000000000000e+03 -9.999000000000000000e+03 -9.999000000000000000e+03
-9.999000000000000000e+03 -9.999000000000000000e+03 5.896308792429606066e-02 5.804916591933336617e-02 5.588815415436808320e-02 5.520231899264386316e-02 5.647240105062863169e-02 5.905075888380535015e-02 7.535309323379232871e-02 7.371454284761261300e-02 6.455121212265865771e-02 8.745579910781937916e-02 9.581486924836521424e-02 8.093350285421320456e-02 7.157701511991074184e-02 7.008543782370488251e-02 6.135289113211292444e-02 8.083380427613520713e-02 7.072153543568422684e-02 7.124256924821067982e-02 8.571697311393969287e-02 7.669897896554933592e-02 -9.999000000000000000e+03
-9.999000000000000000e+03 6.074126235736680007e-02 6.036282751107533567e-02 6.590879051681518275e-02 6.023247959099329446e-02 6.143098355014819240e-02 6.015418780984560509e-02 5.953799629181196623e-02 8.514731409910279714e-02 8.480142380737552832e-02 7.596695969735585419e-02 6.287985004331145267e-02 6.191678334482533103e-02 5.918296831047915874e-02 5.926880642989450221e-02 7.009165067790550097e-02 6.725908790312341845e-02 8.068220888865412777e-02 6.242263757179743883e-02 7.075468351338305706e-02 6.819579615043731835e-02 6.202531408838590776e-02 -9.999000000000000000e+03
-9.999000000000000000e+03 6.165745634114693646e-02 6.185308435599019827e-02 5.811027177966169438e-02 6.052782935274618470e-02 6.131955061423932651e-02 7.191860260263219229e-02 5.922619519974167690e-02 8.225815431545858980e-02 8.584669669820647886e-02 7.268701965733731507e-02 6.367753251129414094e-02 6.579267728469999355e-02 7.235883473825935330e-02 6.798209956819341315e-02 6.805647006345674765e-02 7.046900383113476052e-02 5.626842800998422406e-02 6.017805176937036232e-02 5.996572750623505726e-02 5.758509342973115730e-02 -9.999000000000000000e+03 -9.999000000000000000e+03
-9.999000000000000000e+03 6.080714583702318682e-02 5.922082828540651406e-02 6.046314582794107273e-02 5.943558223560837378e-02 6.774392916859750535e-02 7.556031643703400857e-02 8.195890858907427245e-02 8.290832214322771399e-02 7.869463645180964362e-02 8.577151956183537429e-02 7.013630567013168227e-02 8.707735737025350253e-02 7.057333880176966390e-02 6.042371480492968877e-02 8.274208309168024078e-02 7.228774115523640964e-02 5.911265429387790177e-02 5.413919501071010054e-02 5.624903481402143690e-02 -9.999000000000000000e+03 -9.999000000000000000e+03 -9.999000000000000000e+03
-9.999000000000000000e+03 6.629373663253568250e-02 6.181968113475211357e-02 6.820508689506019073e-02 6.073036569373808230e-02 7.015707213618629923e-02 6.704693942089441638e-02 7.116465351744544199e-02 7.420733902969384177e-02 7.778251934365702780e-02 9.174151715935045803e-02 7.253739463892121264e-02 8.694974855184438300e-02 7.737652718207552183e-02 7.961785089445912178e-02 7.207004631591069910e-02 6.486951737175873645e-02 5.803764058854199437e-02 5.756583974723414321e-02 -9.999000000000000000e+03 -9.999000000000000000e+03 -9.999000000000000000e+03 -9.999000000000000000e+03
-9.999000000000000000e+03 7.371593981558885456e-02 5.913398993926789055e-02 5.856699369219332818e-02 6.995012780428050414e-02 7.972789524498867519e-02 6.907835258043382165e-02 7.588200160893608659e-02 5.839406866020625114e-02 6.693265769265963061e-02 7.264612071220159784e-02 8.809860315099854455e-02 8.789191709433702426e-02 6.546186586627075754e-02 -9.999000000000000000e+03 -9.999000000000000000e+03 -9.999000000000000000e+03 -9.999000000000000000e+03 -9.999000000000000000e+03 -9.999000000000000000e+03 -9.999000000000000000e+03 -9.999000000000000000e+03 -9.999000000000000000e+03
-9.999000000000000000e+03 8.289918883763333635e-02 -9.999000000000000000e+03 -9.999000000000000000e+03 -9.999000000000000000e+03 -9.999000000000000000e+03 -9.999000000000000000e+03 7.078387780948668107e-02 6.099280798219518934e-02 6.074478974732614583e-02 7.229883001630067751e-02 7.026991966060137929e-02 7.159672726047117131e-02 7.217854833664147374e-02 -9.999000000000000000e+03 -9.999000000000000000e+03 -9.999000000000000000e+03 -9.999000000000000000e+03 -9.999000000000000000e+03 -9.999000000000000000e+03 -9.999000000000000000e+03 -9.999000000000000000e+03 -9.999000000000000000e+03
-9.999000000000000000e+03 -9.999000000000000000e+03 -9.999000000000000000e+03 -9.999000000000000000e+03 -9.999000000000000000e+03 -9.999000000000000000e+03 -9.999000000000000000e+03 -9.999000000000000000e+03 6.416495109478323466e-02 5.983807645215362403e-02 7.543295290202758907e-02 5.875257124525345986e-02 8.607232657611320337e-02 -9.999000000000000000e+03 -9.999000000000000000e+03 -9.999000000000000000e+03 -9.999000000000000000e+03 -9.999000000000000000e+03 -9.999000000000000000e+03 -9.999000000000000000e+03 -9.999000000000000000e+03 -9.999000000000000000e+03 -9.999000000000000000e+03
-9.999000000000000000e+03 -9.999000000000000000e+03 -9.999000000000000000e+03 -9.999000000000000000e+03 -9.999000000000000000e+03 -9.999000000000000000e+03 -9.999000000000000000e+03 -9.999000000000000000e+03 7.199432385083463781e-02 6.314897786678494440e-02 7.111109877515411903e-02 7.508618711105873034e-02 9.630041929474143780e-02 -9.999000000000000000e+03 -9.999000000000000000e+03 -9.999000000000000000e+03 -9.999000000000000000e+03 -9.999000000000000000e+03 -9.999000000000000000e+03 -9.999000000000000000e+03 -9.999000000000000000e+03 -9.999000000000000000e+03 -9.999000000000000000e+03
-9.999000000000000000e+03 -9.999000000000000000e+03 -9.999000000000000000e+03 -9.999000000000000000e+03 -9.999000000000000000e+03 -9.999000000000000000e+03 -9.999000000000000000e+03 -9.999000000000000000e+03 -9.999000000000000000e+03 6.012785647181057708e-02 6.265432303855618390e-02 6.043949598905755394e-02 8.739155588909040817e-02 -9.999000000000000000e+03 -9.999000000000000000e+03 -9.999000000000000000e+03 -9.999000000000000000e+03 -9.999000000000000000e+03 -9.999000000000000000e+03 -9.999000000000000000e+03 -9.999000000000000000e+03 -9.999000000000000000e+03 -9.999000000000000000e+03
-9.999000000000000000e+03 -9.999000000000000000e+03 -9.999000000000000000e+03 -9.999000000000000000e+03 -9.999000000000000000e+03 -9.999000000000000000e+03 -9.999000000000000000e+03 -9.999000000000000000e+03 -9.999000000000000000e+03 -9.999000000000000000e+03 -9.999000000000000000e+03 -9.999000000000000000e+03 -9.999000000000000000e+03 -9.999000000000000000e+03 -9.999000000000000000e+03 -9.999000000000000000e+03 -9.999000000000000000e+03 -9.999000000000000000e+03 -9.999000000000000000e+03 -9.999000000000000000e+03 -9.999000000000000000e+03 -9.999000000000000000e+03 -9.999000000000000000e+03
