ncols        23
nrows        17
xllcorner    5165373.967557672411
yllcorner    3907485.103055199608
cellsize     5000.000000000000
NODATA_value  -9999
-9.999000000000000000e+03 -9.999000000000000000e+03 -9.999000000000000000e+03 -9.999000000000000000e+03 -9.999000000000000000e+03 -9.999000000000000000e+03 -9.999000000000000000e+03 -9.999000000000000000e+03 -9.999000000000000000e+03 -9.999000000000000000e+03 -9.999000000000000000e+03 -9.999000000000000000e+03 -9.999000000000000000e+03 -9.999000000000000000e+03 -9.999000000000000000e+03 -9.999000000000000000e+03 -9.999000000000000000e+03 -9.999000000000000000e+03 -9.999000000000000000e+03 -9.999000000000000000e+03 -9.999000000000000000e+03 -9.999000000000000000e+03 -9.999000000000000000e+03
-9.999000000000000000e+03 -9.999000000000000000e+03 -9.999000000000000000e+03 -9.999000000000000000e+03 -9.999000000000000000e+03 -9.999000000000000000e+03 1.981245697748742032e+03 2.670638237048160590e+03 -9.999000000000000000e+03 -9.999000000000000000e+03 -9.999000000000000000e+03 1.759257172058667038e+03 1.403164254161575172e+03 1.921266104506238889e+03 -9.999000000000000000e+03 -9.999000000000000000e+03 -9.999000000000000000e+03 -9.999000000000000000e+03 -9.999000000000000000e+03 -9.999000000000000000e+03 -9.999000000000000000e+03 -9.999000000000000000e+03 -9.999000000000000000e+03
-9.999000000000000000e+03 -9.999000000000000000e+03 -9.999000000000000000e+03 -9.999000000000000000e+03 -9.999000000000000000e+03 -9.999000000000000000e+03 2.032896768530497638e+03 2.688039227036066222e+03 2.539216029861443076e+03 2.410035616830603885e+03 2.274837144689287015e+03 1.299010700087625310e+03 1.936476542913887670e+03 2.532287022878727839e+03 3.062091877415346062e+03 -9.999000000000000000e+03 -9.999000000000000000e+03 -9.999000000000000000e+03 -9.999000000000000000e+03 -9.999000000000000000e+03 -9.999000000000000000e+03 -9.999000000000000000e+03 -9.999000000000000000e+03
-9.999000000000000000e+03 -9.999000000000000000e+03 -9.999000000000000000e+03 -9.999000000000000000e+03 -9.999000000000000000e+03 -9.999000000000000000e+03 3.561537607746158756e+03 3.192906649870147703e+03 1.749695988071410056e+03 1.948236951315479700e+03 1.704423830286280463e+03 1.280338878076507854e+03 1.971454157576309626e+03 2.391013364953691962e+03 2.756625515530439316e+03 2.613592339927553894e+03 -9.999000000000000000e+03 -9.999000000000000000e+03 -9.999000000000000000e+03 -9.999000000000000000e+03 -9.999000000000000000e+03 -9.999000000000000000e+03 -9.999000000000000000e+03
-9.999000000000000000e+03 -9.999000000000000000e+03 -9.999000000000000000e+03 -9.999000000000000000e+03 -9.999000000000000000e+03 2.642205135127724134e+03 2.705842618172795937e+03 2.487689820759596387e+03 1.690160017707893530e+03 1.349619968775209600e+03 1.526568725968296803e+03 1.071004458465086827e+03 1.059519918502870951e+03 1.053838398161977693e+03 2.006336136220220169e+03 2.494979186188717449e+03 2.316289014059219880e+03 2.486251196662280108e+03 -9.999000000000000000e+03 -9.999000000000000000e+03 -9.999000000000000000e+03 -9.999000000000000000e+03 -9.999000000000000000e+03
-9.999000000000000000e+03 -9.999000000000000000e+03 -9.999000000000000000e+03 -9.999000000000000000e+03 3.399158886860711846e+03 3.825820593735662897e+03 2.492181509077273859e+03 2.416294958788751956e+03 2.151997546554197470e+03 1.557677327716181935e+03 1.635521911462922162e+03 1.386229128396031456e+03 8.779605735212768423e+02 8.130562730703024954e+02 1.416092034525805957e+03 1.353559893970467101e+03 1.170019592813992176e+03 2.185376123203788211e+03 2.444374594513370539e+03 -9.999000000000000000e+03 -9.999000000000000000e+03 -9.999000000000000000e+03 -9.999000000000000000e+03
-9.999000000000000000e+03 -9.999000000000000000e+03 3.057668032754030719e+03 3.090995845655442281e+03 3.139698012292180465e+03 3.146826856820134708e+03 3.619288551853324861e+03 2.229688268567381783e+03 1.962528433340243964e+03 1.805546778591103475e+03 2.056918031245462316e+03 1.283781461041055991e+03 8.306068005612443130e+02 1.552869833908920782e+03 1.659960170661678148e+03 1.800708817207024822e+03 1.857596018185179219e+03 1.140934581364169389e+03 1.070858117106253985e+03 1.283383643363957617e+03 1.918715854764566757e+03 1.863352412603426728e+03 -9.999000000000000000e+03
-9.999000000000000000e+03 3.264288990784181351e+03 3.546372226757134285e+03 3.108638000552913581e+03 3.129587844715559640e+03 2.955352555655435026e+03 2.882194182026023100e+03 1.906054254924621546e+03 1.040018456573224739e+03 1.221314562968291511e+03 1.478673334035092012e+03 2.579044906933099355e+03 2.589827455318465582e+03 2.715850106874908761e+03 2.659639222266221623e+03 1.688133585324836076e+03 1.737569132281313159e+03 1.256406874379189276e+03 2.774126421968982413e+03 2.356674700823564308e+03 2.134193208529197364e+03 2.200357580134752880e+03 -9.999000000000000000e+03
-9.999000000000000000e+03 3.229668443911599297e+03 2.363747994902022583e+03 3.080320752012517914e+03 2.839771773031387966e+03 3.101965080871917053e+03 1.891562749016701218e+03 2.446544053601245650e+03 1.063792181257479569e+03 1.277337276891674037e+03 1.989317138625588768e+03 2.283580013594907541e+03 3.443895687281316896e+03 1.951172878391215363e+03 1.561125627779747447e+03 1.224646059880213897e+03 1.864144673122506674e+03 2.387041642172689990e+03 3.038585207241020271e+03 2.758076082109434537e+03 2.050578239477370971e+03 -9.999000000000000000e+03 -9.999000000000000000e+03
-9.999000000000000000e+03 3.256100729289301398e+03 2.893792185589099063e+03 3.770305092419094308e+03 3.329912474860459497e+03 2.351392225609954494e+03 1.589767305294979906e+03 1.649715123386907635e+03 1.472986217009374968e+03 1.530636969463046171e+03 1.263927171700602003e+03 1.624261662879026971e+03 9.955617154918310234e+02 1.631220645688804552e+03 1.726158165826686400e+03 1.215862249776880390e+03 2.208413223941778597e+03 2.792564959296441884e+03 2.738514945331429317e+03 2.500457103691510838e+03 -9.999000000000000000e+03 -9.999000000000000000e+03 -9.999000000000000000e+03
-9.999000000000000000e+03 2.446610131687492412e+03 2.805091159992607572e+03 1.952966194791960334e+03 3.133699674118598978e+03 2.065078410099904886e+03 2.130765633934788639e+03 1.638095775919367952e+03 1.732752749450989086e+03 1.665246558362305223e+03 1.478859678672307837e+03 1.624753131255749167e+03 1.102285711391047471e+03 1.600898602790607356e+03 1.267120005888299147e+03 1.343753707447134275e+03 1.450792614457424861e+03 2.708135750614234439e+03 2.136291420902537993e+03 -9.999000000000000000e+03 -9.999000000000000000e+03 -9.999000000000000000e+03 -9.999000000000000000e+03
-9.999000000000000000e+03 2.416853065699805484e+03 2.981134355287463222e+03 2.687210498410378477e+03 1.803790006830599850e+03 1.428401795403575761e+03 1.909084905811558656e+03 2.076972120341895334e+03 2.479335471569896072e+03 2.202877999948107572e+03 1.989968183129640011e+03 8.362312898091485067e+02 1.246464867783527779e+03 1.292477729226076917e+03 -9.999000000000000000e+03 -9.999000000000000000e+03 -9.999000000000000000e+03 -9.999000000000000000e+03 -9.999000000000000000e+03 -9.999000000000000000e+03 -9.999000000000000000e+03 -9.999000000000000000e+03 -9.999000000000000000e+03
-9.999000000000000000e+03 2.498894226984730722e+03 -9.999000000000000000e+03 -9.999000000000000000e+03 -9.999000000000000000e+03 -9.999000000000000000e+03 -9.999000000000000000e+03 1.800967519512202671e+03 2.372971301735031830e+03 2.283209284377524455e+03 1.992799673425231276e+03 2.472203976973821682e+03 2.069812321796979177e+03 1.875149788275346054e+03 -9.999000000000000000e+03 -9.999000000000000000e+03 -9.999000000000000000e+03 -9.999000000000000000e+03 -9.999000000000000000e+03 -9.999000000000000000e+03 -9.999000000000000000e+03 -9.999000000000000000e+03 -9.999000000000000000e+03
-9.999000000000000000e+03 -9.999000000000000000e+03 -9.999000000000000000e+03 -9.999000000000000000e+03 -9.999000000000000000e+03 -9.999000000000000000e+03 -9.999000000000000000e+03 -9.999000000000000000e+03 2.278430038202467586e+03 2.386207629153381731e+03 1.845867393844072922e+03 2.408736458045795189e+03 1.671672704237325661e+03 -9.999000000000000000e+03 -9.999000000000000000e+03 -9.999000000000000000e+03 -9.999000000000000000e+03 -9.999000000000000000e+03 -9.999000000000000000e+03 -9.999000000000000000e+03 -9.999000000000000000e+03 -9.999000000000000000e+03 -9.999000000000000000e+03
-9.999000000000000000e+03 -9.999000000000000000e+03 -9.999000000000000000e+03 -9.999000000000000000e+03 -9.999000000000000000e+03 -9.999000000000000000e+03 -9.999000000000000000e+03 -9.999000000000000000e+03 1.800459802630735794e+03 1.910015242569815882e+03 2.178119449463130422e+03 2.007298049579150529e+03 9.247934573527059001e+02 -9.999000000000000000e+03 -9.999000000000000000e+03 -9.999000000000000000e+03 -9.999000000000000000e+03 -9.999000000000000000e+03 -9.999000000000000000e+03 -9.999000000000000000e+03 -9.999000000000000000e+03 -9.999000000000000000e+03 -9.999000000000000000e+03
-9.999000000000000000e+03 -9.999000000000000000e+03 -9.999000000000000000e+03 -9.999000000000000000e+03 -9.999000000000000000e+03 -9.999000000000000000e+03 -9.999000000000000000e+03 -9.999000000000000000e+03 -9.999000000000000000e+03 3.036078257419897000e+03 2.924076000029702300e+03 2.879419214038175141e+03 1.435921604341183411e+03 -9.999000000000000000e+03 -9.999000000000000000e+03 -9.999000000000000000e+03 -9.999000000000000000e+03 -9.999000000000000000e+03 -9.999000000000000000e+03 -9.999000000000000000e+03 -9.999000000000000000e+03 -9.999000000000000000e+03 -9.999000000000000000e+03
-9.999000000000000000e+03 -9.999000000000000000e+03 -9.999000000000000000e+03 -9.999000000000000000e+03 -9.999000000000000000e+03 -9.999000000000000000e+03 -9.999000000000000000e+03 -9.999000000000000000e+03 -9.999000000000000000e+03 -9.999000000000000000e+03 -9.999000000000000000e+03 -9.999000000000000000e+03 -9.999000000000000000e+03 -9.999000000000000000e+03 -9.999000000000000000e+03 -9.999000000000000000e+03 -9.999000000000000000e+03 -9.999000000000000000e+03 -9.999000000000000000e+03 -9.999000000000000000e+03 -9.999000000000000000e+03 -9.999000000000000000e+03 -9.999000000000000000e+03
