ncols        23
nrows        17
xllcorner    5165373.967557672411
yllcorner    3907485.103055199608
cellsize     5000.000000000000
NODATA_value  -9999
-9.999000000000000000e+03 -9.999000000000000000e+03 -9.999000000000000000e+03 -9.999000000000000000e+03 -9.999000000000000000e+03 -9.999000000000000000e+03 -9.999000000000000000e+03 -9.999000000000000000e+03 -9.999000000000000000e+03 -9.999000000000000000e+03 -9.999000000000000000e+03 -9.999000000000000000e+03 -9.999000000000000000e+03 -9.999000000000000000e+03 -9.999000000000000000e+03 -9.999000000000000000e+03 -9.999000000000000000e+03 -9.999000000000000000e+03 -9.999000000000000000e+03 -9.999000000000000000e+03 -9.999000000000000000e+03 -9.999000000000000000e+03 -9.999000000000000000e+03
-9.999000000000000000e+03 -9.999000000000000000e+03 -9.999000000000000000e+03 -9.999000000000000000e+03 -9.999000000000000000e+03 -9.999000000000000000e+03 2.313288629196601107e+02 3.076319878229127767e+02 -9.999000000000000000e+03 -9.999000000000000000e+03 -9.999000000000000000e+03 2.138260714182602271e+02 1.719913536025620431e+02 2.337356702068759091e+02 -9.999000000000000000e+03 -9.999000000000000000e+03 -9.999000000000000000e+03 -9.999000000000000000e+03 -9.999000000000000000e+03 -9.999000000000000000e+03 -9.999000000000000000e+03 -9.999000000000000000e+03 -9.999000000000000000e+03
-9.999000000000000000e+03 -9.999000000000000000e+03 -9.999000000000000000e+03 -9.999000000000000000e+03 -9.999000000000000000e+03 -9.999000000000000000e+03 2.436922217468510041e+02 3.043237208703141050e+02 2.861667393723976147e+02 2.787220561470114149e+02 2.702199371415561586e+02 1.656134896875665561e+02 2.381604030601439490e+02 3.030429890570597991e+02 3.618587070365539944e+02 -9.999000000000000000e+03 -9.999000000000000000e+03 -9.999000000000000000e+03 -9.999000000000000000e+03 -9.999000000000000000e+03 -9.999000000000000000e+03 -9.999000000000000000e+03 -9.999000000000000000e+03
-9.999000000000000000e+03 -9.999000000000000000e+03 -9.999000000000000000e+03 -9.999000000000000000e+03 -9.999000000000000000e+03 -9.999000000000000000e+03 4.189715639259069349e+02 3.749580850730765178e+02 2.112856965894165455e+02 2.288244205191754759e+02 2.072337514580788991e+02 1.631884852255614931e+02 2.251605890489086335e+02 2.769770242899169830e+02 3.186948065403155397e+02 2.941998391973759226e+02 -9.999000000000000000e+03 -9.999000000000000000e+03 -9.999000000000000000e+03 -9.999000000000000000e+03 -9.999000000000000000e+03 -9.999000000000000000e+03 -9.999000000000000000e+03
-9.999000000000000000e+03 -9.999000000000000000e+03 -9.999000000000000000e+03 -9.999000000000000000e+03 -9.999000000000000000e+03 3.346834435688129474e+02 3.555725274135389782e+02 3.118805460164984424e+02 2.054540210762403660e+02 1.613023230322564530e+02 1.865719696714602946e+02 1.377996241398941208e+02 1.313905721720599615e+02 1.237356239354282081e+02 2.297181415304433187e+02 2.823449835350817807e+02 2.757453422295748169e+02 2.987432267926217833e+02 -9.999000000000000000e+03 -9.999000000000000000e+03 -9.999000000000000000e+03 -9.999000000000000000e+03 -9.999000000000000000e+03
-9.999000000000000000e+03 -9.999000000000000000e+03 -9.999000000000000000e+03 -9.999000000000000000e+03 4.578611720534254346e+02 4.929983247876442647e+02 3.301932337163542570e+02 2.939418509262465591e+02 2.522961324423287408e+02 1.898623299396168989e+02 2.056262077652385756e+02 1.881724562164514225e+02 1.161235058789980741e+02 1.017758869775723980e+02 1.666448598813465196e+02 1.596305843761691392e+02 1.424131396467207935e+02 2.641370697290038265e+02 3.002426094708146138e+02 -9.999000000000000000e+03 -9.999000000000000000e+03 -9.999000000000000000e+03 -9.999000000000000000e+03
-9.999000000000000000e+03 -9.999000000000000000e+03 3.871722509006728501e+02 3.963450178648965334e+02 3.917601723745609661e+02 3.765818073711128591e+02 4.233807260909669026e+02 2.558304251265095104e+02 2.302884827852319063e+02 2.195626202255754151e+02 2.493085669354807408e+02 1.611312477427655949e+02 1.079505948432418450e+02 1.927078884998412320e+02 2.021526387124163762e+02 2.147553289624354989e+02 2.257981971735381137e+02 1.398146620888972222e+02 1.369255321448774794e+02 1.907565039149052382e+02 3.117889281313906622e+02 2.936170930727971609e+02 -9.999000000000000000e+03
-9.999000000000000000e+03 4.410904787547028150e+02 4.309973422407611565e+02 3.993430277700472288e+02 3.898647738854579643e+02 3.504468858046223545e+02 3.429836931683243506e+02 2.236696319554403090e+02 1.313983671976772882e+02 1.605191241551245298e+02 1.852323471277704527e+02 3.079776629318487267e+02 3.193599771126045539e+02 3.259270725057809273e+02 3.261768553883683239e+02 2.041011578913528979e+02 2.060157970594461005e+02 1.505441321908894565e+02 3.458890244838064518e+02 3.073365008432638774e+02 3.055375215570477963e+02 3.519299425593141564e+02 -9.999000000000000000e+03
-9.999000000000000000e+03 4.514770097626236520e+02 2.942234449574400514e+02 3.914793644795138903e+02 3.528991118154328319e+02 3.578936703625840892e+02 2.092831101537814504e+02 2.667211641693349975e+02 1.269704785075680888e+02 1.702156088492260437e+02 2.639564022129864611e+02 2.906703949215322496e+02 4.514151830636287741e+02 2.443544790476009041e+02 1.871060202767184535e+02 1.436405021414047951e+02 2.247298615571753260e+02 3.012558379891388540e+02 3.673925750573233131e+02 3.400891228093684049e+02 2.699267826614931778e+02 -9.999000000000000000e+03 -9.999000000000000000e+03
-9.999000000000000000e+03 4.607344404301160239e+02 3.644141926132641629e+02 4.661526410620920728e+02 3.914444423536584168e+02 2.623346679012951768e+02 1.762859237410738729e+02 1.782487339348179773e+02 1.661627089753241648e+02 1.848316340483677891e+02 1.648154890197669999e+02 2.059716663465586919e+02 1.277438359998531467e+02 2.005948124908513535e+02 2.022882503249275032e+02 1.439814534018705103e+02 2.815452710918500543e+02 3.680111895038969010e+02 3.422412490686487558e+02 3.155173695753032916e+02 -9.999000000000000000e+03 -9.999000000000000000e+03 -9.999000000000000000e+03
-9.999000000000000000e+03 3.563866178552499946e+02 3.608732887974549612e+02 2.479461576833063816e+02 3.670617440974933174e+02 2.233496088094022696e+02 2.293861815959613466e+02 1.804646979363310493e+02 1.975398838051609118e+02 1.940073068793035418e+02 1.759960247676566496e+02 1.955879484865341453e+02 1.389319519341484295e+02 1.971400925931722554e+02 1.541753818447782862e+02 1.591198192290850955e+02 1.705468653490712256e+02 3.065206764047565571e+02 2.471629542304330869e+02 -9.999000000000000000e+03 -9.999000000000000000e+03 -9.999000000000000000e+03 -9.999000000000000000e+03
-9.999000000000000000e+03 3.943767063287173755e+02 3.867862379531009083e+02 3.316296039276225542e+02 2.303415810284367637e+02 1.709247163875645583e+02 2.130128472581909875e+02 2.346322623346600267e+02 2.885825169073200982e+02 2.537521629045380394e+02 2.322056395586709812e+02 1.031448884824621075e+02 1.557270006600971328e+02 1.585604867694493976e+02 -9.999000000000000000e+03 -9.999000000000000000e+03 -9.999000000000000000e+03 -9.999000000000000000e+03 -9.999000000000000000e+03 -9.999000000000000000e+03 -9.999000000000000000e+03 -9.999000000000000000e+03 -9.999000000000000000e+03
-9.999000000000000000e+03 4.526476162488925183e+02 -9.999000000000000000e+03 -9.999000000000000000e+03 -9.999000000000000000e+03 -9.999000000000000000e+03 -9.999000000000000000e+03 1.987952624548429981e+02 2.749179163920312590e+02 2.644036891753327154e+02 2.319708466189886451e+02 3.050089424303990313e+02 2.551489128416758945e+02 2.464402221053658764e+02 -9.999000000000000000e+03 -9.999000000000000000e+03 -9.999000000000000000e+03 -9.999000000000000000e+03 -9.999000000000000000e+03 -9.999000000000000000e+03 -9.999000000000000000e+03 -9.999000000000000000e+03 -9.999000000000000000e+03
-9.999000000000000000e+03 -9.999000000000000000e+03 -9.999000000000000000e+03 -9.999000000000000000e+03 -9.999000000000000000e+03 -9.999000000000000000e+03 -9.999000000000000000e+03 -9.999000000000000000e+03 2.621095312086742979e+02 2.646787609440110600e+02 2.166776977582808001e+02 2.993413575752458087e+02 2.249313159139527727e+02 -9.999000000000000000e+03 -9.999000000000000000e+03 -9.999000000000000000e+03 -9.999000000000000000e+03 -9.999000000000000000e+03 -9.999000000000000000e+03 -9.999000000000000000e+03 -9.999000000000000000e+03 -9.999000000000000000e+03 -9.999000000000000000e+03
-9.999000000000000000e+03 -9.999000000000000000e+03 -9.999000000000000000e+03 -9.999000000000000000e+03 -9.999000000000000000e+03 -9.999000000000000000e+03 -9.999000000000000000e+03 -9.999000000000000000e+03 2.121825757838939523e+02 2.228161666653319344e+02 2.602784247786130436e+02 2.548932591755311421e+02 1.250447140234493588e+02 -9.999000000000000000e+03 -9.999000000000000000e+03 -9.999000000000000000e+03 -9.999000000000000000e+03 -9.999000000000000000e+03 -9.999000000000000000e+03 -9.999000000000000000e+03 -9.999000000000000000e+03 -9.999000000000000000e+03 -9.999000000000000000e+03
-9.999000000000000000e+03 -9.999000000000000000e+03 -9.999000000000000000e+03 -9.999000000000000000e+03 -9.999000000000000000e+03 -9.999000000000000000e+03 -9.999000000000000000e+03 -9.999000000000000000e+03 -9.999000000000000000e+03 3.544734426143518817e+02 3.368038492423881962e+02 3.349020404637889214e+02 1.789992333343098210e+02 -9.999000000000000000e+03 -9.999000000000000000e+03 -9.999000000000000000e+03 -9.999000000000000000e+03 -9.999000000000000000e+03 -9.999000000000000000e+03 -9.999000000000000000e+03 -9.999000000000000000e+03 -9.999000000000000000e+03 -9.999000000000000000e+03
-9.999000000000000000e+03 -9.999000000000000000e+03 -9.999000000000000000e+03 -9.999000000000000000e+03 -9.999000000000000000e+03 -9.999000000000000000e+03 -9.999000000000000000e+03 -9.999000000000000000e+03 -9.999000000000000000e+03 -9.999000000000000000e+03 -9.999000000000000000e+03 -9.999000000000000000e+03 -9.999000000000000000e+03 -9.999000000000000000e+03 -9.999000000000000000e+03 -9.999000000000000000e+03 -9.999000000000000000e+03 -9.999000000000000000e+03 -9.999000000000000000e+03 -9.999000000000000000e+03 -9.999000000000000000e+03 -9.999000000000000000e+03 -9.999000000000000000e+03
