ncols        23
nrows        17
xllcorner    5165373.967557672411
yllcorner    3907485.103055199608
cellsize     5000.000000000000
NODATA_value  -9999
-9.999000000000000000e+03 -9.999000000000000000e+03 -9.999000000000000000e+03 -9.999000000000000000e+03 -9.999000000000000000e+03 -9.999000000000000000e+03 -9.999000000000000000e+03 -9.999000000000000000e+03 -9.999000000000000000e+03 -9.999000000000000000e+03 -9.999000000000000000e+03 -9.999000000000000000e+03 -9.999000000000000000e+03 -9.999000000000000000e+03 -9.999000000000000000e+03 -9.999000000000000000e+03 -9.999000000000000000e+03 -9.999000000000000000e+03 -9.999000000000000000e+03 -9.999000000000000000e+03 -9.999000000000000000e+03 -9.999000000000000000e+03 -9.999000000000000000e+03
-9.999000000000000000e+03 -9.999000000000000000e+03 -9.999000000000000000e+03 -9.999000000000000000e+03 -9.999000000000000000e+03 -9.999000000000000000e+03 1.321423759417033943e+04 1.774258113533517098e+04 -9.999000000000000000e+03 -9.999000000000000000e+03 -9.999000000000000000e+03 1.193397991454411385e+04 9.218240556984224895e+03 1.217415131869412471e+04 -9.999000000000000000e+03 -9.999000000000000000e+03 -9.999000000000000000e+03 -9.999000000000000000e+03 -9.999000000000000000e+03 -9.999000000000000000e+03 -9.999000000000000000e+03 -9.999000000000000000e+03 -9.999000000000000000e+03
-9.999000000000000000e+03 -9.999000000000000000e+03 -9.999000000000000000e+03 -9.999000000000000000e+03 -9.999000000000000000e+03 -9.999000000000000000e+03 1.283490456429052756e+04 1.761069802439472551e+04 1.724946197450626278e+04 1.640285059145330888e+04 1.570176301412940848e+04 9.095606033114943784e+03 1.322959230337650297e+04 1.618499259907742453e+04 1.905734857253322843e+04 -9.999000000000000000e+03 -9.999000000000000000e+03 -9.999000000000000000e+03 -9.999000000000000000e+03 -9.999000000000000000e+03 -9.999000000000000000e+03 -9.999000000000000000e+03 -9.999000000000000000e+03
-9.999000000000000000e+03 -9.999000000000000000e+03 -9.999000000000000000e+03 -9.999000000000000000e+03 -9.999000000000000000e+03 -9.999000000000000000e+03 2.225350985382637009e+04 2.107910764916128755e+04 1.167061016053902677e+04 1.296099036110338056e+04 1.196849843859820066e+04 9.174612056986046809e+03 1.371277473151600861e+04 1.606433403233452009e+04 1.829607739582779686e+04 1.722038844257713208e+04 -9.999000000000000000e+03 -9.999000000000000000e+03 -9.999000000000000000e+03 -9.999000000000000000e+03 -9.999000000000000000e+03 -9.999000000000000000e+03 -9.999000000000000000e+03
-9.999000000000000000e+03 -9.999000000000000000e+03 -9.999000000000000000e+03 -9.999000000000000000e+03 -9.999000000000000000e+03 1.667017196988418436e+04 1.719908060943842429e+04 1.605448160459701103e+04 1.078127757946854399e+04 8.961599768786480126e+03 1.067170324675857592e+04 7.318589429444023153e+03 7.288315843884990500e+03 7.188181394493034531e+03 1.377453385667308794e+04 1.666341177365346812e+04 1.556181324451685578e+04 1.676160822612382617e+04 -9.999000000000000000e+03 -9.999000000000000000e+03 -9.999000000000000000e+03 -9.999000000000000000e+03 -9.999000000000000000e+03
-9.999000000000000000e+03 -9.999000000000000000e+03 -9.999000000000000000e+03 -9.999000000000000000e+03 2.196914948291392284e+04 2.491435567665683266e+04 1.636319354166273843e+04 1.613488598743684997e+04 1.436656845728241024e+04 1.035228976678706931e+04 1.090322867089770807e+04 8.999101487376297882e+03 5.761981087689072410e+03 5.480717703306930161e+03 9.574473947543892791e+03 8.928146522494476812e+03 7.868838526615158116e+03 1.512075501865948172e+04 1.671079354763652736e+04 -9.999000000000000000e+03 -9.999000000000000000e+03 -9.999000000000000000e+03 -9.999000000000000000e+03
-9.999000000000000000e+03 -9.999000000000000000e+03 1.860025341872411445e+04 1.972283436771706329e+04 2.050959176009071234e+04 2.070518043870702240e+04 2.387565023523972195e+04 1.478633988819606202e+04 1.266315062022124403e+04 1.168494763472233535e+04 1.385151342969456346e+04 8.746294102024914537e+03 5.619720368815836082e+03 1.029156678276303501e+04 1.068543879911227668e+04 1.154097252754240071e+04 1.252963498197854278e+04 7.770509892110033434e+03 7.122917690213696915e+03 8.405922614375635021e+03 1.267250022941704628e+04 1.270059812903165766e+04 -9.999000000000000000e+03
-9.999000000000000000e+03 1.727403514248836291e+04 2.092144802673754748e+04 1.940666994601808256e+04 2.005020470432671573e+04 1.940058209392555727e+04 1.910432016778771504e+04 1.260688319049305937e+04 6.782867997069144621e+03 7.922400387796356881e+03 9.829362849084654954e+03 1.759307567041933726e+04 1.723636373054210344e+04 1.754706872144751105e+04 1.669771380364146535e+04 1.070793432264996954e+04 1.151588302494913660e+04 8.346084759883488005e+03 1.830441142487947582e+04 1.537106416631275715e+04 1.426192763549680967e+04 1.527868233662788953e+04 -9.999000000000000000e+03
-9.999000000000000000e+03 1.677035287615134439e+04 1.393662266122767869e+04 1.951852941570199982e+04 1.856095055313410194e+04 2.063595604696421651e+04 1.278430383682813590e+04 1.622899872541985496e+04 7.070546096995169137e+03 8.185856767948635934e+03 1.253367072389563327e+04 1.477511708358392207e+04 2.185105939725811913e+04 1.248329966856179271e+04 9.781879805723190657e+03 7.774154405862399472e+03 1.205736783304951678e+04 1.520149707564708478e+04 1.973895946762508902e+04 1.815566221509444949e+04 1.368911805797742090e+04 -9.999000000000000000e+03 -9.999000000000000000e+03
-9.999000000000000000e+03 1.648854796042970702e+04 1.688826456409631282e+04 2.311349431264813393e+04 2.132127278097204908e+04 1.538116996829227901e+04 1.038617900707826811e+04 1.056758585052044145e+04 9.701279383258088274e+03 1.002222912286142855e+04 7.953851044313381863e+03 1.046026084382555018e+04 6.374465015775796019e+03 1.040035995951358382e+04 1.086062226308574827e+04 7.698497548853792978e+03 1.388162255294258284e+04 1.740896712535381448e+04 1.762709562673686378e+04 1.613147064679740470e+04 -9.999000000000000000e+03 -9.999000000000000000e+03 -9.999000000000000000e+03
-9.999000000000000000e+03 1.209169449745781094e+04 1.594130414377242596e+04 1.192042249110730336e+04 2.017395513663831298e+04 1.344663850895390351e+04 1.393348647850961243e+04 1.059045939874991200e+04 1.120429366346387360e+04 1.083434892974084141e+04 9.734825237891887809e+03 1.068381314641873360e+04 7.258419016442114298e+03 1.035439307690105670e+04 8.141261072478810092e+03 8.537630205960678722e+03 9.318432313216719194e+03 1.739243392845818016e+04 1.359782056766961250e+04 -9.999000000000000000e+03 -9.999000000000000000e+03 -9.999000000000000000e+03 -9.999000000000000000e+03
-9.999000000000000000e+03 1.100852788487829275e+04 1.586954045574286647e+04 1.622826933971831022e+04 1.150795832937870546e+04 9.251301294655011588e+03 1.244791846786083443e+04 1.350640602409459461e+04 1.615994078599566456e+04 1.473619730205891210e+04 1.354293925095843224e+04 5.474821286130806584e+03 7.929262763202475071e+03 8.136856323001262354e+03 -9.999000000000000000e+03 -9.999000000000000000e+03 -9.999000000000000000e+03 -9.999000000000000000e+03 -9.999000000000000000e+03 -9.999000000000000000e+03 -9.999000000000000000e+03 -9.999000000000000000e+03 -9.999000000000000000e+03
-9.999000000000000000e+03 1.100733888352920258e+04 -9.999000000000000000e+03 -9.999000000000000000e+03 -9.999000000000000000e+03 -9.999000000000000000e+03 -9.999000000000000000e+03 1.185734390583264394e+04 1.548977282836704217e+04 1.501738175929250974e+04 1.302436699290076467e+04 1.572385290129471105e+04 1.275795188992673684e+04 1.124031806804611915e+04 -9.999000000000000000e+03 -9.999000000000000000e+03 -9.999000000000000000e+03 -9.999000000000000000e+03 -9.999000000000000000e+03 -9.999000000000000000e+03 -9.999000000000000000e+03 -9.999000000000000000e+03 -9.999000000000000000e+03
-9.999000000000000000e+03 -9.999000000000000000e+03 -9.999000000000000000e+03 -9.999000000000000000e+03 -9.999000000000000000e+03 -9.999000000000000000e+03 -9.999000000000000000e+03 -9.999000000000000000e+03 1.470013977288910610e+04 1.547855982957223569e+04 1.192569508387699898e+04 1.530641130964714466e+04 1.012111187009485911e+04 -9.999000000000000000e+03 -9.999000000000000000e+03 -9.999000000000000000e+03 -9.999000000000000000e+03 -9.999000000000000000e+03 -9.999000000000000000e+03 -9.999000000000000000e+03 -9.999000000000000000e+03 -9.999000000000000000e+03 -9.999000000000000000e+03
-9.999000000000000000e+03 -9.999000000000000000e+03 -9.999000000000000000e+03 -9.999000000000000000e+03 -9.999000000000000000e+03 -9.999000000000000000e+03 -9.999000000000000000e+03 -9.999000000000000000e+03 1.169082041707577628e+04 1.229820134470531411e+04 1.412683234093391729e+04 1.294021206669303683e+04 5.670871388117512652e+03 -9.999000000000000000e+03 -9.999000000000000000e+03 -9.999000000000000000e+03 -9.999000000000000000e+03 -9.999000000000000000e+03 -9.999000000000000000e+03 -9.999000000000000000e+03 -9.999000000000000000e+03 -9.999000000000000000e+03 -9.999000000000000000e+03
-9.999000000000000000e+03 -9.999000000000000000e+03 -9.999000000000000000e+03 -9.999000000000000000e+03 -9.999000000000000000e+03 -9.999000000000000000e+03 -9.999000000000000000e+03 -9.999000000000000000e+03 -9.999000000000000000e+03 1.903440974564850330e+04 1.884848817689676434e+04 1.864454148934883051e+04 9.269837576282254304e+03 -9.999000000000000000e+03 -9.999000000000000000e+03 -9.999000000000000000e+03 -9.999000000000000000e+03 -9.999000000000000000e+03 -9.999000000000000000e+03 -9.999000000000000000e+03 -9.999000000000000000e+03 -9.999000000000000000e+03 -9.999000000000000000e+03
-9.999000000000000000e+03 -9.999000000000000000e+03 -9.999000000000000000e+03 -9.999000000000000000e+03 -9.999000000000000000e+03 -9.999000000000000000e+03 -9.999000000000000000e+03 -9.999000000000000000e+03 -9.999000000000000000e+03 -9.999000000000000000e+03 -9.999000000000000000e+03 -9.999000000000000000e+03 -9.999000000000000000e+03 -9.999000000000000000e+03 -9.999000000000000000e+03 -9.999000000000000000e+03 -9.999000000000000000e+03 -9.999000000000000000e+03 -9.999000000000000000e+03 -9.999000000000000000e+03 -9.999000000000000000e+03 -9.999000000000000000e+03 -9.999000000000000000e+03
