ncols        23
nrows        17
xllcorner    5165373.967557672411
yllcorner    3907485.103055199608
cellsize     5000.000000000000
NODATA_value  -9999
-9.999000000000000000e+03 -9.999000000000000000e+03 -9.999000000000000000e+03 -9.999000000000000000e+03 -9.999000000000000000e+03 -9.999000000000000000e+03 -9.999000000000000000e+03 -9.999000000000000000e+03 -9.999000000000000000e+03 -9.999000000000000000e+03 -9.999000000000000000e+03 -9.999000000000000000e+03 -9.999000000000000000e+03 -9.999000000000000000e+03 -9.999000000000000000e+03 -9.999000000000000000e+03 -9.999000000000000000e+03 -9.999000000000000000e+03 -9.999000000000000000e+03 -9.999000000000000000e+03 -9.999000000000000000e+03 -9.999000000000000000e+03 -9.999000000000000000e+03
-9.999000000000000000e+03 -9.999000000000000000e+03 -9.999000000000000000e+03 -9.999000000000000000e+03 -9.999000000000000000e+03 -9.999000000000000000e+03 5.355430324395078934e+00 4.700963862976449192e+00 -9.999000000000000000e+03 -9.999000000000000000e+03 -9.999000000000000000e+03 9.253212222571669088e+00 1.100209807873785905e+01 1.273173565655186934e+01 -9.999000000000000000e+03 -9.999000000000000000e+03 -9.999000000000000000e+03 -9.999000000000000000e+03 -9.999000000000000000e+03 -9.999000000000000000e+03 -9.999000000000000000e+03 -9.999000000000000000e+03 -9.999000000000000000e+03
-9.999000000000000000e+03 -9.999000000000000000e+03 -9.999000000000000000e+03 -9.999000000000000000e+03 -9.999000000000000000e+03 -9.999000000000000000e+03 3.752316569210139896e+00 4.799356116023549390e+00 4.091219861960573745e+00 5.233180035707293953e+00 4.593314206077766748e+00 5.847033103059791515e+00 6.528551911683451614e+00 7.284377299757171187e+00 9.619722254086372715e+00 -9.999000000000000000e+03 -9.999000000000000000e+03 -9.999000000000000000e+03 -9.999000000000000000e+03 -9.999000000000000000e+03 -9.999000000000000000e+03 -9.999000000000000000e+03 -9.999000000000000000e+03
-9.999000000000000000e+03 -9.999000000000000000e+03 -9.999000000000000000e+03 -9.999000000000000000e+03 -9.999000000000000000e+03 -9.999000000000000000e+03 2.864936392252682928e+00 3.923570337650167161e+00 4.958574294986567210e+00 6.300299018802293816e+00 5.774129581797231126e+00 5.706825446671978774e+00 7.254130372703029295e+00 7.974840167065385010e+00 8.952315827755629840e+00 7.702834880808093310e+00 -9.999000000000000000e+03 -9.999000000000000000e+03 -9.999000000000000000e+03 -9.999000000000000000e+03 -9.999000000000000000e+03 -9.999000000000000000e+03 -9.999000000000000000e+03
-9.999000000000000000e+03 -9.999000000000000000e+03 -9.999000000000000000e+03 -9.999000000000000000e+03 -9.999000000000000000e+03 2.441369607293294219e+00 1.988267485933812972e+00 3.140327149065048395e+00 6.465323722787979399e+00 6.061494951330318237e+00 4.986275655897154380e+00 6.882168497638511795e+00 6.544209467516615142e+00 6.108085688180906025e+00 6.748673837915248441e+00 7.408771966322547087e+00 7.933294914020687649e+00 6.436159174557005258e+00 -9.999000000000000000e+03 -9.999000000000000000e+03 -9.999000000000000000e+03 -9.999000000000000000e+03 -9.999000000000000000e+03
-9.999000000000000000e+03 -9.999000000000000000e+03 -9.999000000000000000e+03 -9.999000000000000000e+03 2.149410008176390718e+00 2.640430639337421503e+00 3.061791871034734047e+00 3.226266579116635835e+00 4.797529278349791149e+00 5.089729406575957071e+00 3.757324341394233436e+00 6.871779186428811137e+00 6.750295733345604177e+00 3.751790427931148919e+00 4.468671873687329210e+00 5.785570005433815943e+00 6.909016706446633016e+00 6.965871661004932491e+00 7.262128782083848044e+00 -9.999000000000000000e+03 -9.999000000000000000e+03 -9.999000000000000000e+03 -9.999000000000000000e+03
-9.999000000000000000e+03 -9.999000000000000000e+03 3.108483104320447943e+00 3.063496911998575989e+00 2.873366957485880668e+00 4.462143119278698222e+00 5.524852365751891092e+00 6.587297064547172454e+00 6.801474754402361711e+00 6.899839870955202237e+00 4.486188041071522470e+00 6.915357085111102364e+00 7.532000967252739265e+00 3.693726939812293608e+00 3.713457176808393712e+00 4.418863795073546541e+00 7.265183244629114689e+00 9.474040618415322967e+00 9.451303710473270669e+00 1.020467271498691275e+01 8.918575044065626400e+00 9.187053620604869408e+00 -9.999000000000000000e+03
-9.999000000000000000e+03 3.450378671394848329e+00 4.755818858837572272e+00 4.350010053437952884e+00 4.679965735014030237e+00 6.025337431747878725e+00 4.866593524287176287e+00 7.147442612062484990e+00 7.498869927657197287e+00 6.551620410673340444e+00 4.002841870982940975e+00 4.417195083771522590e+00 4.825532662642343595e+00 4.414072428985811314e+00 6.719937152634080313e+00 9.837847068666299322e+00 1.329549119506751964e+01 8.832197880657004063e+00 5.190699480835752944e+00 7.664116235108463293e+00 7.975848128621527700e+00 8.547560442520412138e+00 -9.999000000000000000e+03
-9.999000000000000000e+03 4.883964480295949429e+00 6.271884453990527852e+00 4.585706458600292024e+00 5.488944217660963076e+00 5.700307070774385920e+00 3.960171101219460699e+00 4.898426994772601795e+00 7.279195675974054147e+00 6.008192842080836371e+00 1.917889956268258533e+00 1.720303956996046324e+00 3.418942434284830689e+00 4.910773379293025265e+00 7.259838128863354001e+00 8.775860321731604685e+00 6.005368174161301198e+00 2.645156317274034663e+00 3.803010414086762214e+00 6.389681884217035979e+00 6.666213086238056640e+00 -9.999000000000000000e+03 -9.999000000000000000e+03
-9.999000000000000000e+03 5.700176706016852890e+00 6.343872304059254397e+00 3.025646913185410458e+00 2.598382621037800266e+00 3.197977988684070461e+00 5.493450161593834480e+00 4.648324896996297362e+00 5.142768409948824448e+00 4.082691569474179438e+00 2.205778904135913265e+00 1.011561268170779293e+00 4.218628021863137789e+00 6.119655877587507398e+00 6.632899633906808923e+00 4.874993265155890931e+00 3.846379634995849450e+00 2.423282300069899531e+00 6.554646309051973319e+00 7.594172792196615340e+00 -9.999000000000000000e+03 -9.999000000000000000e+03 -9.999000000000000000e+03
-9.999000000000000000e+03 5.464985467863839652e+00 6.798531804316866101e+00 3.031708892400415856e+00 2.324652356392092223e+00 2.573679670083200755e+00 4.765610736763313149e+00 3.878793393673837908e+00 4.382600653120827694e+00 4.729761233775883866e+00 2.968171324175428172e+00 3.420299850971336042e+00 5.767738302147739304e+00 6.853168097366700628e+00 5.207512617959594081e+00 3.667667109126579117e+00 4.070980120742323294e+00 4.361180753796949361e+00 5.862799721356009464e+00 -9.999000000000000000e+03 -9.999000000000000000e+03 -9.999000000000000000e+03 -9.999000000000000000e+03
-9.999000000000000000e+03 3.701109345728277322e+00 6.090605723824301876e+00 5.141540831137191958e+00 3.595708189849540659e+00 3.461220849805004107e+00 3.598076936047225782e+00 4.004612843861881544e+00 3.779191106728775118e+00 5.381908632694790917e+00 4.100488833908269903e+00 4.651604315333599082e+00 5.291090005818250397e+00 4.279401802061405746e+00 -9.999000000000000000e+03 -9.999000000000000000e+03 -9.999000000000000000e+03 -9.999000000000000000e+03 -9.999000000000000000e+03 -9.999000000000000000e+03 -9.999000000000000000e+03 -9.999000000000000000e+03 -9.999000000000000000e+03
-9.999000000000000000e+03 1.486227544621046892e+00 -9.999000000000000000e+03 -9.999000000000000000e+03 -9.999000000000000000e+03 -9.999000000000000000e+03 -9.999000000000000000e+03 5.139714705435461717e+00 4.266091306012358864e+00 4.246769150741499743e+00 3.443384449477352671e+00 4.417903282875539794e+00 6.034901583751469012e+00 4.740752000584092407e+00 -9.999000000000000000e+03 -9.999000000000000000e+03 -9.999000000000000000e+03 -9.999000000000000000e+03 -9.999000000000000000e+03 -9.999000000000000000e+03 -9.999000000000000000e+03 -9.999000000000000000e+03 -9.999000000000000000e+03
-9.999000000000000000e+03 -9.999000000000000000e+03 -9.999000000000000000e+03 -9.999000000000000000e+03 -9.999000000000000000e+03 -9.999000000000000000e+03 -9.999000000000000000e+03 -9.999000000000000000e+03 4.428379837157800480e+00 3.343083587409798607e+00 3.361272885494368534e+00 3.917821767727690752e+00 5.599153307451198991e+00 -9.999000000000000000e+03 -9.999000000000000000e+03 -9.999000000000000000e+03 -9.999000000000000000e+03 -9.999000000000000000e+03 -9.999000000000000000e+03 -9.999000000000000000e+03 -9.999000000000000000e+03 -9.999000000000000000e+03 -9.999000000000000000e+03
-9.999000000000000000e+03 -9.999000000000000000e+03 -9.999000000000000000e+03 -9.999000000000000000e+03 -9.999000000000000000e+03 -9.999000000000000000e+03 -9.999000000000000000e+03 -9.999000000000000000e+03 5.423548938022499044e+00 3.919718712207071132e+00 5.792919742174539977e+00 5.192428841808817808e+00 5.806380659927485866e+00 -9.999000000000000000e+03 -9.999000000000000000e+03 -9.999000000000000000e+03 -9.999000000000000000e+03 -9.999000000000000000e+03 -9.999000000000000000e+03 -9.999000000000000000e+03 -9.999000000000000000e+03 -9.999000000000000000e+03 -9.999000000000000000e+03
-9.999000000000000000e+03 -9.999000000000000000e+03 -9.999000000000000000e+03 -9.999000000000000000e+03 -9.999000000000000000e+03 -9.999000000000000000e+03 -9.999000000000000000e+03 -9.999000000000000000e+03 -9.999000000000000000e+03 6.414780484091021862e+00 7.710799685111164870e+00 5.737908810920107960e+00 7.697090515260003762e+00 -9.999000000000000000e+03 -9.999000000000000000e+03 -9.999000000000000000e+03 -9.999000000000000000e+03 -9.999000000000000000e+03 -9.999000000000000000e+03 -9.999000000000000000e+03 -9.999000000000000000e+03 -9.999000000000000000e+03 -9.999000000000000000e+03
-9.999000000000000000e+03 -9.999000000000000000e+03 -9.999000000000000000e+03 -9.999000000000000000e+03 -9.999000000000000000e+03 -9.999000000000000000e+03 -9.999000000000000000e+03 -9.999000000000000000e+03 -9.999000000000000000e+03 -9.999000000000000000e+03 -9.999000000000000000e+03 -9.999000000000000000e+03 -9.999000000000000000e+03 -9.999000000000000000e+03 -9.999000000000000000e+03 -9.999000000000000000e+03 -9.999000000000000000e+03 -9.999000000000000000e+03 -9.999000000000000000e+03 -9.999000000000000000e+03 -9.999000000000000000e+03 -9.999000000000000000e+03 -9.999000000000000000e+03
