ncols        23
nrows        17
xllcorner    5165373.967557672411
yllcorner    3907485.103055199608
cellsize     5000.000000000000
NODATA_value  -9999
-9.998999999999999773e+02 -9.998999999999999773e+02 -9.998999999999999773e+02 -9.998999999999999773e+02 -9.998999999999999773e+02 -9.998999999999999773e+02 -9.998999999999999773e+02 -9.998999999999999773e+02 -9.998999999999999773e+02 -9.998999999999999773e+02 -9.998999999999999773e+02 -9.998999999999999773e+02 -9.998999999999999773e+02 -9.998999999999999773e+02 -9.998999999999999773e+02 -9.998999999999999773e+02 -9.998999999999999773e+02 -9.998999999999999773e+02 -9.998999999999999773e+02 -9.998999999999999773e+02 -9.998999999999999773e+02 -9.998999999999999773e+02 -9.998999999999999773e+02
-9.998999999999999773e+02 -9.998999999999999773e+02 -9.998999999999999773e+02 -9.998999999999999773e+02 -9.998999999999999773e+02 -9.998999999999999773e+02 9.826020342469803381e+00 9.646783005360042296e+00 -9.998999999999999773e+02 -9.998999999999999773e+02 -9.998999999999999773e+02 7.340640018439829717e+00 8.228424461504738829e+00 8.632622145176288342e+00 -9.998999999999999773e+02 -9.998999999999999773e+02 -9.998999999999999773e+02 -9.998999999999999773e+02 -9.998999999999999773e+02 -9.998999999999999773e+02 -9.998999999999999773e+02 -9.998999999999999773e+02 -9.998999999999999773e+02
-9.998999999999999773e+02 -9.998999999999999773e+02 -9.998999999999999773e+02 -9.998999999999999773e+02 -9.998999999999999773e+02 -9.998999999999999773e+02 9.856688172097472389e+00 9.685295890692975362e+00 9.469115363995678436e+00 9.188860277043390923e+00 8.820612209823961436e+00 8.501566635798734950e+00 8.618015244400396568e+00 8.793772737733950962e+00 8.954914125734715569e+00 -9.998999999999999773e+02 -9.998999999999999773e+02 -9.998999999999999773e+02 -9.998999999999999773e+02 -9.998999999999999773e+02 -9.998999999999999773e+02 -9.998999999999999773e+02 -9.998999999999999773e+02
-9.998999999999999773e+02 -9.998999999999999773e+02 -9.998999999999999773e+02 -9.998999999999999773e+02 -9.998999999999999773e+02 -9.998999999999999773e+02 9.883679887841626766e+00 9.716462081522491800e+00 9.508727277648079124e+00 9.254628096256341863e+00 8.969438526963809721e+00 8.718656061887044117e+00 8.593655142667479652e+00 8.649175737940339559e+00 8.848327836890121034e+00 9.048615771562889876e+00 -9.998999999999999773e+02 -9.998999999999999773e+02 -9.998999999999999773e+02 -9.998999999999999773e+02 -9.998999999999999773e+02 -9.998999999999999773e+02 -9.998999999999999773e+02
-9.998999999999999773e+02 -9.998999999999999773e+02 -9.998999999999999773e+02 -9.998999999999999773e+02 -9.998999999999999773e+02 1.004120204542533124e+01 9.906694508175609926e+00 9.737136037992808468e+00 9.516044043320681212e+00 9.218726524602809391e+00 8.817592624207417629e+00 8.293290306908094323e+00 7.779632567791848530e+00 7.834762433143571236e+00 8.462180999530762193e+00 8.950128766589520168e+00 9.172771163858286059e+00 9.262486934148137507e+00 -9.998999999999999773e+02 -9.998999999999999773e+02 -9.998999999999999773e+02 -9.998999999999999773e+02 -9.998999999999999773e+02
-9.998999999999999773e+02 -9.998999999999999773e+02 -9.998999999999999773e+02 -9.998999999999999773e+02 1.016847274495717990e+01 1.006170072573604024e+01 9.928586112891004234e+00 9.754368340927204173e+00 9.508879138883411741e+00 9.121726574899913231e+00 8.436185409094063559e+00 7.458796907465888637e+00 5.626493563063267977e+00 5.626493563063267977e+00 7.999452827291219315e+00 8.874802360901016485e+00 9.179083974191486917e+00 9.302271795784259112e+00 9.346025996525733959e+00 -9.998999999999999773e+02 -9.998999999999999773e+02 -9.998999999999999773e+02 -9.998999999999999773e+02
-9.998999999999999773e+02 -9.998999999999999773e+02 1.034107198757542356e+01 1.026950307495670600e+01 1.018512924823417265e+01 1.008280225907224370e+01 9.953681576459583624e+00 9.780840966769641653e+00 9.526694141783170977e+00 9.088373034012336760e+00 8.077371193186584364e+00 5.626493563063267977e+00 5.626493563063267977e+00 7.438357644667428659e+00 8.357326607308452893e+00 8.942582763480205088e+00 9.209588566744956850e+00 9.330471857310168815e+00 9.384971071680418220e+00 9.407043351168121958e+00 9.411258983247035914e+00 9.405308270795448067e+00 -9.998999999999999773e+02
-9.998999999999999773e+02 1.040612995301690091e+01 1.034779055797007530e+01 1.028051365523264593e+01 1.020125376522418748e+01 1.010519825648257530e+01 9.984207918525360270e+00 9.823325020102448235e+00 9.592328201752629013e+00 9.224751573953273720e+00 8.589454468240703022e+00 7.860911632383780656e+00 7.762574710112720489e+00 8.252728323546852707e+00 8.747044038734555826e+00 9.068257670740788257e+00 9.244311934708926870e+00 9.333327933305955781e+00 9.383025158077689554e+00 9.419446064548125719e+00 9.449987153207606738e+00 9.473912288513881563e+00 -9.998999999999999773e+02
-9.998999999999999773e+02 1.040681262706469923e+01 1.035231985450125158e+01 1.028970877407769002e+01 1.021632374788593012e+01 1.012808700015500563e+01 1.001847039711794096e+01 9.876595481955556366e+00 9.684032067162048563e+00 9.412077048480004038e+00 9.034527474121063051e+00 8.572494969037085966e+00 8.229816181760815752e+00 8.588699347620906366e+00 8.952517386871924998e+00 9.148035968534149021e+00 9.238306765523697450e+00 9.274454034691778759e+00 9.305488307333339648e+00 9.360678847162585470e+00 9.429098229612652204e+00 -9.998999999999999773e+02 -9.998999999999999773e+02
-9.998999999999999773e+02 1.040473560349420268e+01 1.035413350199631033e+01 1.029636335874547015e+01 1.022924683638244936e+01 1.014955522994135606e+01 1.005243751031114385e+01 9.930535983162092961e+00 9.772575800700495918e+00 9.559882070588681557e+00 9.243535056962764784e+00 8.522684297373634976e+00 6.422088754564637902e+00 8.464063031142003979e+00 9.031981224517767970e+00 9.152580062906400471e+00 9.143943764960631881e+00 9.076431752066278946e+00 9.051813961252834773e+00 9.170551948983179713e+00 -9.998999999999999773e+02 -9.998999999999999773e+02 -9.998999999999999773e+02
-9.998999999999999773e+02 1.039937400528643785e+01 1.035252129529457754e+01 1.029950625384336327e+01 1.023862637018624788e+01 1.016739258552803449e+01 1.008221513001253022e+01 9.977985438489728409e+00 9.847263428561737086e+00 9.677265844164690378e+00 9.435452321872913828e+00 9.023726312744216216e+00 8.576830587015811247e+00 8.892301160236188551e+00 9.092188840391374427e+00 9.071775000475767570e+00 8.909650121998293315e+00 8.567972469439117944e+00 8.194818409191849895e+00 -9.998999999999999773e+02 -9.998999999999999773e+02 -9.998999999999999773e+02 -9.998999999999999773e+02
-9.998999999999999773e+02 1.039006335416211080e+01 1.034657800408012562e+01 1.029795140201961523e+01 1.024293264485742050e+01 1.017958395054663434e+01 1.010504816105897241e+01 1.001532519173938418e+01 9.904981842175498485e+00 9.766772794376043620e+00 9.592789357278240558e+00 9.389645416927107746e+00 9.227221763352805084e+00 9.157543172215138583e+00 -9.998999999999999773e+02 -9.998999999999999773e+02 -9.998999999999999773e+02 -9.998999999999999773e+02 -9.998999999999999773e+02 -9.998999999999999773e+02 -9.998999999999999773e+02 -9.998999999999999773e+02 -9.998999999999999773e+02
-9.998999999999999773e+02 1.037595160131148120e+01 -9.998999999999999773e+02 -9.998999999999999773e+02 -9.998999999999999773e+02 -9.998999999999999773e+02 -9.998999999999999773e+02 1.004113152536993425e+01 9.944485337435121863e+00 9.821180237543240210e+00 9.661921289079829833e+00 9.469773502220267147e+00 9.294343748964733365e+00 9.137543248363055426e+00 -9.998999999999999773e+02 -9.998999999999999773e+02 -9.998999999999999773e+02 -9.998999999999999773e+02 -9.998999999999999773e+02 -9.998999999999999773e+02 -9.998999999999999773e+02 -9.998999999999999773e+02 -9.998999999999999773e+02
-9.998999999999999773e+02 -9.998999999999999773e+02 -9.998999999999999773e+02 -9.998999999999999773e+02 -9.998999999999999773e+02 -9.998999999999999773e+02 -9.998999999999999773e+02 -9.998999999999999773e+02 9.968845326810020779e+00 9.847991086039753483e+00 9.656727178403404110e+00 9.302609973431220425e+00 8.892890115091386605e+00 -9.998999999999999773e+02 -9.998999999999999773e+02 -9.998999999999999773e+02 -9.998999999999999773e+02 -9.998999999999999773e+02 -9.998999999999999773e+02 -9.998999999999999773e+02 -9.998999999999999773e+02 -9.998999999999999773e+02 -9.998999999999999773e+02
-9.998999999999999773e+02 -9.998999999999999773e+02 -9.998999999999999773e+02 -9.998999999999999773e+02 -9.998999999999999773e+02 -9.998999999999999773e+02 -9.998999999999999773e+02 -9.998999999999999773e+02 9.984349335168166917e+00 9.869936196182486299e+00 9.654042127133610762e+00 9.028995305599165633e+00 7.246355949615671754e+00 -9.998999999999999773e+02 -9.998999999999999773e+02 -9.998999999999999773e+02 -9.998999999999999773e+02 -9.998999999999999773e+02 -9.998999999999999773e+02 -9.998999999999999773e+02 -9.998999999999999773e+02 -9.998999999999999773e+02 -9.998999999999999773e+02
-9.998999999999999773e+02 -9.998999999999999773e+02 -9.998999999999999773e+02 -9.998999999999999773e+02 -9.998999999999999773e+02 -9.998999999999999773e+02 -9.998999999999999773e+02 -9.998999999999999773e+02 -9.998999999999999773e+02 9.903347862699204640e+00 9.739360346573068483e+00 9.401442434531409376e+00 9.000638155595947154e+00 -9.998999999999999773e+02 -9.998999999999999773e+02 -9.998999999999999773e+02 -9.998999999999999773e+02 -9.998999999999999773e+02 -9.998999999999999773e+02 -9.998999999999999773e+02 -9.998999999999999773e+02 -9.998999999999999773e+02 -9.998999999999999773e+02
-9.998999999999999773e+02 -9.998999999999999773e+02 -9.998999999999999773e+02 -9.998999999999999773e+02 -9.998999999999999773e+02 -9.998999999999999773e+02 -9.998999999999999773e+02 -9.998999999999999773e+02 -9.998999999999999773e+02 -9.998999999999999773e+02 -9.998999999999999773e+02 -9.998999999999999773e+02 -9.998999999999999773e+02 -9.998999999999999773e+02 -9.998999999999999773e+02 -9.998999999999999773e+02 -9.998999999999999773e+02 -9.998999999999999773e+02 -9.998999999999999773e+02 -9.998999999999999773e+02 -9.998999999999999773e+02 -9.998999999999999773e+02 -9.998999999999999773e+02
