ncols        23
nrows        17
xllcorner    5165373.967557672411
yllcorner    3907485.103055199608
cellsize     5000.000000000000
NODATA_value  -9999
-9.999000000000000000e+03 -9.999000000000000000e+03 -9.999000000000000000e+03 -9.999000000000000000e+03 -9.999000000000000000e+03 -9.999000000000000000e+03 -9.999000000000000000e+03 -9.999000000000000000e+03 -9.999000000000000000e+03 -9.999000000000000000e+03 -9.999000000000000000e+03 -9.999000000000000000e+03 -9.999000000000000000e+03 -9.999000000000000000e+03 -9.999000000000000000e+03 -9.999000000000000000e+03 -9.999000000000000000e+03 -9.999000000000000000e+03 -9.999000000000000000e+03 -9.999000000000000000e+03 -9.999000000000000000e+03 -9.999000000000000000e+03 -9.999000000000000000e+03
-9.999000000000000000e+03 -9.999000000000000000e+03 -9.999000000000000000e+03 -9.999000000000000000e+03 -9.999000000000000000e+03 -9.999000000000000000e+03 2.944559772845742440e+00 2.216845918198647070e+00 -9.999000000000000000e+03 -9.999000000000000000e+03 -9.999000000000000000e+03 3.030471338292244798e+00 2.435323156047374926e+00 2.741322839099397779e+00 -9.999000000000000000e+03 -9.999000000000000000e+03 -9.999000000000000000e+03 -9.999000000000000000e+03 -9.999000000000000000e+03 -9.999000000000000000e+03 -9.999000000000000000e+03 -9.999000000000000000e+03 -9.999000000000000000e+03
-9.999000000000000000e+03 -9.999000000000000000e+03 -9.999000000000000000e+03 -9.999000000000000000e+03 -9.999000000000000000e+03 -9.999000000000000000e+03 2.768550445653326531e+00 3.272370129223158397e+00 3.106724885525778301e+00 2.499803551524799605e+00 2.588930008390295079e+00 2.774267194621530042e+00 2.378211355534948002e+00 2.737363163996728410e+00 1.674098693640969859e+00 -9.999000000000000000e+03 -9.999000000000000000e+03 -9.999000000000000000e+03 -9.999000000000000000e+03 -9.999000000000000000e+03 -9.999000000000000000e+03 -9.999000000000000000e+03 -9.999000000000000000e+03
-9.999000000000000000e+03 -9.999000000000000000e+03 -9.999000000000000000e+03 -9.999000000000000000e+03 -9.999000000000000000e+03 -9.999000000000000000e+03 2.026912084008183790e+00 2.429050804722137968e+00 2.493553439726156729e+00 2.428727153688574614e+00 2.557080479575561061e+00 2.698256195523215606e+00 2.263341302847224679e+00 2.326343466459882769e+00 1.584375582063106469e+00 2.039469174542642538e+00 -9.999000000000000000e+03 -9.999000000000000000e+03 -9.999000000000000000e+03 -9.999000000000000000e+03 -9.999000000000000000e+03 -9.999000000000000000e+03 -9.999000000000000000e+03
-9.999000000000000000e+03 -9.999000000000000000e+03 -9.999000000000000000e+03 -9.999000000000000000e+03 -9.999000000000000000e+03 2.205733488854052293e+00 2.507551516385180257e+00 2.292268130854470343e+00 2.332978509468554673e+00 2.845428390250059891e+00 2.409525040372423987e+00 3.263883626176145025e+00 3.309204024290642199e+00 2.620635780829605466e+00 1.712111743901505223e+00 1.799648768679406929e+00 1.404602578867417684e+00 1.274858918914551165e+00 -9.999000000000000000e+03 -9.999000000000000000e+03 -9.999000000000000000e+03 -9.999000000000000000e+03 -9.999000000000000000e+03
-9.999000000000000000e+03 -9.999000000000000000e+03 -9.999000000000000000e+03 -9.999000000000000000e+03 2.289906738565507194e+00 3.091230638412472587e+00 3.130967860331176578e+00 2.426836899603217912e+00 2.044108270466606925e+00 2.425048337769837747e+00 2.627392388111561949e+00 3.392734067690787558e+00 3.605441987569416362e+00 3.922985358522906196e+00 2.569371665399458049e+00 2.400547368801651871e+00 2.601640446377403659e+00 1.661560801366721130e+00 2.350191373805059047e+00 -9.999000000000000000e+03 -9.999000000000000000e+03 -9.999000000000000000e+03 -9.999000000000000000e+03
-9.999000000000000000e+03 -9.999000000000000000e+03 2.410070013814684664e+00 1.986922478959145089e+00 2.646411411830689175e+00 2.583547571912967467e+00 2.332653372491274801e+00 2.102314258440084238e+00 2.649533695976990177e+00 2.823879876396938382e+00 2.367408999996814423e+00 3.155190402200208410e+00 3.560157350266044407e+00 2.879459244144203289e+00 2.609764497435580033e+00 2.355777032983265684e+00 2.000623107091188402e+00 2.859866114467211506e+00 2.577200379001449271e+00 2.567567990989929161e+00 2.829618687130087906e+00 2.708537919333350086e+00 -9.999000000000000000e+03
-9.999000000000000000e+03 2.062218317410418056e+00 1.739061605100559182e+00 2.360389440937933792e+00 2.299343554723383143e+00 2.444898284807335731e+00 3.138615702029539989e+00 2.593537013368930833e+00 3.843169204221361657e+00 3.974352043969330950e+00 3.496549434801224265e+00 1.935032472235720835e+00 1.702107943758852882e+00 2.316835684311272736e+00 2.114049328740400746e+00 1.750066346482356705e+00 2.079391932454573322e+00 3.035442601800228513e+00 2.044670144252660471e+00 1.856754141205433140e+00 1.881985521477749890e+00 1.526236216610408647e+00 -9.999000000000000000e+03
-9.999000000000000000e+03 2.011367089635761829e+00 2.134471846841067499e+00 2.047465032255488371e+00 2.272032458714790426e+00 1.987776812872663390e+00 2.463233895684151964e+00 2.250494779775355170e+00 4.273640549233349795e+00 3.682610120740410498e+00 2.268708497939673663e+00 2.516713521207670556e+00 1.986214182501244041e+00 2.684316735455742009e+00 2.337524550873564255e+00 2.327789482067811555e+00 2.388018330979758908e+00 2.567032953994496491e+00 1.823004206380897552e+00 1.009611344807954003e+00 1.100338132381511125e+00 -9.999000000000000000e+03 -9.999000000000000000e+03
-9.999000000000000000e+03 2.664595737258421693e+00 1.963026342298123561e+00 1.952302513411898977e+00 2.479350878717026863e+00 2.373010223585706679e+00 3.185820126158327437e+00 2.666924049910099015e+00 2.609732406186360709e+00 3.507049664354405571e+00 3.348577299807697472e+00 3.257785568607518112e+00 3.187011099237613720e+00 2.706802805270060563e+00 1.925616058639597616e+00 3.498879411479313362e+00 2.644600962516801879e+00 2.028341006130154778e+00 1.838401651022610217e+00 1.027742773091604001e+00 -9.999000000000000000e+03 -9.999000000000000000e+03 -9.999000000000000000e+03
-9.999000000000000000e+03 3.071971728245622923e+00 1.873113743874547099e+00 2.406147637530940298e+00 1.943946967012669447e+00 2.536868961892436491e+00 2.700011121949348336e+00 2.469415543052341455e+00 2.585855235004741459e+00 2.748630848168340801e+00 3.511650118070747784e+00 2.548386302547593463e+00 3.229360514801840498e+00 2.767859317763369020e+00 3.541074725263666068e+00 2.857742664694321366e+00 1.532368195089484075e+00 9.629102054402555178e-01 1.171059970823474350e+00 -9.999000000000000000e+03 -9.999000000000000000e+03 -9.999000000000000000e+03 -9.999000000000000000e+03
-9.999000000000000000e+03 3.381558839480552692e+00 2.103710720977364446e+00 2.081189710055006969e+00 2.790032371495334562e+00 2.897713206367086070e+00 2.447884306929371867e+00 2.715754426904304797e+00 2.388572075553458518e+00 2.329780480218132332e+00 2.350131688166275712e+00 3.795164587066635065e+00 3.290013939523665165e+00 2.575545358935996010e+00 -9.999000000000000000e+03 -9.999000000000000000e+03 -9.999000000000000000e+03 -9.999000000000000000e+03 -9.999000000000000000e+03 -9.999000000000000000e+03 -9.999000000000000000e+03 -9.999000000000000000e+03 -9.999000000000000000e+03
-9.999000000000000000e+03 3.678936533139538945e+00 -9.999000000000000000e+03 -9.999000000000000000e+03 -9.999000000000000000e+03 -9.999000000000000000e+03 -9.999000000000000000e+03 2.332689690229111434e+00 2.075181414493040943e+00 3.412608405842003645e+00 2.503387566261802810e+00 2.789575895267949690e+00 2.597413979890236924e+00 2.787213482884506988e+00 -9.999000000000000000e+03 -9.999000000000000000e+03 -9.999000000000000000e+03 -9.999000000000000000e+03 -9.999000000000000000e+03 -9.999000000000000000e+03 -9.999000000000000000e+03 -9.999000000000000000e+03 -9.999000000000000000e+03
-9.999000000000000000e+03 -9.999000000000000000e+03 -9.999000000000000000e+03 -9.999000000000000000e+03 -9.999000000000000000e+03 -9.999000000000000000e+03 -9.999000000000000000e+03 -9.999000000000000000e+03 2.282750719273279660e+00 2.127278625399622314e+00 3.338737523513649386e+00 2.227837781455673571e+00 3.895617319361886821e+00 -9.999000000000000000e+03 -9.999000000000000000e+03 -9.999000000000000000e+03 -9.999000000000000000e+03 -9.999000000000000000e+03 -9.999000000000000000e+03 -9.999000000000000000e+03 -9.999000000000000000e+03 -9.999000000000000000e+03 -9.999000000000000000e+03
-9.999000000000000000e+03 -9.999000000000000000e+03 -9.999000000000000000e+03 -9.999000000000000000e+03 -9.999000000000000000e+03 -9.999000000000000000e+03 -9.999000000000000000e+03 -9.999000000000000000e+03 2.728953990201893554e+00 3.235511563764046805e+00 2.269313066493950704e+00 2.544714404705267441e+00 3.656892142805274304e+00 -9.999000000000000000e+03 -9.999000000000000000e+03 -9.999000000000000000e+03 -9.999000000000000000e+03 -9.999000000000000000e+03 -9.999000000000000000e+03 -9.999000000000000000e+03 -9.999000000000000000e+03 -9.999000000000000000e+03 -9.999000000000000000e+03
-9.999000000000000000e+03 -9.999000000000000000e+03 -9.999000000000000000e+03 -9.999000000000000000e+03 -9.999000000000000000e+03 -9.999000000000000000e+03 -9.999000000000000000e+03 -9.999000000000000000e+03 -9.999000000000000000e+03 2.468473959646357851e+00 2.107833080207003551e+00 2.269451464012807396e+00 2.552789394462432249e+00 -9.999000000000000000e+03 -9.999000000000000000e+03 -9.999000000000000000e+03 -9.999000000000000000e+03 -9.999000000000000000e+03 -9.999000000000000000e+03 -9.999000000000000000e+03 -9.999000000000000000e+03 -9.999000000000000000e+03 -9.999000000000000000e+03
-9.999000000000000000e+03 -9.999000000000000000e+03 -9.999000000000000000e+03 -9.999000000000000000e+03 -9.999000000000000000e+03 -9.999000000000000000e+03 -9.999000000000000000e+03 -9.999000000000000000e+03 -9.999000000000000000e+03 -9.999000000000000000e+03 -9.999000000000000000e+03 -9.999000000000000000e+03 -9.999000000000000000e+03 -9.999000000000000000e+03 -9.999000000000000000e+03 -9.999000000000000000e+03 -9.999000000000000000e+03 -9.999000000000000000e+03 -9.999000000000000000e+03 -9.999000000000000000e+03 -9.999000000000000000e+03 -9.999000000000000000e+03 -9.999000000000000000e+03
