ncols        23
nrows        17
xllcorner    5165373.967557672411
yllcorner    3907485.103055199608
cellsize     5000.000000000000
NODATA_value  -9999
-9.999000000000000000e+03 -9.999000000000000000e+03 -9.999000000000000000e+03 -9.999000000000000000e+03 -9.999000000000000000e+03 -9.999000000000000000e+03 -9.999000000000000000e+03 -9.999000000000000000e+03 -9.999000000000000000e+03 -9.999000000000000000e+03 -9.999000000000000000e+03 -9.999000000000000000e+03 -9.999000000000000000e+03 -9.999000000000000000e+03 -9.999000000000000000e+03 -9.999000000000000000e+03 -9.999000000000000000e+03 -9.999000000000000000e+03 -9.999000000000000000e+03 -9.999000000000000000e+03 -9.999000000000000000e+03 -9.999000000000000000e+03 -9.999000000000000000e+03
-9.999000000000000000e+03 -9.999000000000000000e+03 -9.999000000000000000e+03 -9.999000000000000000e+03 -9.999000000000000000e+03 -9.999000000000000000e+03 2.093128442744942141e+00 1.826086082452754500e+00 -9.999000000000000000e+03 -9.999000000000000000e+03 -9.999000000000000000e+03 3.289112806592981997e+00 2.028306167478931332e+00 2.018412854650557975e+00 -9.999000000000000000e+03 -9.999000000000000000e+03 -9.999000000000000000e+03 -9.999000000000000000e+03 -9.999000000000000000e+03 -9.999000000000000000e+03 -9.999000000000000000e+03 -9.999000000000000000e+03 -9.999000000000000000e+03
-9.999000000000000000e+03 -9.999000000000000000e+03 -9.999000000000000000e+03 -9.999000000000000000e+03 -9.999000000000000000e+03 -9.999000000000000000e+03 2.044809487532991632e+00 1.451145601694791898e+00 1.463196829620232009e+00 2.634448772226041235e+00 2.321877362579262805e+00 3.149709455419327675e+00 1.363297681907011505e+00 1.636405110640418048e+00 9.608375192475353543e-01 -9.999000000000000000e+03 -9.999000000000000000e+03 -9.999000000000000000e+03 -9.999000000000000000e+03 -9.999000000000000000e+03 -9.999000000000000000e+03 -9.999000000000000000e+03 -9.999000000000000000e+03
-9.999000000000000000e+03 -9.999000000000000000e+03 -9.999000000000000000e+03 -9.999000000000000000e+03 -9.999000000000000000e+03 -9.999000000000000000e+03 7.090290414877534753e-01 1.063227319670048576e+00 1.523452937634841797e+00 1.370979652135809967e+00 2.337821990897343660e+00 3.090128249424831441e+00 1.064576596363840721e+00 1.183617453277008957e+00 7.039616648746063188e-01 8.940208269044851441e-01 -9.999000000000000000e+03 -9.999000000000000000e+03 -9.999000000000000000e+03 -9.999000000000000000e+03 -9.999000000000000000e+03 -9.999000000000000000e+03 -9.999000000000000000e+03
-9.999000000000000000e+03 -9.999000000000000000e+03 -9.999000000000000000e+03 -9.999000000000000000e+03 -9.999000000000000000e+03 1.726255444393531846e+00 8.893629031020661158e-01 1.006661233765601127e+00 1.136557320189894638e+00 2.667849538850992186e+00 2.162504193608329572e+00 3.601566345269673342e+00 3.657230951010438158e+00 2.535150555440655040e+00 5.951822803694371000e-01 7.124893441260712335e-01 6.046067458378092674e-01 4.883218953194158884e-01 -9.999000000000000000e+03 -9.999000000000000000e+03 -9.999000000000000000e+03 -9.999000000000000000e+03 -9.999000000000000000e+03
-9.999000000000000000e+03 -9.999000000000000000e+03 -9.999000000000000000e+03 -9.999000000000000000e+03 9.802954120118527737e-01 1.147095333470484313e+00 1.133878670294777846e+00 1.346837106263092831e+00 1.309588748972431826e+00 1.817935270751141363e+00 2.328619598704976923e+00 2.834600345920412323e+00 2.857089120219125977e+00 3.838281036672797075e+00 1.822921172112171195e+00 1.799720072675954796e+00 2.223854884297348455e+00 7.663086112460955057e-01 1.113574155368667107e+00 -9.999000000000000000e+03 -9.999000000000000000e+03 -9.999000000000000000e+03 -9.999000000000000000e+03
-9.999000000000000000e+03 -9.999000000000000000e+03 8.857893206790088403e-01 7.646910585642382463e-01 1.013272185986160423e+00 1.113315914091100201e+00 1.101983328811687146e+00 9.116706335966537900e-01 2.021729868488925774e+00 1.796733725201826726e+00 1.832987847006052107e+00 3.116406859278541663e+00 3.770694506512075161e+00 2.394703647363725985e+00 1.928890225334236153e+00 2.077868483171599223e+00 9.683151162871472817e-01 2.677853979861921196e+00 2.114253260416187441e+00 1.655467396265029034e+00 1.517912180509219278e+00 2.500292605025379977e+00 -9.999000000000000000e+03
-9.999000000000000000e+03 9.288777665931583494e-01 7.316636598890066123e-01 1.338565284813987066e+00 1.119780210754490302e+00 1.350701751569882703e+00 1.445030462772613600e+00 1.121002536962551144e+00 3.881708375030117786e+00 3.085317433922002639e+00 2.922975512317550262e+00 1.283978453655717056e+00 1.164929974930943413e+00 9.372378719215218590e-01 9.568436812019120996e-01 1.324734375643872308e+00 1.722747547458498119e+00 3.565514956481972142e+00 1.621871483614891973e+00 1.522589080284070695e+00 1.530758262991632535e+00 7.078689977986205584e-01 -9.999000000000000000e+03
-9.999000000000000000e+03 8.993485598948725013e-01 9.536712240413889319e-01 9.117654579073042331e-01 9.869735584087130364e-01 7.403901496854660147e-01 2.193335660912637763e+00 1.113688042604447537e+00 3.484924253945648420e+00 2.955450495539465816e+00 1.757858493198677152e+00 1.885287763489070567e+00 1.428385946641665960e+00 2.453674952612557192e+00 1.628207692346652635e+00 2.141314604390661458e+00 2.228072682298359197e+00 1.033893705934032514e+00 4.897935544492019178e-01 7.961046570139090894e-02 1.752913544960394421e-01 -9.999000000000000000e+03 -9.999000000000000000e+03
-9.999000000000000000e+03 1.295722047888312023e+00 5.986016616988242278e-01 5.364124234916394229e-01 1.017623569475367029e+00 1.190286488028971856e+00 2.817676711572328685e+00 2.164728573984308735e+00 1.954155880496496689e+00 3.289793499584151792e+00 3.181901337927558693e+00 2.275424417370659036e+00 2.545112105119680113e+00 2.165319182915511398e+00 6.707485206254465426e-01 4.182325593317005819e+00 2.468080965000805982e+00 6.998385792946706374e-01 3.443243534075659529e-01 1.329194281168721292e-01 -9.999000000000000000e+03 -9.999000000000000000e+03 -9.999000000000000000e+03
-9.999000000000000000e+03 1.101639763419977935e+00 6.003884615962713500e-01 9.856765415576393963e-01 5.374976170259416763e-01 1.283431507994251097e+00 1.357590430472877863e+00 1.630558069135429777e+00 1.781845558766684157e+00 1.998791565837523931e+00 2.970615046313374030e+00 2.316042585247540586e+00 3.111415871826174850e+00 3.002584201722669377e+00 4.091562554758290560e+00 3.397890945611325986e+00 8.024316887361695461e-01 9.732849201502857817e-02 1.958145969112977669e-01 -9.999000000000000000e+03 -9.999000000000000000e+03 -9.999000000000000000e+03 -9.999000000000000000e+03
-9.999000000000000000e+03 1.876629578448249847e+00 5.575861610005334867e-01 7.887307726796392027e-01 2.186409855486779463e+00 1.968612585273022741e+00 1.285946353195624337e+00 2.001699216461854558e+00 1.150255630056350009e+00 1.047721373871597139e+00 2.506281009577721708e+00 4.002430893174974358e+00 3.781988506742556044e+00 2.047332908213722824e+00 -9.999000000000000000e+03 -9.999000000000000000e+03 -9.999000000000000000e+03 -9.999000000000000000e+03 -9.999000000000000000e+03 -9.999000000000000000e+03 -9.999000000000000000e+03 -9.999000000000000000e+03 -9.999000000000000000e+03
-9.999000000000000000e+03 2.803856128300649786e+00 -9.999000000000000000e+03 -9.999000000000000000e+03 -9.999000000000000000e+03 -9.999000000000000000e+03 -9.999000000000000000e+03 1.530703358441157791e+00 8.743953673178326280e-01 1.341105408808249910e+00 1.990053166870965118e+00 2.777095716565228578e+00 2.636498264288016369e+00 2.315731177427596599e+00 -9.999000000000000000e+03 -9.999000000000000000e+03 -9.999000000000000000e+03 -9.999000000000000000e+03 -9.999000000000000000e+03 -9.999000000000000000e+03 -9.999000000000000000e+03 -9.999000000000000000e+03 -9.999000000000000000e+03
-9.999000000000000000e+03 -9.999000000000000000e+03 -9.999000000000000000e+03 -9.999000000000000000e+03 -9.999000000000000000e+03 -9.999000000000000000e+03 -9.999000000000000000e+03 -9.999000000000000000e+03 1.335759023992110439e+00 1.229435622558652019e+00 2.832601595550237938e+00 1.421274672156691121e+00 3.295294522116220204e+00 -9.999000000000000000e+03 -9.999000000000000000e+03 -9.999000000000000000e+03 -9.999000000000000000e+03 -9.999000000000000000e+03 -9.999000000000000000e+03 -9.999000000000000000e+03 -9.999000000000000000e+03 -9.999000000000000000e+03 -9.999000000000000000e+03
-9.999000000000000000e+03 -9.999000000000000000e+03 -9.999000000000000000e+03 -9.999000000000000000e+03 -9.999000000000000000e+03 -9.999000000000000000e+03 -9.999000000000000000e+03 -9.999000000000000000e+03 1.951944766646181328e+00 1.456123636863920545e+00 1.724326531935364670e+00 2.152987287708436615e+00 2.762600710813501337e+00 -9.999000000000000000e+03 -9.999000000000000000e+03 -9.999000000000000000e+03 -9.999000000000000000e+03 -9.999000000000000000e+03 -9.999000000000000000e+03 -9.999000000000000000e+03 -9.999000000000000000e+03 -9.999000000000000000e+03 -9.999000000000000000e+03
-9.999000000000000000e+03 -9.999000000000000000e+03 -9.999000000000000000e+03 -9.999000000000000000e+03 -9.999000000000000000e+03 -9.999000000000000000e+03 -9.999000000000000000e+03 -9.999000000000000000e+03 -9.999000000000000000e+03 1.129842380063811769e+00 1.004058698481531842e+00 1.047991056497909135e+00 2.150359309641644678e+00 -9.999000000000000000e+03 -9.999000000000000000e+03 -9.999000000000000000e+03 -9.999000000000000000e+03 -9.999000000000000000e+03 -9.999000000000000000e+03 -9.999000000000000000e+03 -9.999000000000000000e+03 -9.999000000000000000e+03 -9.999000000000000000e+03
-9.999000000000000000e+03 -9.999000000000000000e+03 -9.999000000000000000e+03 -9.999000000000000000e+03 -9.999000000000000000e+03 -9.999000000000000000e+03 -9.999000000000000000e+03 -9.999000000000000000e+03 -9.999000000000000000e+03 -9.999000000000000000e+03 -9.999000000000000000e+03 -9.999000000000000000e+03 -9.999000000000000000e+03 -9.999000000000000000e+03 -9.999000000000000000e+03 -9.999000000000000000e+03 -9.999000000000000000e+03 -9.999000000000000000e+03 -9.999000000000000000e+03 -9.999000000000000000e+03 -9.999000000000000000e+03 -9.999000000000000000e+03 -9.999000000000000000e+03
