ncols        23
nrows        17
xllcorner    5165373.967557672411
yllcorner    3907485.103055199608
cellsize     5000.000000000000
NODATA_value  -9999
-9.999000000000000000e+03 -9.999000000000000000e+03 -9.999000000000000000e+03 -9.999000000000000000e+03 -9.999000000000000000e+03 -9.999000000000000000e+03 -9.999000000000000000e+03 -9.999000000000000000e+03 -9.999000000000000000e+03 -9.999000000000000000e+03 -9.999000000000000000e+03 -9.999000000000000000e+03 -9.999000000000000000e+03 -9.999000000000000000e+03 -9.999000000000000000e+03 -9.999000000000000000e+03 -9.999000000000000000e+03 -9.999000000000000000e+03 -9.999000000000000000e+03 -9.999000000000000000e+03 -9.999000000000000000e+03 -9.999000000000000000e+03 -9.999000000000000000e+03
-9.999000000000000000e+03 -9.999000000000000000e+03 -9.999000000000000000e+03 -9.999000000000000000e+03 -9.999000000000000000e+03 -9.999000000000000000e+03 4.186256885489884616e-01 3.652172164905508889e-01 -9.999000000000000000e+03 -9.999000000000000000e+03 -9.999000000000000000e+03 6.578225613185963994e-01 4.056612334957862553e-01 4.036825709301115617e-01 -9.999000000000000000e+03 -9.999000000000000000e+03 -9.999000000000000000e+03 -9.999000000000000000e+03 -9.999000000000000000e+03 -9.999000000000000000e+03 -9.999000000000000000e+03 -9.999000000000000000e+03 -9.999000000000000000e+03
-9.999000000000000000e+03 -9.999000000000000000e+03 -9.999000000000000000e+03 -9.999000000000000000e+03 -9.999000000000000000e+03 -9.999000000000000000e+03 4.089618975065982820e-01 2.902291203389583685e-01 2.926393659240463796e-01 5.268897544452082471e-01 4.643754725158525387e-01 6.299418910838655572e-01 2.726595363814022788e-01 3.272810221280836318e-01 1.921675038495070653e-01 -9.999000000000000000e+03 -9.999000000000000000e+03 -9.999000000000000000e+03 -9.999000000000000000e+03 -9.999000000000000000e+03 -9.999000000000000000e+03 -9.999000000000000000e+03 -9.999000000000000000e+03
-9.999000000000000000e+03 -9.999000000000000000e+03 -9.999000000000000000e+03 -9.999000000000000000e+03 -9.999000000000000000e+03 -9.999000000000000000e+03 1.418058082975506839e-01 2.126454639340097097e-01 3.046905875269683706e-01 2.741959304271620046e-01 4.675643981794686543e-01 6.180256498849662217e-01 2.129153192727681054e-01 2.367234906554017970e-01 1.407923329749212471e-01 1.788041653808970233e-01 -9.999000000000000000e+03 -9.999000000000000000e+03 -9.999000000000000000e+03 -9.999000000000000000e+03 -9.999000000000000000e+03 -9.999000000000000000e+03 -9.999000000000000000e+03
-9.999000000000000000e+03 -9.999000000000000000e+03 -9.999000000000000000e+03 -9.999000000000000000e+03 -9.999000000000000000e+03 3.452510888787063137e-01 1.778725806204132232e-01 2.013322467531202253e-01 2.273114640379789164e-01 5.335699077701984150e-01 4.325008387216658923e-01 7.203132690539345573e-01 7.314461902020875650e-01 5.070301110881310080e-01 1.190364560738874089e-01 1.424978688252142300e-01 1.209213491675618368e-01 9.766437906388317214e-02 -9.999000000000000000e+03 -9.999000000000000000e+03 -9.999000000000000000e+03 -9.999000000000000000e+03 -9.999000000000000000e+03
-9.999000000000000000e+03 -9.999000000000000000e+03 -9.999000000000000000e+03 -9.999000000000000000e+03 1.960590824023705492e-01 2.294190666940968404e-01 2.267757340589555415e-01 2.693674212526185885e-01 2.619177497944863431e-01 3.635870541502282394e-01 4.657239197409953624e-01 5.669200691840824424e-01 5.714178240438251288e-01 7.676562073345594150e-01 3.645842344224342058e-01 3.599440145351909259e-01 4.447709768594697022e-01 1.532617222492191067e-01 2.227148310737334103e-01 -9.999000000000000000e+03 -9.999000000000000000e+03 -9.999000000000000000e+03 -9.999000000000000000e+03
-9.999000000000000000e+03 -9.999000000000000000e+03 1.771578641358017570e-01 1.529382117128476326e-01 2.026544371972321124e-01 2.226631828182200346e-01 2.203966657623374348e-01 1.823341267193307469e-01 4.043459736977851882e-01 3.593467450403653451e-01 3.665975694012104102e-01 6.232813718557083105e-01 7.541389013024150101e-01 4.789407294727451303e-01 3.857780450668472638e-01 4.155736966343198113e-01 1.936630232574294563e-01 5.355707959723842171e-01 4.228506520832374660e-01 3.310934792530058068e-01 3.035824361018438222e-01 5.000585210050759732e-01 -9.999000000000000000e+03
-9.999000000000000000e+03 1.857755533186316588e-01 1.463327319778013058e-01 2.677130569627974022e-01 2.239560421508980659e-01 2.701403503139765405e-01 2.890060925545226977e-01 2.242005073925102121e-01 7.763416750060234683e-01 6.170634867844004834e-01 5.845951024635100968e-01 2.567956907311433890e-01 2.329859949861886881e-01 1.874475743843043718e-01 1.913687362403824199e-01 2.649468751287744617e-01 3.445495094916996570e-01 7.131029912963943174e-01 3.243742967229784058e-01 3.045178160568141057e-01 3.061516525983264958e-01 1.415737995597241006e-01 -9.999000000000000000e+03
-9.999000000000000000e+03 1.798697119789745003e-01 1.907342448082777753e-01 1.823530915814608189e-01 1.973947116817426073e-01 1.480780299370932085e-01 4.386671321825275638e-01 2.227376085208895018e-01 6.969848507891296396e-01 5.910900991078931188e-01 3.515716986397354193e-01 3.770575526978141023e-01 2.856771893283331365e-01 4.907349905225114606e-01 3.256415384693304715e-01 4.282629208781322805e-01 4.456145364596718061e-01 2.067787411868065306e-01 9.795871088984038633e-02 1.592209314027817971e-02 3.505827089920788425e-02 -9.999000000000000000e+03 -9.999000000000000000e+03
-9.999000000000000000e+03 2.591444095776623824e-01 1.197203323397648400e-01 1.072824846983278929e-01 2.035247138950734003e-01 2.380572976057943324e-01 5.635353423144656704e-01 4.329457147968617248e-01 3.908311760992993489e-01 6.579586999168303141e-01 6.363802675855116942e-01 4.550848834741317850e-01 5.090224210239360225e-01 4.330638365831022685e-01 1.341497041250893085e-01 8.364651186634012303e-01 4.936161930001611853e-01 1.399677158589341108e-01 6.886487068151318780e-02 2.658388562337442654e-02 -9.999000000000000000e+03 -9.999000000000000000e+03 -9.999000000000000000e+03
-9.999000000000000000e+03 2.203279526839955760e-01 1.200776923192542617e-01 1.971353083115278682e-01 1.074995234051883269e-01 2.566863015988501973e-01 2.715180860945755614e-01 3.261116138270859222e-01 3.563691117533367980e-01 3.997583131675047641e-01 5.941230092626746950e-01 4.632085170495081061e-01 6.222831743652349479e-01 6.005168403445338976e-01 8.183125109516580231e-01 6.795781891222651971e-01 1.604863377472338926e-01 1.946569840300571563e-02 3.916291938225955477e-02 -9.999000000000000000e+03 -9.999000000000000000e+03 -9.999000000000000000e+03 -9.999000000000000000e+03
-9.999000000000000000e+03 3.753259156896499582e-01 1.115172322001066890e-01 1.577461545359278294e-01 4.372819710973559482e-01 3.937225170546045372e-01 2.571892706391248340e-01 4.003398432923709338e-01 2.300511260112699796e-01 2.095442747743194167e-01 5.012562019155443194e-01 8.004861786349948272e-01 7.563977013485111422e-01 4.094665816427445204e-01 -9.999000000000000000e+03 -9.999000000000000000e+03 -9.999000000000000000e+03 -9.999000000000000000e+03 -9.999000000000000000e+03 -9.999000000000000000e+03 -9.999000000000000000e+03 -9.999000000000000000e+03 -9.999000000000000000e+03
-9.999000000000000000e+03 5.607712256601299350e-01 -9.999000000000000000e+03 -9.999000000000000000e+03 -9.999000000000000000e+03 -9.999000000000000000e+03 -9.999000000000000000e+03 3.061406716882315582e-01 1.748790734635665145e-01 2.682210817616499932e-01 3.980106333741930125e-01 5.554191433130457600e-01 5.272996528576032738e-01 4.631462354855193087e-01 -9.999000000000000000e+03 -9.999000000000000000e+03 -9.999000000000000000e+03 -9.999000000000000000e+03 -9.999000000000000000e+03 -9.999000000000000000e+03 -9.999000000000000000e+03 -9.999000000000000000e+03 -9.999000000000000000e+03
-9.999000000000000000e+03 -9.999000000000000000e+03 -9.999000000000000000e+03 -9.999000000000000000e+03 -9.999000000000000000e+03 -9.999000000000000000e+03 -9.999000000000000000e+03 -9.999000000000000000e+03 2.671518047984220434e-01 2.458871245117303928e-01 5.665203191100475211e-01 2.842549344313382020e-01 6.590589044232439964e-01 -9.999000000000000000e+03 -9.999000000000000000e+03 -9.999000000000000000e+03 -9.999000000000000000e+03 -9.999000000000000000e+03 -9.999000000000000000e+03 -9.999000000000000000e+03 -9.999000000000000000e+03 -9.999000000000000000e+03 -9.999000000000000000e+03
-9.999000000000000000e+03 -9.999000000000000000e+03 -9.999000000000000000e+03 -9.999000000000000000e+03 -9.999000000000000000e+03 -9.999000000000000000e+03 -9.999000000000000000e+03 -9.999000000000000000e+03 3.903889533292362324e-01 2.912247273727840979e-01 3.448653063870729119e-01 4.305974575416873229e-01 5.525201421627002896e-01 -9.999000000000000000e+03 -9.999000000000000000e+03 -9.999000000000000000e+03 -9.999000000000000000e+03 -9.999000000000000000e+03 -9.999000000000000000e+03 -9.999000000000000000e+03 -9.999000000000000000e+03 -9.999000000000000000e+03 -9.999000000000000000e+03
-9.999000000000000000e+03 -9.999000000000000000e+03 -9.999000000000000000e+03 -9.999000000000000000e+03 -9.999000000000000000e+03 -9.999000000000000000e+03 -9.999000000000000000e+03 -9.999000000000000000e+03 -9.999000000000000000e+03 2.259684760127623482e-01 2.008117396963063350e-01 2.095982112995818381e-01 4.300718619283289690e-01 -9.999000000000000000e+03 -9.999000000000000000e+03 -9.999000000000000000e+03 -9.999000000000000000e+03 -9.999000000000000000e+03 -9.999000000000000000e+03 -9.999000000000000000e+03 -9.999000000000000000e+03 -9.999000000000000000e+03 -9.999000000000000000e+03
-9.999000000000000000e+03 -9.999000000000000000e+03 -9.999000000000000000e+03 -9.999000000000000000e+03 -9.999000000000000000e+03 -9.999000000000000000e+03 -9.999000000000000000e+03 -9.999000000000000000e+03 -9.999000000000000000e+03 -9.999000000000000000e+03 -9.999000000000000000e+03 -9.999000000000000000e+03 -9.999000000000000000e+03 -9.999000000000000000e+03 -9.999000000000000000e+03 -9.999000000000000000e+03 -9.999000000000000000e+03 -9.999000000000000000e+03 -9.999000000000000000e+03 -9.999000000000000000e+03 -9.999000000000000000e+03 -9.999000000000000000e+03 -9.999000000000000000e+03
