ncols        23
nrows        17
xllcorner    5165373.967557672411
yllcorner    3907485.103055199608
cellsize     5000.000000000000
NODATA_value  -9999
-9.999000000000000000e+03 -9.999000000000000000e+03 -9.999000000000000000e+03 -9.999000000000000000e+03 -9.999000000000000000e+03 -9.999000000000000000e+03 -9.999000000000000000e+03 -9.999000000000000000e+03 -9.999000000000000000e+03 -9.999000000000000000e+03 -9.999000000000000000e+03 -9.999000000000000000e+03 -9.999000000000000000e+03 -9.999000000000000000e+03 -9.999000000000000000e+03 -9.999000000000000000e+03 -9.999000000000000000e+03 -9.999000000000000000e+03 -9.999000000000000000e+03 -9.999000000000000000e+03 -9.999000000000000000e+03 -9.999000000000000000e+03 -9.999000000000000000e+03
-9.999000000000000000e+03 -9.999000000000000000e+03 -9.999000000000000000e+03 -9.999000000000000000e+03 -9.999000000000000000e+03 -9.999000000000000000e+03 1.395418961829961502e+00 1.217390721635169593e+00 -9.999000000000000000e+03 -9.999000000000000000e+03 -9.999000000000000000e+03 2.192741871061988146e+00 1.352204111652620888e+00 1.345608569767038576e+00 -9.999000000000000000e+03 -9.999000000000000000e+03 -9.999000000000000000e+03 -9.999000000000000000e+03 -9.999000000000000000e+03 -9.999000000000000000e+03 -9.999000000000000000e+03 -9.999000000000000000e+03 -9.999000000000000000e+03
-9.999000000000000000e+03 -9.999000000000000000e+03 -9.999000000000000000e+03 -9.999000000000000000e+03 -9.999000000000000000e+03 -9.999000000000000000e+03 1.363206325021994347e+00 9.674304011298612282e-01 9.754645530801546727e-01 1.756299181484027416e+00 1.547918241719508536e+00 2.099806303612885117e+00 9.088651212713410033e-01 1.090936740426945439e+00 6.405583461650236066e-01 -9.999000000000000000e+03 -9.999000000000000000e+03 -9.999000000000000000e+03 -9.999000000000000000e+03 -9.999000000000000000e+03 -9.999000000000000000e+03 -9.999000000000000000e+03 -9.999000000000000000e+03
-9.999000000000000000e+03 -9.999000000000000000e+03 -9.999000000000000000e+03 -9.999000000000000000e+03 -9.999000000000000000e+03 -9.999000000000000000e+03 4.726860276585023168e-01 7.088182131133656805e-01 1.015635291756561198e+00 9.139864347572066450e-01 1.558547993931562292e+00 2.060085499616554294e+00 7.097177309092270736e-01 7.890783021846726752e-01 4.693077765830708792e-01 5.960138846029900961e-01 -9.999000000000000000e+03 -9.999000000000000000e+03 -9.999000000000000000e+03 -9.999000000000000000e+03 -9.999000000000000000e+03 -9.999000000000000000e+03 -9.999000000000000000e+03
-9.999000000000000000e+03 -9.999000000000000000e+03 -9.999000000000000000e+03 -9.999000000000000000e+03 -9.999000000000000000e+03 1.150836962929021157e+00 5.929086020680440772e-01 6.711074891770674178e-01 7.577048801265964251e-01 1.778566359233994865e+00 1.441669462405553048e+00 2.401044230179782080e+00 2.438153967340292105e+00 1.690100370293770027e+00 3.967881869129580297e-01 4.749928960840474890e-01 4.030711638918728079e-01 3.255479302129439256e-01 -9.999000000000000000e+03 -9.999000000000000000e+03 -9.999000000000000000e+03 -9.999000000000000000e+03 -9.999000000000000000e+03
-9.999000000000000000e+03 -9.999000000000000000e+03 -9.999000000000000000e+03 -9.999000000000000000e+03 6.535302746745684788e-01 7.647302223136561716e-01 7.559191135298518605e-01 8.978914041753952580e-01 8.730591659816212546e-01 1.211956847167427576e+00 1.552413065803317949e+00 1.889733563946941697e+00 1.904726080146083911e+00 2.558854024448531383e+00 1.215280781408114130e+00 1.199813381783969790e+00 1.482569922864898970e+00 5.108724074973970408e-01 7.423827702457780342e-01 -9.999000000000000000e+03 -9.999000000000000000e+03 -9.999000000000000000e+03 -9.999000000000000000e+03
-9.999000000000000000e+03 -9.999000000000000000e+03 5.905262137860058935e-01 5.097940390428254975e-01 6.755147906574403560e-01 7.422106093940668003e-01 7.346555525411248011e-01 6.077804223977691933e-01 1.347819912325950664e+00 1.197822483467884558e+00 1.221991898004034738e+00 2.077604572852361109e+00 2.513796337674716774e+00 1.596469098242483842e+00 1.285926816889490842e+00 1.385245655447732815e+00 6.455434108580981878e-01 1.785235986574614131e+00 1.409502173610791553e+00 1.103644930843352689e+00 1.011941453672812852e+00 1.666861736683586503e+00 -9.999000000000000000e+03
-9.999000000000000000e+03 6.192518443954388996e-01 4.877757732593377415e-01 8.923768565426579702e-01 7.465201405029935344e-01 9.004678343799218387e-01 9.633536418484089925e-01 7.473350246417007625e-01 2.587805583353411709e+00 2.056878289281335093e+00 1.948650341545033582e+00 8.559856357704780372e-01 7.766199832872956454e-01 6.248252479476812393e-01 6.378957874679413997e-01 8.831562504292482796e-01 1.148498364972332153e+00 2.377009970987981280e+00 1.081247655743261316e+00 1.015059386856047130e+00 1.020505508661088356e+00 4.719126651990803722e-01 -9.999000000000000000e+03
-9.999000000000000000e+03 5.995657065965817045e-01 6.357808160275926213e-01 6.078436386048694517e-01 6.579823722724753576e-01 4.935934331236440098e-01 1.462223773941758509e+00 7.424586950696316912e-01 2.323282835963765613e+00 1.970300330359643803e+00 1.171905662132451509e+00 1.256858508992713785e+00 9.522572977611105660e-01 1.635783301741704943e+00 1.085471794897768349e+00 1.427543069593774305e+00 1.485381788198905983e+00 6.892624706226884168e-01 3.265290362994679452e-01 5.307364380092727263e-02 1.168609029973596281e-01 -9.999000000000000000e+03 -9.999000000000000000e+03
-9.999000000000000000e+03 8.638146985922079413e-01 3.990677744658828185e-01 3.576082823277596523e-01 6.784157129835780564e-01 7.935243253526478302e-01 1.878451141048218975e+00 1.443152382656205823e+00 1.302770586997664459e+00 2.193195666389434528e+00 2.121267558618372462e+00 1.516949611580439283e+00 1.696741403413120075e+00 1.443546121943674265e+00 4.471656804169643618e-01 2.788217062211337360e+00 1.645387310000537395e+00 4.665590528631137213e-01 2.295495689383773019e-01 8.861295207791475281e-02 -9.999000000000000000e+03 -9.999000000000000000e+03 -9.999000000000000000e+03
-9.999000000000000000e+03 7.344265089466519569e-01 4.002589743975142333e-01 6.571176943717595975e-01 3.583317446839611176e-01 8.556210053295006945e-01 9.050602869819186491e-01 1.087038712756953185e+00 1.187897039177789438e+00 1.332527710558349288e+00 1.980410030875582539e+00 1.544028390165027131e+00 2.074277247884116715e+00 2.001722801148446251e+00 2.727708369838860225e+00 2.265260630407550657e+00 5.349544591574463270e-01 6.488566134335238544e-02 1.305430646075318446e-01 -9.999000000000000000e+03 -9.999000000000000000e+03 -9.999000000000000000e+03 -9.999000000000000000e+03
-9.999000000000000000e+03 1.251086385632166564e+00 3.717241073336889912e-01 5.258205151197594684e-01 1.457606570324519790e+00 1.312408390182015161e+00 8.572975687970828540e-01 1.334466144307903113e+00 7.668370867042333394e-01 6.984809159143980928e-01 1.670854006385147805e+00 2.668287262116649572e+00 2.521325671161704030e+00 1.364888605475815142e+00 -9.999000000000000000e+03 -9.999000000000000000e+03 -9.999000000000000000e+03 -9.999000000000000000e+03 -9.999000000000000000e+03 -9.999000000000000000e+03 -9.999000000000000000e+03 -9.999000000000000000e+03 -9.999000000000000000e+03
-9.999000000000000000e+03 1.869237418867099709e+00 -9.999000000000000000e+03 -9.999000000000000000e+03 -9.999000000000000000e+03 -9.999000000000000000e+03 -9.999000000000000000e+03 1.020468905627438527e+00 5.829302448785550483e-01 8.940702725388333105e-01 1.326702111247310079e+00 1.851397144376819126e+00 1.757665509525344172e+00 1.543820784951731140e+00 -9.999000000000000000e+03 -9.999000000000000000e+03 -9.999000000000000000e+03 -9.999000000000000000e+03 -9.999000000000000000e+03 -9.999000000000000000e+03 -9.999000000000000000e+03 -9.999000000000000000e+03 -9.999000000000000000e+03
-9.999000000000000000e+03 -9.999000000000000000e+03 -9.999000000000000000e+03 -9.999000000000000000e+03 -9.999000000000000000e+03 -9.999000000000000000e+03 -9.999000000000000000e+03 -9.999000000000000000e+03 8.905060159947402187e-01 8.196237483724346795e-01 1.888401063700158478e+00 9.475164481044607845e-01 2.196863014744146803e+00 -9.999000000000000000e+03 -9.999000000000000000e+03 -9.999000000000000000e+03 -9.999000000000000000e+03 -9.999000000000000000e+03 -9.999000000000000000e+03 -9.999000000000000000e+03 -9.999000000000000000e+03 -9.999000000000000000e+03 -9.999000000000000000e+03
-9.999000000000000000e+03 -9.999000000000000000e+03 -9.999000000000000000e+03 -9.999000000000000000e+03 -9.999000000000000000e+03 -9.999000000000000000e+03 -9.999000000000000000e+03 -9.999000000000000000e+03 1.301296511097454145e+00 9.707490912426137708e-01 1.149551021290243114e+00 1.435324858472291076e+00 1.841733807209001039e+00 -9.999000000000000000e+03 -9.999000000000000000e+03 -9.999000000000000000e+03 -9.999000000000000000e+03 -9.999000000000000000e+03 -9.999000000000000000e+03 -9.999000000000000000e+03 -9.999000000000000000e+03 -9.999000000000000000e+03 -9.999000000000000000e+03
-9.999000000000000000e+03 -9.999000000000000000e+03 -9.999000000000000000e+03 -9.999000000000000000e+03 -9.999000000000000000e+03 -9.999000000000000000e+03 -9.999000000000000000e+03 -9.999000000000000000e+03 -9.999000000000000000e+03 7.532282533758745124e-01 6.693724656543544871e-01 6.986607043319394972e-01 1.433572873094429934e+00 -9.999000000000000000e+03 -9.999000000000000000e+03 -9.999000000000000000e+03 -9.999000000000000000e+03 -9.999000000000000000e+03 -9.999000000000000000e+03 -9.999000000000000000e+03 -9.999000000000000000e+03 -9.999000000000000000e+03 -9.999000000000000000e+03
-9.999000000000000000e+03 -9.999000000000000000e+03 -9.999000000000000000e+03 -9.999000000000000000e+03 -9.999000000000000000e+03 -9.999000000000000000e+03 -9.999000000000000000e+03 -9.999000000000000000e+03 -9.999000000000000000e+03 -9.999000000000000000e+03 -9.999000000000000000e+03 -9.999000000000000000e+03 -9.999000000000000000e+03 -9.999000000000000000e+03 -9.999000000000000000e+03 -9.999000000000000000e+03 -9.999000000000000000e+03 -9.999000000000000000e+03 -9.999000000000000000e+03 -9.999000000000000000e+03 -9.999000000000000000e+03 -9.999000000000000000e+03 -9.999000000000000000e+03
