ncols        23
nrows        17
xllcorner    5165373.967557672411
yllcorner    3907485.103055199608
cellsize     5000.000000000000
NODATA_value  -9999
-9.999000000000000000e+03 -9.999000000000000000e+03 -9.999000000000000000e+03 -9.999000000000000000e+03 -9.999000000000000000e+03 -9.999000000000000000e+03 -9.999000000000000000e+03 -9.999000000000000000e+03 -9.999000000000000000e+03 -9.999000000000000000e+03 -9.999000000000000000e+03 -9.999000000000000000e+03 -9.999000000000000000e+03 -9.999000000000000000e+03 -9.999000000000000000e+03 -9.999000000000000000e+03 -9.999000000000000000e+03 -9.999000000000000000e+03 -9.999000000000000000e+03 -9.999000000000000000e+03 -9.999000000000000000e+03 -9.999000000000000000e+03 -9.999000000000000000e+03
-9.999000000000000000e+03 -9.999000000000000000e+03 -9.999000000000000000e+03 -9.999000000000000000e+03 -9.999000000000000000e+03 -9.999000000000000000e+03 4.091587703343294025e-01 4.172348893771633538e-01 -9.999000000000000000e+03 -9.999000000000000000e+03 -9.999000000000000000e+03 4.373288174736635336e-01 4.577340209478195643e-01 4.729717117345603183e-01 -9.999000000000000000e+03 -9.999000000000000000e+03 -9.999000000000000000e+03 -9.999000000000000000e+03 -9.999000000000000000e+03 -9.999000000000000000e+03 -9.999000000000000000e+03 -9.999000000000000000e+03 -9.999000000000000000e+03
-9.999000000000000000e+03 -9.999000000000000000e+03 -9.999000000000000000e+03 -9.999000000000000000e+03 -9.999000000000000000e+03 -9.999000000000000000e+03 4.044852275548634912e-01 4.189719726214126139e-01 4.333839295964518334e-01 4.382438284021570873e-01 4.347896766043920502e-01 4.385116330151415664e-01 4.534822709506910465e-01 4.576756551880010737e-01 4.610121525364703765e-01 -9.999000000000000000e+03 -9.999000000000000000e+03 -9.999000000000000000e+03 -9.999000000000000000e+03 -9.999000000000000000e+03 -9.999000000000000000e+03 -9.999000000000000000e+03 -9.999000000000000000e+03
-9.999000000000000000e+03 -9.999000000000000000e+03 -9.999000000000000000e+03 -9.999000000000000000e+03 -9.999000000000000000e+03 -9.999000000000000000e+03 4.147438170126345192e-01 4.249579342820242744e-01 4.454745559140474431e-01 4.468928134914029182e-01 4.411668949641479043e-01 4.569533019053381162e-01 4.614805501642955665e-01 4.596257704206626604e-01 4.643706842345343144e-01 4.660394358810224791e-01 -9.999000000000000000e+03 -9.999000000000000000e+03 -9.999000000000000000e+03 -9.999000000000000000e+03 -9.999000000000000000e+03 -9.999000000000000000e+03 -9.999000000000000000e+03
-9.999000000000000000e+03 -9.999000000000000000e+03 -9.999000000000000000e+03 -9.999000000000000000e+03 -9.999000000000000000e+03 4.162569271176230212e-01 4.245499090586611901e-01 4.360637516566112093e-01 4.552600240864787540e-01 4.604464753250984144e-01 4.582985983317638401e-01 4.575162786190747344e-01 4.582082548599037408e-01 4.538697230927933868e-01 4.539255698478473766e-01 4.563347880168479587e-01 4.539792212291768880e-01 4.513101082529185626e-01 -9.999000000000000000e+03 -9.999000000000000000e+03 -9.999000000000000000e+03 -9.999000000000000000e+03 -9.999000000000000000e+03
-9.999000000000000000e+03 -9.999000000000000000e+03 -9.999000000000000000e+03 -9.999000000000000000e+03 4.309901517462613740e-01 4.192469520141786643e-01 4.241562492672480422e-01 4.322712226865871310e-01 4.472057943117967449e-01 4.561066227419960373e-01 4.561257151315005753e-01 4.547634491522751787e-01 4.549748346252213693e-01 4.551265751555335082e-01 4.505867291244912698e-01 4.487668116983035693e-01 4.487071333859448119e-01 4.451527543855300917e-01 4.387418077883001311e-01 -9.999000000000000000e+03 -9.999000000000000000e+03 -9.999000000000000000e+03 -9.999000000000000000e+03
-9.999000000000000000e+03 -9.999000000000000000e+03 4.332007693353566169e-01 4.236315864931675668e-01 4.203337565132233000e-01 4.126408565784105420e-01 4.184958881824006327e-01 4.239083383208901989e-01 4.451667924478930338e-01 4.577777149860950967e-01 4.615159758132145185e-01 4.594139295570910386e-01 4.517803989674871734e-01 4.519568151289012903e-01 4.451190607039495206e-01 4.423389767052697819e-01 4.417211923100410886e-01 4.391331937005167330e-01 4.325728991634554821e-01 4.248883015286133435e-01 4.205927833504204960e-01 4.255139088212421816e-01 -9.999000000000000000e+03
-9.999000000000000000e+03 3.838227392683865591e-01 4.341365582360669495e-01 4.184173041406371585e-01 4.137400133063746099e-01 4.066422173599075762e-01 4.128667019625688051e-01 4.231266077126998870e-01 4.450837078859620766e-01 4.654720568483496357e-01 4.713887375395375279e-01 4.706310480280657682e-01 4.632136847274944125e-01 4.512725043947755643e-01 4.381339148569203812e-01 4.343945318081573470e-01 4.328154602906588710e-01 4.343117281780358718e-01 4.281875627417210395e-01 4.385219899569798296e-01 4.335741674228232312e-01 4.349802965033860991e-01 -9.999000000000000000e+03
-9.999000000000000000e+03 3.886878761237261282e-01 4.422086817874413822e-01 4.337395648564852935e-01 4.287350730033230306e-01 4.012522682881345948e-01 4.077076065769007496e-01 4.156618788294307865e-01 4.334988742430104791e-01 4.610965965958483403e-01 4.835761792633885836e-01 4.845660996591336089e-01 4.788315705968224090e-01 4.583470370336459876e-01 4.334773798884253848e-01 4.376928549824889436e-01 4.416051252510920233e-01 4.562279908653257832e-01 4.550311518859570525e-01 4.411907022272579804e-01 4.245076652550276441e-01 -9.999000000000000000e+03 -9.999000000000000000e+03
-9.999000000000000000e+03 4.004959537558359650e-01 4.553814355111079903e-01 4.590245817053470456e-01 4.579713071183191264e-01 4.320651927579567952e-01 4.073218947429245729e-01 4.015005784469665162e-01 4.152212143484642626e-01 4.371558284304722375e-01 4.628603962823938933e-01 5.026451965182859860e-01 4.997164961970076980e-01 4.624669633401277125e-01 4.408315474046483051e-01 4.261920232107445083e-01 4.473310608253679432e-01 4.628287549082201191e-01 4.711859412372466638e-01 4.480646808526787539e-01 -9.999000000000000000e+03 -9.999000000000000000e+03 -9.999000000000000000e+03
-9.999000000000000000e+03 4.004959537558359650e-01 4.074514728702910982e-01 4.908129912844396148e-01 4.917133065459758368e-01 4.841097003308431623e-01 4.371047305439603736e-01 4.050479883131328784e-01 3.875655698096672208e-01 4.074550302903964250e-01 4.305783484858989318e-01 4.598200593419631277e-01 4.818041980823011272e-01 4.538889407484270611e-01 4.232601806155279478e-01 4.199966986048414563e-01 4.442600196977644633e-01 4.738135454347555120e-01 4.904461979468736077e-01 -9.999000000000000000e+03 -9.999000000000000000e+03 -9.999000000000000000e+03 -9.999000000000000000e+03
-9.999000000000000000e+03 5.049300028955169273e-01 5.112473794069963828e-01 5.021624678628121563e-01 5.283891130118405499e-01 5.186727513822713131e-01 4.716323313502821524e-01 4.408199585158463774e-01 4.043784534830628385e-01 3.735593520426100378e-01 3.941043974247496195e-01 4.209835113771703274e-01 4.453983398447174391e-01 4.356647279528542693e-01 -9.999000000000000000e+03 -9.999000000000000000e+03 -9.999000000000000000e+03 -9.999000000000000000e+03 -9.999000000000000000e+03 -9.999000000000000000e+03 -9.999000000000000000e+03 -9.999000000000000000e+03 -9.999000000000000000e+03
-9.999000000000000000e+03 5.162373405300051399e-01 -9.999000000000000000e+03 -9.999000000000000000e+03 -9.999000000000000000e+03 -9.999000000000000000e+03 -9.999000000000000000e+03 4.786095093662394717e-01 4.300308695788699898e-01 3.931456724458264884e-01 3.666614621368881055e-01 3.923058759772957149e-01 4.277522167935314257e-01 4.295387914923335382e-01 -9.999000000000000000e+03 -9.999000000000000000e+03 -9.999000000000000000e+03 -9.999000000000000000e+03 -9.999000000000000000e+03 -9.999000000000000000e+03 -9.999000000000000000e+03 -9.999000000000000000e+03 -9.999000000000000000e+03
-9.999000000000000000e+03 -9.999000000000000000e+03 -9.999000000000000000e+03 -9.999000000000000000e+03 -9.999000000000000000e+03 -9.999000000000000000e+03 -9.999000000000000000e+03 -9.999000000000000000e+03 4.464944401362704873e-01 4.041204941288973895e-01 3.769025283095649992e-01 3.975956534822694954e-01 4.289034903394767229e-01 -9.999000000000000000e+03 -9.999000000000000000e+03 -9.999000000000000000e+03 -9.999000000000000000e+03 -9.999000000000000000e+03 -9.999000000000000000e+03 -9.999000000000000000e+03 -9.999000000000000000e+03 -9.999000000000000000e+03 -9.999000000000000000e+03
-9.999000000000000000e+03 -9.999000000000000000e+03 -9.999000000000000000e+03 -9.999000000000000000e+03 -9.999000000000000000e+03 -9.999000000000000000e+03 -9.999000000000000000e+03 -9.999000000000000000e+03 4.488764744065209533e-01 4.029885549794190447e-01 4.017037695057805169e-01 4.219170420990079329e-01 4.432551983378453242e-01 -9.999000000000000000e+03 -9.999000000000000000e+03 -9.999000000000000000e+03 -9.999000000000000000e+03 -9.999000000000000000e+03 -9.999000000000000000e+03 -9.999000000000000000e+03 -9.999000000000000000e+03 -9.999000000000000000e+03 -9.999000000000000000e+03
-9.999000000000000000e+03 -9.999000000000000000e+03 -9.999000000000000000e+03 -9.999000000000000000e+03 -9.999000000000000000e+03 -9.999000000000000000e+03 -9.999000000000000000e+03 -9.999000000000000000e+03 -9.999000000000000000e+03 4.089000869710930908e-01 4.170108230478816735e-01 4.363399078461671077e-01 4.567697304215967979e-01 -9.999000000000000000e+03 -9.999000000000000000e+03 -9.999000000000000000e+03 -9.999000000000000000e+03 -9.999000000000000000e+03 -9.999000000000000000e+03 -9.999000000000000000e+03 -9.999000000000000000e+03 -9.999000000000000000e+03 -9.999000000000000000e+03
-9.999000000000000000e+03 -9.999000000000000000e+03 -9.999000000000000000e+03 -9.999000000000000000e+03 -9.999000000000000000e+03 -9.999000000000000000e+03 -9.999000000000000000e+03 -9.999000000000000000e+03 -9.999000000000000000e+03 -9.999000000000000000e+03 -9.999000000000000000e+03 -9.999000000000000000e+03 -9.999000000000000000e+03 -9.999000000000000000e+03 -9.999000000000000000e+03 -9.999000000000000000e+03 -9.999000000000000000e+03 -9.999000000000000000e+03 -9.999000000000000000e+03 -9.999000000000000000e+03 -9.999000000000000000e+03 -9.999000000000000000e+03 -9.999000000000000000e+03
