ncols        23
nrows        17
xllcorner    5165373.967557672411
yllcorner    3907485.103055199608
cellsize     5000.000000000000
NODATA_value  -9999
-9.999000000000000000e+03 -9.999000000000000000e+03 -9.999000000000000000e+03 -9.999000000000000000e+03 -9.999000000000000000e+03 -9.999000000000000000e+03 -9.999000000000000000e+03 -9.999000000000000000e+03 -9.999000000000000000e+03 -9.999000000000000000e+03 -9.999000000000000000e+03 -9.999000000000000000e+03 -9.999000000000000000e+03 -9.999000000000000000e+03 -9.999000000000000000e+03 -9.999000000000000000e+03 -9.999000000000000000e+03 -9.999000000000000000e+03 -9.999000000000000000e+03 -9.999000000000000000e+03 -9.999000000000000000e+03 -9.999000000000000000e+03 -9.999000000000000000e+03
-9.999000000000000000e+03 -9.999000000000000000e+03 -9.999000000000000000e+03 -9.999000000000000000e+03 -9.999000000000000000e+03 -9.999000000000000000e+03 1.472279886422871220e+00 1.108422959099323535e+00 -9.999000000000000000e+03 -9.999000000000000000e+03 -9.999000000000000000e+03 1.515235669146122399e+00 1.217661578023687463e+00 1.370661419549698889e+00 -9.999000000000000000e+03 -9.999000000000000000e+03 -9.999000000000000000e+03 -9.999000000000000000e+03 -9.999000000000000000e+03 -9.999000000000000000e+03 -9.999000000000000000e+03 -9.999000000000000000e+03 -9.999000000000000000e+03
-9.999000000000000000e+03 -9.999000000000000000e+03 -9.999000000000000000e+03 -9.999000000000000000e+03 -9.999000000000000000e+03 -9.999000000000000000e+03 1.384275222826663265e+00 1.636185064611579199e+00 1.553362442762889151e+00 1.249901775762399803e+00 1.294465004195147539e+00 1.387133597310765021e+00 1.189105677767474001e+00 1.368681581998364205e+00 8.370493468204849297e-01 -9.999000000000000000e+03 -9.999000000000000000e+03 -9.999000000000000000e+03 -9.999000000000000000e+03 -9.999000000000000000e+03 -9.999000000000000000e+03 -9.999000000000000000e+03 -9.999000000000000000e+03
-9.999000000000000000e+03 -9.999000000000000000e+03 -9.999000000000000000e+03 -9.999000000000000000e+03 -9.999000000000000000e+03 -9.999000000000000000e+03 1.013456042004091895e+00 1.214525402361068984e+00 1.246776719863078364e+00 1.214363576844287307e+00 1.278540239787780530e+00 1.349128097761607803e+00 1.131670651423612339e+00 1.163171733229941385e+00 7.921877910315532345e-01 1.019734587271321269e+00 -9.999000000000000000e+03 -9.999000000000000000e+03 -9.999000000000000000e+03 -9.999000000000000000e+03 -9.999000000000000000e+03 -9.999000000000000000e+03 -9.999000000000000000e+03
-9.999000000000000000e+03 -9.999000000000000000e+03 -9.999000000000000000e+03 -9.999000000000000000e+03 -9.999000000000000000e+03 1.102866744427026147e+00 1.253775758192590128e+00 1.146134065427235171e+00 1.166489254734277337e+00 1.422714195125029946e+00 1.204762520186211994e+00 1.631941813088072513e+00 1.654602012145321099e+00 1.310317890414802733e+00 8.560558719507526115e-01 8.998243843397034647e-01 7.023012894337088419e-01 6.374294594572755823e-01 -9.999000000000000000e+03 -9.999000000000000000e+03 -9.999000000000000000e+03 -9.999000000000000000e+03 -9.999000000000000000e+03
-9.999000000000000000e+03 -9.999000000000000000e+03 -9.999000000000000000e+03 -9.999000000000000000e+03 1.144953369282753597e+00 1.545615319206236293e+00 1.565483930165588289e+00 1.213418449801608956e+00 1.022054135233303462e+00 1.212524168884918874e+00 1.313696194055780975e+00 1.696367033845393779e+00 1.802720993784708181e+00 1.961492679261453098e+00 1.284685832699729024e+00 1.200273684400825935e+00 1.300820223188701830e+00 8.307804006833605648e-01 1.175095686902529524e+00 -9.999000000000000000e+03 -9.999000000000000000e+03 -9.999000000000000000e+03 -9.999000000000000000e+03
-9.999000000000000000e+03 -9.999000000000000000e+03 1.205035006907342332e+00 9.934612394795725443e-01 1.323205705915344588e+00 1.291773785956483733e+00 1.166326686245637401e+00 1.051157129220042119e+00 1.324766847988495089e+00 1.411939938198469191e+00 1.183704499998407211e+00 1.577595201100104205e+00 1.780078675133022204e+00 1.439729622072101645e+00 1.304882248717790016e+00 1.177888516491632842e+00 1.000311553545594201e+00 1.429933057233605753e+00 1.288600189500724635e+00 1.283783995494964580e+00 1.414809343565043953e+00 1.354268959666675043e+00 -9.999000000000000000e+03
-9.999000000000000000e+03 1.031109158705209028e+00 8.695308025502795912e-01 1.180194720468966896e+00 1.149671777361691571e+00 1.222449142403667866e+00 1.569307851014769994e+00 1.296768506684465416e+00 1.921584602110680828e+00 1.987176021984665475e+00 1.748274717400612133e+00 9.675162361178604176e-01 8.510539718794264408e-01 1.158417842155636368e+00 1.057024664370200373e+00 8.750331732411783525e-01 1.039695966227286661e+00 1.517721300900114256e+00 1.022335072126330235e+00 9.283770706027165698e-01 9.409927607388749449e-01 7.631181083052043235e-01 -9.999000000000000000e+03
-9.999000000000000000e+03 1.005683544817880914e+00 1.067235923420533750e+00 1.023732516127744185e+00 1.136016229357395213e+00 9.938884064363316950e-01 1.231616947842075982e+00 1.125247389887677585e+00 2.136820274616674897e+00 1.841305060370205249e+00 1.134354248969836831e+00 1.258356760603835278e+00 9.931070912506220205e-01 1.342158367727871005e+00 1.168762275436782128e+00 1.163894741033905778e+00 1.194009165489879454e+00 1.283516476997248246e+00 9.115021031904487758e-01 5.048056724039770016e-01 5.501690661907555624e-01 -9.999000000000000000e+03 -9.999000000000000000e+03
-9.999000000000000000e+03 1.332297868629210846e+00 9.815131711490617805e-01 9.761512567059494883e-01 1.239675439358513431e+00 1.186505111792853340e+00 1.592910063079163718e+00 1.333462024955049507e+00 1.304866203093180355e+00 1.753524832177202786e+00 1.674288649903848736e+00 1.628892784303759056e+00 1.593505549618806860e+00 1.353401402635030282e+00 9.628080293197988082e-01 1.749439705739656681e+00 1.322300481258400939e+00 1.014170503065077389e+00 9.192008255113051085e-01 5.138713865458020003e-01 -9.999000000000000000e+03 -9.999000000000000000e+03 -9.999000000000000000e+03
-9.999000000000000000e+03 1.535985864122811462e+00 9.365568719372735496e-01 1.203073818765470149e+00 9.719734835063347234e-01 1.268434480946218246e+00 1.350005560974674168e+00 1.234707771526170728e+00 1.292927617502370730e+00 1.374315424084170401e+00 1.755825059035373892e+00 1.274193151273796731e+00 1.614680257400920249e+00 1.383929658881684510e+00 1.770537362631833034e+00 1.428871332347160683e+00 7.661840975447420377e-01 4.814551027201277589e-01 5.855299854117371749e-01 -9.999000000000000000e+03 -9.999000000000000000e+03 -9.999000000000000000e+03 -9.999000000000000000e+03
-9.999000000000000000e+03 1.690779419740276346e+00 1.051855360488682223e+00 1.040594855027503485e+00 1.395016185747667281e+00 1.448856603183543035e+00 1.223942153464685934e+00 1.357877213452152398e+00 1.194286037776729259e+00 1.164890240109066166e+00 1.175065844083137856e+00 1.897582293533317532e+00 1.645006969761832583e+00 1.287772679467998005e+00 -9.999000000000000000e+03 -9.999000000000000000e+03 -9.999000000000000000e+03 -9.999000000000000000e+03 -9.999000000000000000e+03 -9.999000000000000000e+03 -9.999000000000000000e+03 -9.999000000000000000e+03 -9.999000000000000000e+03
-9.999000000000000000e+03 1.839468266569769472e+00 -9.999000000000000000e+03 -9.999000000000000000e+03 -9.999000000000000000e+03 -9.999000000000000000e+03 -9.999000000000000000e+03 1.166344845114555717e+00 1.037590707246520472e+00 1.706304202921001822e+00 1.251693783130901405e+00 1.394787947633974845e+00 1.298706989945118462e+00 1.393606741442253494e+00 -9.999000000000000000e+03 -9.999000000000000000e+03 -9.999000000000000000e+03 -9.999000000000000000e+03 -9.999000000000000000e+03 -9.999000000000000000e+03 -9.999000000000000000e+03 -9.999000000000000000e+03 -9.999000000000000000e+03
-9.999000000000000000e+03 -9.999000000000000000e+03 -9.999000000000000000e+03 -9.999000000000000000e+03 -9.999000000000000000e+03 -9.999000000000000000e+03 -9.999000000000000000e+03 -9.999000000000000000e+03 1.141375359636639830e+00 1.063639312699811157e+00 1.669368761756824693e+00 1.113918890727836786e+00 1.947808659680943411e+00 -9.999000000000000000e+03 -9.999000000000000000e+03 -9.999000000000000000e+03 -9.999000000000000000e+03 -9.999000000000000000e+03 -9.999000000000000000e+03 -9.999000000000000000e+03 -9.999000000000000000e+03 -9.999000000000000000e+03 -9.999000000000000000e+03
-9.999000000000000000e+03 -9.999000000000000000e+03 -9.999000000000000000e+03 -9.999000000000000000e+03 -9.999000000000000000e+03 -9.999000000000000000e+03 -9.999000000000000000e+03 -9.999000000000000000e+03 1.364476995100946777e+00 1.617755781882023403e+00 1.134656533246975352e+00 1.272357202352633720e+00 1.828446071402637152e+00 -9.999000000000000000e+03 -9.999000000000000000e+03 -9.999000000000000000e+03 -9.999000000000000000e+03 -9.999000000000000000e+03 -9.999000000000000000e+03 -9.999000000000000000e+03 -9.999000000000000000e+03 -9.999000000000000000e+03 -9.999000000000000000e+03
-9.999000000000000000e+03 -9.999000000000000000e+03 -9.999000000000000000e+03 -9.999000000000000000e+03 -9.999000000000000000e+03 -9.999000000000000000e+03 -9.999000000000000000e+03 -9.999000000000000000e+03 -9.999000000000000000e+03 1.234236979823178926e+00 1.053916540103501776e+00 1.134725732006403698e+00 1.276394697231216124e+00 -9.999000000000000000e+03 -9.999000000000000000e+03 -9.999000000000000000e+03 -9.999000000000000000e+03 -9.999000000000000000e+03 -9.999000000000000000e+03 -9.999000000000000000e+03 -9.999000000000000000e+03 -9.999000000000000000e+03 -9.999000000000000000e+03
-9.999000000000000000e+03 -9.999000000000000000e+03 -9.999000000000000000e+03 -9.999000000000000000e+03 -9.999000000000000000e+03 -9.999000000000000000e+03 -9.999000000000000000e+03 -9.999000000000000000e+03 -9.999000000000000000e+03 -9.999000000000000000e+03 -9.999000000000000000e+03 -9.999000000000000000e+03 -9.999000000000000000e+03 -9.999000000000000000e+03 -9.999000000000000000e+03 -9.999000000000000000e+03 -9.999000000000000000e+03 -9.999000000000000000e+03 -9.999000000000000000e+03 -9.999000000000000000e+03 -9.999000000000000000e+03 -9.999000000000000000e+03 -9.999000000000000000e+03
