ncols        23
nrows        17
xllcorner    5165373.967557672411
yllcorner    3907485.103055199608
cellsize     5000.000000000000
NODATA_value  -9999
-9.999000000000000000e+03 -9.999000000000000000e+03 -9.999000000000000000e+03 -9.999000000000000000e+03 -9.999000000000000000e+03 -9.999000000000000000e+03 -9.999000000000000000e+03 -9.999000000000000000e+03 -9.999000000000000000e+03 -9.999000000000000000e+03 -9.999000000000000000e+03 -9.999000000000000000e+03 -9.999000000000000000e+03 -9.999000000000000000e+03 -9.999000000000000000e+03 -9.999000000000000000e+03 -9.999000000000000000e+03 -9.999000000000000000e+03 -9.999000000000000000e+03 -9.999000000000000000e+03 -9.999000000000000000e+03 -9.999000000000000000e+03 -9.999000000000000000e+03
-9.999000000000000000e+03 -9.999000000000000000e+03 -9.999000000000000000e+03 -9.999000000000000000e+03 -9.999000000000000000e+03 -9.999000000000000000e+03 6.640320399080579250e-01 8.915869917253863575e-01 -9.999000000000000000e+03 -9.999000000000000000e+03 -9.999000000000000000e+03 5.996974831429209285e-01 4.632281686926750797e-01 6.117663979243285199e-01 -9.999000000000000000e+03 -9.999000000000000000e+03 -9.999000000000000000e+03 -9.999000000000000000e+03 -9.999000000000000000e+03 -9.999000000000000000e+03 -9.999000000000000000e+03 -9.999000000000000000e+03 -9.999000000000000000e+03
-9.999000000000000000e+03 -9.999000000000000000e+03 -9.999000000000000000e+03 -9.999000000000000000e+03 -9.999000000000000000e+03 -9.999000000000000000e+03 6.449700786075648340e-01 8.849596997183286629e-01 8.668071343973006160e-01 8.242638488167499666e-01 7.890333172929359096e-01 4.570656298047714450e-01 6.648036333355032967e-01 8.133162110089166008e-01 9.576557071624748341e-01 -9.999000000000000000e+03 -9.999000000000000000e+03 -9.999000000000000000e+03 -9.999000000000000000e+03 -9.999000000000000000e+03 -9.999000000000000000e+03 -9.999000000000000000e+03 -9.999000000000000000e+03
-9.999000000000000000e+03 -9.999000000000000000e+03 -9.999000000000000000e+03 -9.999000000000000000e+03 -9.999000000000000000e+03 -9.999000000000000000e+03 1.118266826825446980e+00 1.059251640661372340e+00 5.864628221376401163e-01 6.513060482966529507e-01 6.014320823416187123e-01 4.610357817580932327e-01 6.890841573626141914e-01 8.072529664489717094e-01 9.194008741622017311e-01 8.653461528933240610e-01 -9.999000000000000000e+03 -9.999000000000000000e+03 -9.999000000000000000e+03 -9.999000000000000000e+03 -9.999000000000000000e+03 -9.999000000000000000e+03 -9.999000000000000000e+03
-9.999000000000000000e+03 -9.999000000000000000e+03 -9.999000000000000000e+03 -9.999000000000000000e+03 -9.999000000000000000e+03 8.376970839137789504e-01 8.642754075094695176e-01 8.067578695777400943e-01 5.417727426868620411e-01 4.503316466726879352e-01 5.362664948119892916e-01 3.677683130373884390e-01 3.662470273309044178e-01 3.612151454519116900e-01 6.921876309885980350e-01 8.373573755604765134e-01 7.820006655536115847e-01 8.422918706594896276e-01 -9.999000000000000000e+03 -9.999000000000000000e+03 -9.999000000000000000e+03 -9.999000000000000000e+03 -9.999000000000000000e+03
-9.999000000000000000e+03 -9.999000000000000000e+03 -9.999000000000000000e+03 -9.999000000000000000e+03 1.103977360950449516e+00 1.251977672193812063e+00 8.222710322443594899e-01 8.107982908259731003e-01 7.219381134312776727e-01 5.202155661702050349e-01 5.479009382360663372e-01 4.522161551445380567e-01 2.895467883260843256e-01 2.754129499149214344e-01 4.811293440976835423e-01 4.486505790198234700e-01 3.954190214379480484e-01 7.598369356110300510e-01 8.397383692279669631e-01 -9.999000000000000000e+03 -9.999000000000000000e+03 -9.999000000000000000e+03 -9.999000000000000000e+03
-9.999000000000000000e+03 -9.999000000000000000e+03 9.346861014434239001e-01 9.910972044078936172e-01 1.030632751763353561e+00 1.040461328578243361e+00 1.199781418856268544e+00 7.430321551857325124e-01 6.363392271467968042e-01 5.871832982272535695e-01 6.960559512409335570e-01 4.395122664334132345e-01 2.823980084832081183e-01 5.171641599378414833e-01 5.369567235734817867e-01 5.799483682182117184e-01 6.296298985918872271e-01 3.904778840256302175e-01 3.579355623222967298e-01 4.224081715766654921e-01 6.368090567546260683e-01 6.382210115091291325e-01 -9.999000000000000000e+03
-9.999000000000000000e+03 8.680419669592150944e-01 1.051329046569727144e+00 9.752095450260352960e-01 1.007547975091795722e+00 9.749036228103306057e-01 9.600160888335543818e-01 6.335117181152297716e-01 3.408476380436759601e-01 3.981105722510736022e-01 4.939378316122947088e-01 8.840741542924298590e-01 8.661489311830211646e-01 8.817622473089209434e-01 8.390810956603759196e-01 5.380871518919587704e-01 5.786875891934245564e-01 4.194012442152511011e-01 9.198196695919342858e-01 7.724152847393352950e-01 7.166797806782323477e-01 7.677729817400956724e-01 -9.999000000000000000e+03
-9.999000000000000000e+03 8.427313003091135846e-01 7.003327970466176611e-01 9.808306239046240549e-01 9.327110830720662937e-01 1.036982715927851073e+00 6.424273284838265541e-01 8.155275741417020718e-01 3.553038239696068579e-01 4.113495863290775878e-01 6.298326996932485100e-01 7.424681951549717551e-01 1.098043185791866438e+00 6.273014908825027547e-01 4.915517490313165982e-01 3.906610254202214638e-01 6.058978810577653196e-01 7.638943254094020530e-01 9.919075109359350995e-01 9.123448349293701298e-01 6.878953797978610840e-01 -9.999000000000000000e+03 -9.999000000000000000e+03
-9.999000000000000000e+03 8.285702492678252984e-01 8.486565107586094836e-01 1.161482126263726489e+00 1.071420742762415612e+00 7.729231139845373910e-01 5.219185430692602212e-01 5.310344648502739462e-01 4.875014765456330834e-01 5.036296041638913534e-01 3.996910072519291313e-01 5.256412484334452850e-01 3.203248751646132209e-01 5.226311537444017219e-01 5.457599127178773823e-01 3.868591733092362484e-01 6.975689725096781979e-01 8.748224686107451964e-01 8.857836998360242298e-01 8.106266656682120653e-01 -9.999000000000000000e+03 -9.999000000000000000e+03 -9.999000000000000000e+03
-9.999000000000000000e+03 6.076228390682323344e-01 8.010705599885649120e-01 5.990162055832821686e-01 1.013766589780820793e+00 6.757104778368802078e-01 7.001751999251069059e-01 5.321838893844181850e-01 5.630298323348685852e-01 5.444396447105955827e-01 4.891871978840149904e-01 5.368750324833539977e-01 3.647446741930714387e-01 5.203212601457821718e-01 4.091085966069757940e-01 4.290266435156124269e-01 4.682629303123984066e-01 8.739916546963918398e-01 6.833075662145540186e-01 -9.999000000000000000e+03 -9.999000000000000000e+03 -9.999000000000000000e+03 -9.999000000000000000e+03
-9.999000000000000000e+03 5.531923560240353810e-01 7.974643445096926131e-01 8.154909215938856981e-01 5.782893632853627341e-01 4.648895122942222069e-01 6.255235410985350297e-01 6.787138705575179731e-01 8.120573259294312507e-01 7.405124272391420126e-01 6.805497111034394253e-01 2.751166475442619053e-01 3.984554152363056767e-01 4.088872524121241470e-01 -9.999000000000000000e+03 -9.999000000000000000e+03 -9.999000000000000000e+03 -9.999000000000000000e+03 -9.999000000000000000e+03 -9.999000000000000000e+03 -9.999000000000000000e+03 -9.999000000000000000e+03 -9.999000000000000000e+03
-9.999000000000000000e+03 5.531326072125233306e-01 -9.999000000000000000e+03 -9.999000000000000000e+03 -9.999000000000000000e+03 -9.999000000000000000e+03 -9.999000000000000000e+03 5.958464274287765816e-01 7.783805441390481139e-01 7.546422994619359503e-01 6.544908036633556581e-01 7.901433618741068310e-01 6.411031100465702792e-01 5.648401039219161923e-01 -9.999000000000000000e+03 -9.999000000000000000e+03 -9.999000000000000000e+03 -9.999000000000000000e+03 -9.999000000000000000e+03 -9.999000000000000000e+03 -9.999000000000000000e+03 -9.999000000000000000e+03 -9.999000000000000000e+03
-9.999000000000000000e+03 -9.999000000000000000e+03 -9.999000000000000000e+03 -9.999000000000000000e+03 -9.999000000000000000e+03 -9.999000000000000000e+03 -9.999000000000000000e+03 -9.999000000000000000e+03 7.387004910999558360e-01 7.778170768629271148e-01 5.992811599938197009e-01 7.691663974697064976e-01 5.085985864369281240e-01 -9.999000000000000000e+03 -9.999000000000000000e+03 -9.999000000000000000e+03 -9.999000000000000000e+03 -9.999000000000000000e+03 -9.999000000000000000e+03 -9.999000000000000000e+03 -9.999000000000000000e+03 -9.999000000000000000e+03 -9.999000000000000000e+03
-9.999000000000000000e+03 -9.999000000000000000e+03 -9.999000000000000000e+03 -9.999000000000000000e+03 -9.999000000000000000e+03 -9.999000000000000000e+03 -9.999000000000000000e+03 -9.999000000000000000e+03 5.874784129183813208e-01 6.180000675731319726e-01 7.098910724087402757e-01 6.502619128991482533e-01 2.849684114631919063e-01 -9.999000000000000000e+03 -9.999000000000000000e+03 -9.999000000000000000e+03 -9.999000000000000000e+03 -9.999000000000000000e+03 -9.999000000000000000e+03 -9.999000000000000000e+03 -9.999000000000000000e+03 -9.999000000000000000e+03 -9.999000000000000000e+03
-9.999000000000000000e+03 -9.999000000000000000e+03 -9.999000000000000000e+03 -9.999000000000000000e+03 -9.999000000000000000e+03 -9.999000000000000000e+03 -9.999000000000000000e+03 -9.999000000000000000e+03 -9.999000000000000000e+03 9.565030022938956211e-01 9.471602098943107118e-01 9.369116326305954034e-01 4.658209837327770275e-01 -9.999000000000000000e+03 -9.999000000000000000e+03 -9.999000000000000000e+03 -9.999000000000000000e+03 -9.999000000000000000e+03 -9.999000000000000000e+03 -9.999000000000000000e+03 -9.999000000000000000e+03 -9.999000000000000000e+03 -9.999000000000000000e+03
-9.999000000000000000e+03 -9.999000000000000000e+03 -9.999000000000000000e+03 -9.999000000000000000e+03 -9.999000000000000000e+03 -9.999000000000000000e+03 -9.999000000000000000e+03 -9.999000000000000000e+03 -9.999000000000000000e+03 -9.999000000000000000e+03 -9.999000000000000000e+03 -9.999000000000000000e+03 -9.999000000000000000e+03 -9.999000000000000000e+03 -9.999000000000000000e+03 -9.999000000000000000e+03 -9.999000000000000000e+03 -9.999000000000000000e+03 -9.999000000000000000e+03 -9.999000000000000000e+03 -9.999000000000000000e+03 -9.999000000000000000e+03 -9.999000000000000000e+03
