ncols        23
nrows        17
xllcorner    5165373.967557672411
yllcorner    3907485.103055199608
cellsize     5000.000000000000
NODATA_value  -9999
-9.999000000000000000e+03 -9.999000000000000000e+03 -9.999000000000000000e+03 -9.999000000000000000e+03 -9.999000000000000000e+03 -9.999000000000000000e+03 -9.999000000000000000e+03 -9.999000000000000000e+03 -9.999000000000000000e+03 -9.999000000000000000e+03 -9.999000000000000000e+03 -9.999000000000000000e+03 -9.999000000000000000e+03 -9.999000000000000000e+03 -9.999000000000000000e+03 -9.999000000000000000e+03 -9.999000000000000000e+03 -9.999000000000000000e+03 -9.999000000000000000e+03 -9.999000000000000000e+03 -9.999000000000000000e+03 -9.999000000000000000e+03 -9.999000000000000000e+03
-9.999000000000000000e+03 -9.999000000000000000e+03 -9.999000000000000000e+03 -9.999000000000000000e+03 -9.999000000000000000e+03 -9.999000000000000000e+03 1.162456597586232765e-01 1.545889386044789204e-01 -9.999000000000000000e+03 -9.999000000000000000e+03 -9.999000000000000000e+03 1.074502871448544811e-01 8.642781588068453036e-02 1.174551106567216646e-01 -9.999000000000000000e+03 -9.999000000000000000e+03 -9.999000000000000000e+03 -9.999000000000000000e+03 -9.999000000000000000e+03 -9.999000000000000000e+03 -9.999000000000000000e+03 -9.999000000000000000e+03 -9.999000000000000000e+03
-9.999000000000000000e+03 -9.999000000000000000e+03 -9.999000000000000000e+03 -9.999000000000000000e+03 -9.999000000000000000e+03 -9.999000000000000000e+03 1.224584028878649283e-01 1.529264928996554584e-01 1.438023815941697758e-01 1.400613347472420278e-01 1.357889131364605206e-01 8.322285913948074265e-02 1.196785945025850006e-01 1.522829090738995195e-01 1.818385462495247795e-01 -9.999000000000000000e+03 -9.999000000000000000e+03 -9.999000000000000000e+03 -9.999000000000000000e+03 -9.999000000000000000e+03 -9.999000000000000000e+03 -9.999000000000000000e+03 -9.999000000000000000e+03
-9.999000000000000000e+03 -9.999000000000000000e+03 -9.999000000000000000e+03 -9.999000000000000000e+03 -9.999000000000000000e+03 -9.999000000000000000e+03 2.105384743346268017e-01 1.884211482779280522e-01 1.061737168791038882e-01 1.149871459895355219e-01 1.041375635467734206e-01 8.200426393244303336e-02 1.131460246476928833e-01 1.391844343165413167e-01 1.601481439901084602e-01 1.478391151745608867e-01 -9.999000000000000000e+03 -9.999000000000000000e+03 -9.999000000000000000e+03 -9.999000000000000000e+03 -9.999000000000000000e+03 -9.999000000000000000e+03 -9.999000000000000000e+03
-9.999000000000000000e+03 -9.999000000000000000e+03 -9.999000000000000000e+03 -9.999000000000000000e+03 -9.999000000000000000e+03 1.681826349592026315e-01 1.786796620168539240e-01 1.567238924706023662e-01 1.032432266714776586e-01 8.105644373480232201e-02 9.375475862887461265e-02 6.924604228135387840e-02 6.602541315178898917e-02 6.217870549519010498e-02 1.154362520253485042e-01 1.418819012739105656e-01 1.385654986078266870e-01 1.501222245189055560e-01 -9.999000000000000000e+03 -9.999000000000000000e+03 -9.999000000000000000e+03 -9.999000000000000000e+03 -9.999000000000000000e+03
-9.999000000000000000e+03 -9.999000000000000000e+03 -9.999000000000000000e+03 -9.999000000000000000e+03 2.300809909816210197e-01 2.477378516520827856e-01 1.659262480986706256e-01 1.477094728272597135e-01 1.267819761016728553e-01 9.540820599980757988e-02 1.033297526458486215e-01 9.455902322434753260e-02 5.835352054221013690e-02 5.114366179777511678e-02 8.374113561876715683e-02 8.021637405837653279e-02 7.156439178227182174e-02 1.327321958437206462e-01 1.508756831511632590e-01 -9.999000000000000000e+03 -9.999000000000000000e+03 -9.999000000000000000e+03 -9.999000000000000000e+03
-9.999000000000000000e+03 -9.999000000000000000e+03 1.945589200505895289e-01 1.991683506858778485e-01 1.968644082284227714e-01 1.892370891312126491e-01 2.127541337140539113e-01 1.285580025761355605e-01 1.157228556709709033e-01 1.103329749877264426e-01 1.252806869022517477e-01 8.097047625264609805e-02 5.424653007198087379e-02 9.683813492454342031e-02 1.015842405590032943e-01 1.079172507348923060e-01 1.134664307404715106e-01 7.025862416527504928e-02 6.880680007280282062e-02 9.585753965573136359e-02 1.566778533323572586e-01 1.475462779260288404e-01 -9.999000000000000000e+03
-9.999000000000000000e+03 2.216535069119111578e-01 2.165815790154580478e-01 2.006748883266570860e-01 1.959119466761096995e-01 1.761039627158907661e-01 1.723536146574495553e-01 1.123967999776082916e-01 6.602933025008914103e-02 8.066287645986165711e-02 9.308158147124151460e-02 1.547626446893713703e-01 1.604824005590979041e-01 1.637824484953674387e-01 1.639079675318435292e-01 1.025633959253030580e-01 1.035255261605257798e-01 7.565031768386411282e-02 1.738135801426164695e-01 1.544404526850573778e-01 1.535364429934915065e-01 1.768492173664897027e-01 -9.999000000000000000e+03
-9.999000000000000000e+03 2.268728692274492587e-01 1.478509773655479198e-01 1.967232987334242289e-01 1.773362370931824694e-01 1.798460655088363891e-01 1.051673920370762016e-01 1.340307357634850371e-01 6.380426055656693296e-02 8.553548183378201220e-02 1.326414081472294948e-01 1.460655250861972454e-01 2.268418005344870203e-01 1.227911955013070988e-01 9.402312576719527859e-02 7.218115685497734912e-02 1.129295786719475003e-01 1.513848432106226771e-01 1.846193844509164128e-01 1.708990566881249951e-01 1.356415993273836496e-01 -9.999000000000000000e+03 -9.999000000000000000e+03
-9.999000000000000000e+03 2.315248444372444425e-01 1.831227098559118083e-01 2.342475583226595326e-01 1.967057499264616982e-01 1.318264662820579913e-01 8.858589132717288595e-02 8.957222810794880641e-02 8.349884873131874219e-02 9.288021811475775935e-02 8.282185377877746002e-02 1.035033499228939086e-01 6.419288241198656264e-02 1.008014133119856937e-01 1.016523870979536143e-01 7.235248914666866926e-02 1.414800357245478979e-01 1.849302459818579214e-01 1.719805271701754235e-01 1.585514419976399858e-01 -9.999000000000000000e+03 -9.999000000000000000e+03 -9.999000000000000000e+03
-9.999000000000000000e+03 1.790887526910805716e-01 1.813433612047513910e-01 1.245960591373400095e-01 1.844531377374339920e-01 1.122359843263329021e-01 1.152694379879203729e-01 9.068577785745286779e-02 9.926627326892516201e-02 9.749110898457472030e-02 8.844021345108382670e-02 9.828540124951473667e-02 6.981505122319023315e-02 9.906537316239820423e-02 7.747506625365749300e-02 7.995970815531922016e-02 8.570194238646802742e-02 1.540304906556566877e-01 1.242024895630318149e-01 -9.999000000000000000e+03 -9.999000000000000000e+03 -9.999000000000000000e+03 -9.999000000000000000e+03
-9.999000000000000000e+03 1.981792494114159309e-01 1.943649436950257436e-01 1.666480421746848462e-01 1.157495382052447092e-01 8.589181728018326079e-02 1.070416317880357737e-01 1.179056594646533812e-01 1.450163401544323494e-01 1.275136497007730019e-01 1.166862510345081372e-01 5.183160225249357211e-02 7.825477420105390880e-02 7.967863656756257740e-02 -9.999000000000000000e+03 -9.999000000000000000e+03 -9.999000000000000000e+03 -9.999000000000000000e+03 -9.999000000000000000e+03 -9.999000000000000000e+03 -9.999000000000000000e+03 -9.999000000000000000e+03 -9.999000000000000000e+03
-9.999000000000000000e+03 2.274611136929110267e-01 -9.999000000000000000e+03 -9.999000000000000000e+03 -9.999000000000000000e+03 -9.999000000000000000e+03 -9.999000000000000000e+03 9.989711681147898925e-02 1.381497067296640902e-01 1.328661754649914095e-01 1.165682646326577226e-01 1.532708253419092226e-01 1.282155340912945196e-01 1.238393075906362301e-01 -9.999000000000000000e+03 -9.999000000000000000e+03 -9.999000000000000000e+03 -9.999000000000000000e+03 -9.999000000000000000e+03 -9.999000000000000000e+03 -9.999000000000000000e+03 -9.999000000000000000e+03 -9.999000000000000000e+03
-9.999000000000000000e+03 -9.999000000000000000e+03 -9.999000000000000000e+03 -9.999000000000000000e+03 -9.999000000000000000e+03 -9.999000000000000000e+03 -9.999000000000000000e+03 -9.999000000000000000e+03 1.317133322656655892e-01 1.330044024844277695e-01 1.088832652051663213e-01 1.504227927513799301e-01 1.130308120170617908e-01 -9.999000000000000000e+03 -9.999000000000000000e+03 -9.999000000000000000e+03 -9.999000000000000000e+03 -9.999000000000000000e+03 -9.999000000000000000e+03 -9.999000000000000000e+03 -9.999000000000000000e+03 -9.999000000000000000e+03 -9.999000000000000000e+03
-9.999000000000000000e+03 -9.999000000000000000e+03 -9.999000000000000000e+03 -9.999000000000000000e+03 -9.999000000000000000e+03 -9.999000000000000000e+03 -9.999000000000000000e+03 -9.999000000000000000e+03 1.066244099416553542e-01 1.119679229474030840e-01 1.307931782807101873e-01 1.280870649123273253e-01 6.283653971027611251e-02 -9.999000000000000000e+03 -9.999000000000000000e+03 -9.999000000000000000e+03 -9.999000000000000000e+03 -9.999000000000000000e+03 -9.999000000000000000e+03 -9.999000000000000000e+03 -9.999000000000000000e+03 -9.999000000000000000e+03 -9.999000000000000000e+03
-9.999000000000000000e+03 -9.999000000000000000e+03 -9.999000000000000000e+03 -9.999000000000000000e+03 -9.999000000000000000e+03 -9.999000000000000000e+03 -9.999000000000000000e+03 -9.999000000000000000e+03 -9.999000000000000000e+03 1.781273580976644177e-01 1.692481654484364328e-01 1.682924826451202005e-01 8.994936348457788222e-02 -9.999000000000000000e+03 -9.999000000000000000e+03 -9.999000000000000000e+03 -9.999000000000000000e+03 -9.999000000000000000e+03 -9.999000000000000000e+03 -9.999000000000000000e+03 -9.999000000000000000e+03 -9.999000000000000000e+03 -9.999000000000000000e+03
-9.999000000000000000e+03 -9.999000000000000000e+03 -9.999000000000000000e+03 -9.999000000000000000e+03 -9.999000000000000000e+03 -9.999000000000000000e+03 -9.999000000000000000e+03 -9.999000000000000000e+03 -9.999000000000000000e+03 -9.999000000000000000e+03 -9.999000000000000000e+03 -9.999000000000000000e+03 -9.999000000000000000e+03 -9.999000000000000000e+03 -9.999000000000000000e+03 -9.999000000000000000e+03 -9.999000000000000000e+03 -9.999000000000000000e+03 -9.999000000000000000e+03 -9.999000000000000000e+03 -9.999000000000000000e+03 -9.999000000000000000e+03 -9.999000000000000000e+03
