ncols        23
nrows        17
xllcorner    5165373.967557672411
yllcorner    3907485.103055199608
cellsize     5000.000000000000
NODATA_value  -9999
-9.999000000000000000e+03 -9.999000000000000000e+03 -9.999000000000000000e+03 -9.999000000000000000e+03 -9.999000000000000000e+03 -9.999000000000000000e+03 -9.999000000000000000e+03 -9.999000000000000000e+03 -9.999000000000000000e+03 -9.999000000000000000e+03 -9.999000000000000000e+03 -9.999000000000000000e+03 -9.999000000000000000e+03 -9.999000000000000000e+03 -9.999000000000000000e+03 -9.999000000000000000e+03 -9.999000000000000000e+03 -9.999000000000000000e+03 -9.999000000000000000e+03 -9.999000000000000000e+03 -9.999000000000000000e+03 -9.999000000000000000e+03 -9.999000000000000000e+03
-9.999000000000000000e+03 -9.999000000000000000e+03 -9.999000000000000000e+03 -9.999000000000000000e+03 -9.999000000000000000e+03 -9.999000000000000000e+03 9.956008531400722950e-01 1.342029264848322967e+00 -9.999000000000000000e+03 -9.999000000000000000e+03 -9.999000000000000000e+03 8.840488301802355009e-01 7.051076654078273220e-01 9.654603540232364889e-01 -9.999000000000000000e+03 -9.999000000000000000e+03 -9.999000000000000000e+03 -9.999000000000000000e+03 -9.999000000000000000e+03 -9.999000000000000000e+03 -9.999000000000000000e+03 -9.999000000000000000e+03 -9.999000000000000000e+03
-9.999000000000000000e+03 -9.999000000000000000e+03 -9.999000000000000000e+03 -9.999000000000000000e+03 -9.999000000000000000e+03 -9.999000000000000000e+03 1.021556165090703239e+00 1.350773480922647485e+00 1.275987954704243865e+00 1.211073174286736664e+00 1.143134243562456742e+00 6.527691960239329072e-01 9.731037904089896440e-01 1.272506041647603059e+00 1.538739636892134888e+00 -9.999000000000000000e+03 -9.999000000000000000e+03 -9.999000000000000000e+03 -9.999000000000000000e+03 -9.999000000000000000e+03 -9.999000000000000000e+03 -9.999000000000000000e+03 -9.999000000000000000e+03
-9.999000000000000000e+03 -9.999000000000000000e+03 -9.999000000000000000e+03 -9.999000000000000000e+03 -9.999000000000000000e+03 -9.999000000000000000e+03 1.789717390827217036e+00 1.604475703452336921e+00 8.792442151112621618e-01 9.790135433746137705e-01 8.564943870785336477e-01 6.433863708927181069e-01 9.906804811941263278e-01 1.201514253745574967e+00 1.385238952527860334e+00 1.313362984888219342e+00 -9.999000000000000000e+03 -9.999000000000000000e+03 -9.999000000000000000e+03 -9.999000000000000000e+03 -9.999000000000000000e+03 -9.999000000000000000e+03 -9.999000000000000000e+03
-9.999000000000000000e+03 -9.999000000000000000e+03 -9.999000000000000000e+03 -9.999000000000000000e+03 -9.999000000000000000e+03 1.327741273933531030e+00 1.359719908629546836e+00 1.250095387316381146e+00 8.493266420642687775e-01 6.782009893342767493e-01 7.671199627981397651e-01 5.381931952085867721e-01 5.324220695994331676e-01 5.295670342522506013e-01 1.008209113678503410e+00 1.253758385019457133e+00 1.163964328672975723e+00 1.249372460634312842e+00 -9.999000000000000000e+03 -9.999000000000000000e+03 -9.999000000000000000e+03 -9.999000000000000000e+03 -9.999000000000000000e+03
-9.999000000000000000e+03 -9.999000000000000000e+03 -9.999000000000000000e+03 -9.999000000000000000e+03 1.708120043648600594e+00 1.922522911424957792e+00 1.252352517124259323e+00 1.214218572255655326e+00 1.081405802288542439e+00 7.827524259880318525e-01 8.218703072678007482e-01 6.965975519578053721e-01 4.411862178498882070e-01 4.085709914926146658e-01 7.116040374501544363e-01 6.801808512414413421e-01 5.879495441276347822e-01 1.098178956383814020e+00 1.228328941966519094e+00 -9.999000000000000000e+03 -9.999000000000000000e+03 -9.999000000000000000e+03 -9.999000000000000000e+03
-9.999000000000000000e+03 -9.999000000000000000e+03 1.536516599373886294e+00 1.553264244047962483e+00 1.577737694619187669e+00 1.581320028552832824e+00 1.818737965755441444e+00 1.120446366114263181e+00 9.861951926332893636e-01 9.073099389905050494e-01 1.033627151379630238e+00 6.451163120809332296e-01 4.173903520408266954e-01 7.803365999542323239e-01 8.341508395284822353e-01 9.048788026165962561e-01 9.334653357714476352e-01 5.733339604845076876e-01 5.381196568373139977e-01 6.449164037004817551e-01 9.641788214897328846e-01 9.363579962831298786e-01 -9.999000000000000000e+03
-9.999000000000000000e+03 1.640346226524715734e+00 1.782096596360370544e+00 1.562129648519053449e+00 1.572657208399780071e+00 1.485101786761526377e+00 1.448338784937701185e+00 9.578162085048358421e-01 5.226223399865455033e-01 6.137259110393430417e-01 7.430519266508006648e-01 1.296002465795528469e+00 1.301420831818325574e+00 1.364748797424578441e+00 1.336502121741821147e+00 8.483083343340892535e-01 8.731503177293038487e-01 6.313602383815027919e-01 1.394033377873861612e+00 1.184258643629932939e+00 1.072458898758391621e+00 1.105707326700881898e+00 -9.999000000000000000e+03
-9.999000000000000000e+03 1.622948966789749869e+00 1.187813062764836447e+00 1.547899875383176083e+00 1.427020991473060496e+00 1.558776422548703300e+00 9.505340447320115294e-01 1.229419122412687360e+00 5.345689353052666126e-01 6.418780285887815129e-01 9.996568535806987787e-01 1.147527645022567544e+00 1.730600847880060300e+00 9.804888836136769203e-01 7.844852400903260525e-01 6.154000300905603238e-01 9.367561171469890313e-01 1.199518413152106611e+00 1.526927239819609428e+00 1.385967880457003698e+00 1.030441326370539201e+00 -9.999000000000000000e+03 -9.999000000000000000e+03
-9.999000000000000000e+03 1.636231522255931603e+00 1.454166927431709277e+00 1.894625674582461006e+00 1.673322851688674673e+00 1.181604133472339946e+00 7.988780428617996421e-01 8.290025745662860102e-01 7.401940788991840936e-01 7.691643062628379379e-01 6.351392822616096501e-01 8.162118908939841599e-01 5.002822690913728554e-01 8.197088671803045568e-01 8.674161637320040308e-01 6.109860551642620763e-01 1.109755388915467655e+00 1.403298974520826414e+00 1.376138163483131560e+00 1.256511107382670023e+00 -9.999000000000000000e+03 -9.999000000000000000e+03 -9.999000000000000000e+03
-9.999000000000000000e+03 1.229452327481153073e+00 1.409593547734979913e+00 9.813900476341518297e-01 1.574723454330955619e+00 1.037727844271310040e+00 1.070736499464719049e+00 8.231637064921454305e-01 8.707300248497440442e-01 8.368073157599531520e-01 7.431455671720146317e-01 8.164588599275127700e-01 5.539124177844465535e-01 8.044716596937732112e-01 6.367437215519097249e-01 6.752531193201686266e-01 7.290415148027267200e-01 1.360872236489566234e+00 1.073513276835447172e+00 -9.999000000000000000e+03 -9.999000000000000000e+03 -9.999000000000000000e+03 -9.999000000000000000e+03
-9.999000000000000000e+03 1.214499027989853097e+00 1.498057464968575836e+00 1.350357034377075660e+00 9.064271391108550402e-01 7.177898469364708545e-01 9.593391486490252529e-01 1.043704583086380699e+00 1.245897221894421314e+00 1.106973869320658110e+00 9.999840116229354869e-01 4.202167285473111802e-01 6.263642551676024128e-01 6.494862960935066099e-01 -9.999000000000000000e+03 -9.999000000000000000e+03 -9.999000000000000000e+03 -9.999000000000000000e+03 -9.999000000000000000e+03 -9.999000000000000000e+03 -9.999000000000000000e+03 -9.999000000000000000e+03 -9.999000000000000000e+03
-9.999000000000000000e+03 1.255725742203383399e+00 -9.999000000000000000e+03 -9.999000000000000000e+03 -9.999000000000000000e+03 -9.999000000000000000e+03 -9.999000000000000000e+03 9.050088037749769443e-01 1.192447890319112469e+00 1.147341348933430316e+00 1.001406871067956228e+00 1.242313556268253238e+00 1.040106694370342311e+00 9.422863257665063941e-01 -9.999000000000000000e+03 -9.999000000000000000e+03 -9.999000000000000000e+03 -9.999000000000000000e+03 -9.999000000000000000e+03 -9.999000000000000000e+03 -9.999000000000000000e+03 -9.999000000000000000e+03 -9.999000000000000000e+03
-9.999000000000000000e+03 -9.999000000000000000e+03 -9.999000000000000000e+03 -9.999000000000000000e+03 -9.999000000000000000e+03 -9.999000000000000000e+03 -9.999000000000000000e+03 -9.999000000000000000e+03 1.144939717689683389e+00 1.199099311132353574e+00 9.275715546955148882e-01 1.210420330676280187e+00 8.400365347926267434e-01 -9.999000000000000000e+03 -9.999000000000000000e+03 -9.999000000000000000e+03 -9.999000000000000000e+03 -9.999000000000000000e+03 -9.999000000000000000e+03 -9.999000000000000000e+03 -9.999000000000000000e+03 -9.999000000000000000e+03 -9.999000000000000000e+03
-9.999000000000000000e+03 -9.999000000000000000e+03 -9.999000000000000000e+03 -9.999000000000000000e+03 -9.999000000000000000e+03 -9.999000000000000000e+03 -9.999000000000000000e+03 -9.999000000000000000e+03 9.047536696636870879e-01 9.598066545576973141e-01 1.094532386664890611e+00 1.008692487225704593e+00 4.647203303279933695e-01 -9.999000000000000000e+03 -9.999000000000000000e+03 -9.999000000000000000e+03 -9.999000000000000000e+03 -9.999000000000000000e+03 -9.999000000000000000e+03 -9.999000000000000000e+03 -9.999000000000000000e+03 -9.999000000000000000e+03 -9.999000000000000000e+03
-9.999000000000000000e+03 -9.999000000000000000e+03 -9.999000000000000000e+03 -9.999000000000000000e+03 -9.999000000000000000e+03 -9.999000000000000000e+03 -9.999000000000000000e+03 -9.999000000000000000e+03 -9.999000000000000000e+03 1.525667466040150577e+00 1.469384924638042822e+00 1.446944328662400858e+00 7.215686453975802550e-01 -9.999000000000000000e+03 -9.999000000000000000e+03 -9.999000000000000000e+03 -9.999000000000000000e+03 -9.999000000000000000e+03 -9.999000000000000000e+03 -9.999000000000000000e+03 -9.999000000000000000e+03 -9.999000000000000000e+03 -9.999000000000000000e+03
-9.999000000000000000e+03 -9.999000000000000000e+03 -9.999000000000000000e+03 -9.999000000000000000e+03 -9.999000000000000000e+03 -9.999000000000000000e+03 -9.999000000000000000e+03 -9.999000000000000000e+03 -9.999000000000000000e+03 -9.999000000000000000e+03 -9.999000000000000000e+03 -9.999000000000000000e+03 -9.999000000000000000e+03 -9.999000000000000000e+03 -9.999000000000000000e+03 -9.999000000000000000e+03 -9.999000000000000000e+03 -9.999000000000000000e+03 -9.999000000000000000e+03 -9.999000000000000000e+03 -9.999000000000000000e+03 -9.999000000000000000e+03 -9.999000000000000000e+03
