ncols        23
nrows        17
xllcorner    5165373.967557672411
yllcorner    3907485.103055199608
cellsize     5000.000000000000
NODATA_value  -9999
-9.999000000000000000e+03 -9.999000000000000000e+03 -9.999000000000000000e+03 -9.999000000000000000e+03 -9.999000000000000000e+03 -9.999000000000000000e+03 -9.999000000000000000e+03 -9.999000000000000000e+03 -9.999000000000000000e+03 -9.999000000000000000e+03 -9.999000000000000000e+03 -9.999000000000000000e+03 -9.999000000000000000e+03 -9.999000000000000000e+03 -9.999000000000000000e+03 -9.999000000000000000e+03 -9.999000000000000000e+03 -9.999000000000000000e+03 -9.999000000000000000e+03 -9.999000000000000000e+03 -9.999000000000000000e+03 -9.999000000000000000e+03 -9.999000000000000000e+03
-9.999000000000000000e+03 -9.999000000000000000e+03 -9.999000000000000000e+03 -9.999000000000000000e+03 -9.999000000000000000e+03 -9.999000000000000000e+03 6.241573033707865231e-02 6.322033898305084998e-02 -9.999000000000000000e+03 -9.999000000000000000e+03 -9.999000000000000000e+03 5.854748603351955100e-02 5.653631284916200983e-02 5.408839779005524678e-02 -9.999000000000000000e+03 -9.999000000000000000e+03 -9.999000000000000000e+03 -9.999000000000000000e+03 -9.999000000000000000e+03 -9.999000000000000000e+03 -9.999000000000000000e+03 -9.999000000000000000e+03 -9.999000000000000000e+03
-9.999000000000000000e+03 -9.999000000000000000e+03 -9.999000000000000000e+03 -9.999000000000000000e+03 -9.999000000000000000e+03 -9.999000000000000000e+03 6.127777777777777823e-02 6.384180790960451712e-02 6.420454545454545858e-02 6.346590909090910060e-02 6.152542372881356775e-02 5.937853107344632370e-02 5.803370786516853785e-02 5.685393258426966329e-02 5.749999999999999556e-02 -9.999000000000000000e+03 -9.999000000000000000e+03 -9.999000000000000000e+03 -9.999000000000000000e+03 -9.999000000000000000e+03 -9.999000000000000000e+03 -9.999000000000000000e+03 -9.999000000000000000e+03
-9.999000000000000000e+03 -9.999000000000000000e+03 -9.999000000000000000e+03 -9.999000000000000000e+03 -9.999000000000000000e+03 -9.999000000000000000e+03 6.404494382022471455e-02 6.582857142857143073e-02 6.348571428571428421e-02 6.159090909090909893e-02 6.183908045977011547e-02 5.908571428571429002e-02 6.051428571428572184e-02 6.005681818181818343e-02 6.114942528735632654e-02 5.891428571428571764e-02 -9.999000000000000000e+03 -9.999000000000000000e+03 -9.999000000000000000e+03 -9.999000000000000000e+03 -9.999000000000000000e+03 -9.999000000000000000e+03 -9.999000000000000000e+03
-9.999000000000000000e+03 -9.999000000000000000e+03 -9.999000000000000000e+03 -9.999000000000000000e+03 -9.999000000000000000e+03 6.082417582417582597e-02 6.038461538461539074e-02 6.157303370786516850e-02 6.113636363636363452e-02 5.983146067415730934e-02 5.920903954802259755e-02 5.614525139664804793e-02 5.634831460674157022e-02 5.715909090909091633e-02 5.976744186046512031e-02 5.843930635838150839e-02 5.699421965317919697e-02 5.854651162790698582e-02 -9.999000000000000000e+03 -9.999000000000000000e+03 -9.999000000000000000e+03 -9.999000000000000000e+03 -9.999000000000000000e+03
-9.999000000000000000e+03 -9.999000000000000000e+03 -9.999000000000000000e+03 -9.999000000000000000e+03 6.005405405405405544e-02 6.171270718232044206e-02 6.166666666666666824e-02 6.155555555555555780e-02 6.038888888888888778e-02 5.745856353591160398e-02 5.775280898876404556e-02 5.511111111111111766e-02 5.289617486338798330e-02 5.402234636871508511e-02 5.689655172413793371e-02 5.831395348837209447e-02 5.744186046511627619e-02 5.801169590643275725e-02 5.959302325581396220e-02 -9.999000000000000000e+03 -9.999000000000000000e+03 -9.999000000000000000e+03 -9.999000000000000000e+03
-9.999000000000000000e+03 -9.999000000000000000e+03 6.129943502824858337e-02 6.240223463687151473e-02 6.342696629213483150e-02 6.438202247191011918e-02 6.418994413407820565e-02 6.391061452513965846e-02 5.724324324324324420e-02 5.505434782608695232e-02 5.696629213483146020e-02 5.668539325842696791e-02 5.436464088397789662e-02 5.374301675977653792e-02 5.471590909090909977e-02 5.653179190751445038e-02 5.693641618497110451e-02 5.594285714285714139e-02 5.741379310344827541e-02 5.761363636363636687e-02 5.687500000000000194e-02 5.536723163841807821e-02 -9.999000000000000000e+03
-9.999000000000000000e+03 5.874316939890709965e-02 6.134078212290502985e-02 6.155555555555555780e-02 6.240223463687151473e-02 6.387640449438203305e-02 6.426966292134830838e-02 6.173184357541899175e-02 5.437158469945355121e-02 5.401098901098901062e-02 5.692737430167597867e-02 5.892655367231638269e-02 5.567415730337078872e-02 5.468926553672316671e-02 5.446327683615818926e-02 5.534090909090909338e-02 5.607954545454545831e-02 5.725714285714286061e-02 5.953488372093023590e-02 5.880000000000000504e-02 5.732954545454545942e-02 5.594285714285714139e-02 -9.999000000000000000e+03
-9.999000000000000000e+03 5.681081081081081063e-02 5.966480446927374670e-02 6.184357541899441341e-02 6.111111111111110911e-02 6.335195530726256408e-02 6.519774011299435401e-02 6.278409090909091439e-02 5.726256983240223669e-02 5.398907103825136000e-02 5.580110497237569106e-02 5.827777777777778251e-02 5.405555555555555808e-02 5.351955307262570155e-02 5.494382022471910182e-02 5.550561797752808640e-02 5.486033519553073362e-02 5.738636363636363813e-02 6.017441860465116976e-02 6.005813953488372409e-02 6.023391812865497991e-02 -9.999000000000000000e+03 -9.999000000000000000e+03
-9.999000000000000000e+03 5.690217391304347450e-02 5.932584269662920934e-02 6.189944134078212423e-02 6.357541899441340738e-02 6.391061452513965846e-02 6.172222222222221999e-02 6.078651685393258314e-02 6.022598870056496828e-02 5.729281767955800991e-02 5.389189189189189794e-02 5.519872087711284736e-02 5.478021978021978267e-02 5.463687150837988338e-02 5.642458100558659512e-02 5.397790055248619101e-02 5.292817679558011607e-02 5.539325842696629643e-02 5.895953757225434050e-02 5.959064327485380508e-02 -9.999000000000000000e+03 -9.999000000000000000e+03 -9.999000000000000000e+03
-9.999000000000000000e+03 5.430851063829787717e-02 5.716666666666667118e-02 5.917127071823204132e-02 6.308988764044944075e-02 6.446327683615819815e-02 6.421348314606740992e-02 6.145251396648044456e-02 5.849162011173184017e-02 5.688888888888889162e-02 5.445652173913043820e-02 5.530054644808742731e-02 5.369565217391304018e-02 5.480662983425414747e-02 5.428571428571428437e-02 5.314917127071823455e-02 5.551136363636364340e-02 5.747126436781609810e-02 5.787356321839080830e-02 -9.999000000000000000e+03 -9.999000000000000000e+03 -9.999000000000000000e+03 -9.999000000000000000e+03
-9.999000000000000000e+03 5.269430051813471516e-02 5.804469273743016744e-02 6.005649717514124214e-02 5.927777777777777646e-02 6.050279329608938828e-02 6.344632768361582742e-02 6.117318435754189737e-02 5.738888888888889206e-02 5.538461538461538630e-02 5.508287292817679731e-02 5.373626373626372993e-02 5.296703296703296482e-02 5.567415730337078872e-02 -9.999000000000000000e+03 -9.999000000000000000e+03 -9.999000000000000000e+03 -9.999000000000000000e+03 -9.999000000000000000e+03 -9.999000000000000000e+03 -9.999000000000000000e+03 -9.999000000000000000e+03 -9.999000000000000000e+03
-9.999000000000000000e+03 5.111675126903553884e-02 -9.999000000000000000e+03 -9.999000000000000000e+03 -9.999000000000000000e+03 -9.999000000000000000e+03 -9.999000000000000000e+03 5.983240223463687224e-02 5.651933701657458481e-02 5.467391304347826025e-02 5.387978142076502858e-02 5.364640883977900981e-02 5.266666666666666718e-02 5.438202247191011723e-02 -9.999000000000000000e+03 -9.999000000000000000e+03 -9.999000000000000000e+03 -9.999000000000000000e+03 -9.999000000000000000e+03 -9.999000000000000000e+03 -9.999000000000000000e+03 -9.999000000000000000e+03 -9.999000000000000000e+03
-9.999000000000000000e+03 -9.999000000000000000e+03 -9.999000000000000000e+03 -9.999000000000000000e+03 -9.999000000000000000e+03 -9.999000000000000000e+03 -9.999000000000000000e+03 -9.999000000000000000e+03 5.732240437158470092e-02 5.774725274725274471e-02 5.367567567567567421e-02 5.288043478260869706e-02 5.263736263736264187e-02 -9.999000000000000000e+03 -9.999000000000000000e+03 -9.999000000000000000e+03 -9.999000000000000000e+03 -9.999000000000000000e+03 -9.999000000000000000e+03 -9.999000000000000000e+03 -9.999000000000000000e+03 -9.999000000000000000e+03 -9.999000000000000000e+03
-9.999000000000000000e+03 -9.999000000000000000e+03 -9.999000000000000000e+03 -9.999000000000000000e+03 -9.999000000000000000e+03 -9.999000000000000000e+03 -9.999000000000000000e+03 -9.999000000000000000e+03 5.527173913043478132e-02 5.764328289775333403e-02 5.734806629834254127e-02 5.408839779005524678e-02 5.229508196721311536e-02 -9.999000000000000000e+03 -9.999000000000000000e+03 -9.999000000000000000e+03 -9.999000000000000000e+03 -9.999000000000000000e+03 -9.999000000000000000e+03 -9.999000000000000000e+03 -9.999000000000000000e+03 -9.999000000000000000e+03 -9.999000000000000000e+03
-9.999000000000000000e+03 -9.999000000000000000e+03 -9.999000000000000000e+03 -9.999000000000000000e+03 -9.999000000000000000e+03 -9.999000000000000000e+03 -9.999000000000000000e+03 -9.999000000000000000e+03 -9.999000000000000000e+03 6.156424581005586621e-02 6.202247191011236310e-02 5.916201117318436314e-02 5.486187845303867189e-02 -9.999000000000000000e+03 -9.999000000000000000e+03 -9.999000000000000000e+03 -9.999000000000000000e+03 -9.999000000000000000e+03 -9.999000000000000000e+03 -9.999000000000000000e+03 -9.999000000000000000e+03 -9.999000000000000000e+03 -9.999000000000000000e+03
-9.999000000000000000e+03 -9.999000000000000000e+03 -9.999000000000000000e+03 -9.999000000000000000e+03 -9.999000000000000000e+03 -9.999000000000000000e+03 -9.999000000000000000e+03 -9.999000000000000000e+03 -9.999000000000000000e+03 -9.999000000000000000e+03 -9.999000000000000000e+03 -9.999000000000000000e+03 -9.999000000000000000e+03 -9.999000000000000000e+03 -9.999000000000000000e+03 -9.999000000000000000e+03 -9.999000000000000000e+03 -9.999000000000000000e+03 -9.999000000000000000e+03 -9.999000000000000000e+03 -9.999000000000000000e+03 -9.999000000000000000e+03 -9.999000000000000000e+03
