ncols        23
nrows        17
xllcorner    5165373.967557672411
yllcorner    3907485.103055199608
cellsize     5000.000000000000
NODATA_value  -9999
-9.999000000000000000e+03 -9.999000000000000000e+03 -9.999000000000000000e+03 -9.999000000000000000e+03 -9.999000000000000000e+03 -9.999000000000000000e+03 -9.999000000000000000e+03 -9.999000000000000000e+03 -9.999000000000000000e+03 -9.999000000000000000e+03 -9.999000000000000000e+03 -9.999000000000000000e+03 -9.999000000000000000e+03 -9.999000000000000000e+03 -9.999000000000000000e+03 -9.999000000000000000e+03 -9.999000000000000000e+03 -9.999000000000000000e+03 -9.999000000000000000e+03 -9.999000000000000000e+03 -9.999000000000000000e+03 -9.999000000000000000e+03 -9.999000000000000000e+03
-9.999000000000000000e+03 -9.999000000000000000e+03 -9.999000000000000000e+03 -9.999000000000000000e+03 -9.999000000000000000e+03 -9.999000000000000000e+03 1.336879432624113635e-02 1.359430604982206532e-02 -9.999000000000000000e+03 -9.999000000000000000e+03 -9.999000000000000000e+03 1.232974910394265232e-02 1.229390681003584423e-02 1.219424460431654637e-02 -9.999000000000000000e+03 -9.999000000000000000e+03 -9.999000000000000000e+03 -9.999000000000000000e+03 -9.999000000000000000e+03 -9.999000000000000000e+03 -9.999000000000000000e+03 -9.999000000000000000e+03 -9.999000000000000000e+03
-9.999000000000000000e+03 -9.999000000000000000e+03 -9.999000000000000000e+03 -9.999000000000000000e+03 -9.999000000000000000e+03 -9.999000000000000000e+03 1.386524822695035623e-02 1.392086330935251789e-02 1.350180505415162630e-02 1.332129963898917059e-02 1.273381294964028715e-02 1.211469534050179341e-02 1.213523131672597857e-02 1.270758122743682363e-02 1.319852941176470618e-02 -9.999000000000000000e+03 -9.999000000000000000e+03 -9.999000000000000000e+03 -9.999000000000000000e+03 -9.999000000000000000e+03 -9.999000000000000000e+03 -9.999000000000000000e+03 -9.999000000000000000e+03
-9.999000000000000000e+03 -9.999000000000000000e+03 -9.999000000000000000e+03 -9.999000000000000000e+03 -9.999000000000000000e+03 -9.999000000000000000e+03 1.464285714285714149e-02 1.424460431654676201e-02 1.359712230215827204e-02 1.322580645161290300e-02 1.258064516129032279e-02 1.177935943060498362e-02 1.242857142857142945e-02 1.276978417266187021e-02 1.316176470588235198e-02 1.277372262773722629e-02 -9.999000000000000000e+03 -9.999000000000000000e+03 -9.999000000000000000e+03 -9.999000000000000000e+03 -9.999000000000000000e+03 -9.999000000000000000e+03 -9.999000000000000000e+03
-9.999000000000000000e+03 -9.999000000000000000e+03 -9.999000000000000000e+03 -9.999000000000000000e+03 -9.999000000000000000e+03 1.377224199288256366e-02 1.357142857142856936e-02 1.362989323843416360e-02 1.369175627240143585e-02 1.287234042553191474e-02 1.209964412811388029e-02 1.173758865248227153e-02 1.170212765957446936e-02 1.197132616487455066e-02 1.243636363636363602e-02 1.250000000000000069e-02 1.211895910780669272e-02 1.240601503759398462e-02 -9.999000000000000000e+03 -9.999000000000000000e+03 -9.999000000000000000e+03 -9.999000000000000000e+03 -9.999000000000000000e+03
-9.999000000000000000e+03 -9.999000000000000000e+03 -9.999000000000000000e+03 -9.999000000000000000e+03 1.327402135231316692e-02 1.353790613718411535e-02 1.341726618705035845e-02 1.316901408450704344e-02 1.292253521126760819e-02 1.235087719298245609e-02 1.237588652482269659e-02 1.212765957446808665e-02 1.151408450704225449e-02 1.144876325088339114e-02 1.202166064981949507e-02 1.262962962962962780e-02 1.220149253731343288e-02 1.197761194029850831e-02 1.245283018867924564e-02 -9.999000000000000000e+03 -9.999000000000000000e+03 -9.999000000000000000e+03 -9.999000000000000000e+03
-9.999000000000000000e+03 -9.999000000000000000e+03 1.439560439560439581e-02 1.397111913357400835e-02 1.387096774193548494e-02 1.397849462365591440e-02 1.390070921985815666e-02 1.376760563380281799e-02 1.267361111111111292e-02 1.215277777777777971e-02 1.208480565371024794e-02 1.188612099644128020e-02 1.147887323943662212e-02 1.158450704225352096e-02 1.214285714285714274e-02 1.260073260073260072e-02 1.205882352941176419e-02 1.173431734317343343e-02 1.233082706766917315e-02 1.256603773584905742e-02 1.230188679245283224e-02 1.160447761194029898e-02 -9.999000000000000000e+03
-9.999000000000000000e+03 1.585820895522388127e-02 1.485401459854014498e-02 1.408602150537634386e-02 1.391459074733096199e-02 1.390070921985815666e-02 1.385159010600706640e-02 1.333333333333333245e-02 1.190972222222222432e-02 1.189473684210526350e-02 1.223404255319149141e-02 1.234042553191489616e-02 1.195035460992907930e-02 1.209219858156028449e-02 1.239285714285714296e-02 1.246376811594202862e-02 1.208791208791208834e-02 1.231343283582089602e-02 1.288973384030418258e-02 1.287878787878787845e-02 1.225563909774436168e-02 1.150943396226415325e-02 -9.999000000000000000e+03
-9.999000000000000000e+03 1.562962962962962873e-02 1.445652173913043563e-02 1.394265232974910458e-02 1.335689045936395807e-02 1.360424028268551223e-02 1.378091872791519477e-02 1.352112676056338274e-02 1.230769230769230942e-02 1.203508771929824583e-02 1.265232974910394416e-02 1.286738351254480307e-02 1.217081850533807859e-02 1.195035460992907930e-02 1.252669039145907527e-02 1.249097472924187713e-02 1.211678832116788208e-02 1.287313432835821003e-02 1.323308270676691774e-02 1.303370786516854125e-02 1.288973384030418258e-02 -9.999000000000000000e+03 -9.999000000000000000e+03
-9.999000000000000000e+03 1.605263157894736697e-02 1.452205882352941048e-02 1.442446043165467560e-02 1.418439716312056877e-02 1.395759717314487558e-02 1.349650349650349801e-02 1.355633802816901511e-02 1.306338028169014114e-02 1.250000000000000243e-02 1.223404255319149141e-02 1.224459579508439290e-02 1.222222222222222113e-02 1.224199288256227688e-02 1.281138790035587366e-02 1.217857142857142749e-02 1.202898550724637583e-02 1.269372693726937215e-02 1.308550185873606081e-02 1.319548872180451027e-02 -9.999000000000000000e+03 -9.999000000000000000e+03 -9.999000000000000000e+03
-9.999000000000000000e+03 1.569811320754717354e-02 1.437037037037037016e-02 1.384892086330935176e-02 1.399999999999999856e-02 1.414285714285714278e-02 1.402826855123674894e-02 1.357894736842105328e-02 1.292253521126760819e-02 1.249122807017543843e-02 1.181818181818181969e-02 1.201413427561837458e-02 1.164912280701754441e-02 1.210526315789473700e-02 1.207017543859649142e-02 1.195035460992907930e-02 1.234657039711191395e-02 1.278388278388278496e-02 1.298892988929889469e-02 -9.999000000000000000e+03 -9.999000000000000000e+03 -9.999000000000000000e+03 -9.999000000000000000e+03
-9.999000000000000000e+03 1.652671755725191108e-02 1.557692307692307675e-02 1.420664206642066434e-02 1.327338129496402792e-02 1.334519572953736521e-02 1.390070921985815666e-02 1.343859649122806921e-02 1.257839721254355378e-02 1.182758620689655302e-02 1.156250000000000160e-02 1.172535211267605737e-02 1.189473684210526350e-02 1.263345195729537532e-02 -9.999000000000000000e+03 -9.999000000000000000e+03 -9.999000000000000000e+03 -9.999000000000000000e+03 -9.999000000000000000e+03 -9.999000000000000000e+03 -9.999000000000000000e+03 -9.999000000000000000e+03 -9.999000000000000000e+03
-9.999000000000000000e+03 1.657794676806083681e-02 -9.999000000000000000e+03 -9.999000000000000000e+03 -9.999000000000000000e+03 -9.999000000000000000e+03 -9.999000000000000000e+03 1.298245614035087835e-02 1.236933797909407773e-02 1.187500000000000014e-02 1.177700348432055878e-02 1.204946996466431039e-02 1.220640569395017860e-02 1.296028880866426092e-02 -9.999000000000000000e+03 -9.999000000000000000e+03 -9.999000000000000000e+03 -9.999000000000000000e+03 -9.999000000000000000e+03 -9.999000000000000000e+03 -9.999000000000000000e+03 -9.999000000000000000e+03 -9.999000000000000000e+03
-9.999000000000000000e+03 -9.999000000000000000e+03 -9.999000000000000000e+03 -9.999000000000000000e+03 -9.999000000000000000e+03 -9.999000000000000000e+03 -9.999000000000000000e+03 -9.999000000000000000e+03 1.269230769230769197e-02 1.271777003484320621e-02 1.186851211072664433e-02 1.188811188811188940e-02 1.241992882562277523e-02 -9.999000000000000000e+03 -9.999000000000000000e+03 -9.999000000000000000e+03 -9.999000000000000000e+03 -9.999000000000000000e+03 -9.999000000000000000e+03 -9.999000000000000000e+03 -9.999000000000000000e+03 -9.999000000000000000e+03 -9.999000000000000000e+03
-9.999000000000000000e+03 -9.999000000000000000e+03 -9.999000000000000000e+03 -9.999000000000000000e+03 -9.999000000000000000e+03 -9.999000000000000000e+03 -9.999000000000000000e+03 -9.999000000000000000e+03 1.216027874564459821e-02 1.278927426406295531e-02 1.263157894736842250e-02 1.198606271777003483e-02 1.218309859154929550e-02 -9.999000000000000000e+03 -9.999000000000000000e+03 -9.999000000000000000e+03 -9.999000000000000000e+03 -9.999000000000000000e+03 -9.999000000000000000e+03 -9.999000000000000000e+03 -9.999000000000000000e+03 -9.999000000000000000e+03 -9.999000000000000000e+03
-9.999000000000000000e+03 -9.999000000000000000e+03 -9.999000000000000000e+03 -9.999000000000000000e+03 -9.999000000000000000e+03 -9.999000000000000000e+03 -9.999000000000000000e+03 -9.999000000000000000e+03 -9.999000000000000000e+03 1.402826855123674894e-02 1.374558303886925896e-02 1.305263157894736951e-02 1.214035087719298085e-02 -9.999000000000000000e+03 -9.999000000000000000e+03 -9.999000000000000000e+03 -9.999000000000000000e+03 -9.999000000000000000e+03 -9.999000000000000000e+03 -9.999000000000000000e+03 -9.999000000000000000e+03 -9.999000000000000000e+03 -9.999000000000000000e+03
-9.999000000000000000e+03 -9.999000000000000000e+03 -9.999000000000000000e+03 -9.999000000000000000e+03 -9.999000000000000000e+03 -9.999000000000000000e+03 -9.999000000000000000e+03 -9.999000000000000000e+03 -9.999000000000000000e+03 -9.999000000000000000e+03 -9.999000000000000000e+03 -9.999000000000000000e+03 -9.999000000000000000e+03 -9.999000000000000000e+03 -9.999000000000000000e+03 -9.999000000000000000e+03 -9.999000000000000000e+03 -9.999000000000000000e+03 -9.999000000000000000e+03 -9.999000000000000000e+03 -9.999000000000000000e+03 -9.999000000000000000e+03 -9.999000000000000000e+03
