ncols        23
nrows        17
xllcorner    5165373.967557672411
yllcorner    3907485.103055199608
cellsize     5000.000000000000
NODATA_value  -9999
-9.999000000000000000e+03 -9.999000000000000000e+03 -9.999000000000000000e+03 -9.999000000000000000e+03 -9.999000000000000000e+03 -9.999000000000000000e+03 -9.999000000000000000e+03 -9.999000000000000000e+03 -9.999000000000000000e+03 -9.999000000000000000e+03 -9.999000000000000000e+03 -9.999000000000000000e+03 -9.999000000000000000e+03 -9.999000000000000000e+03 -9.999000000000000000e+03 -9.999000000000000000e+03 -9.999000000000000000e+03 -9.999000000000000000e+03 -9.999000000000000000e+03 -9.999000000000000000e+03 -9.999000000000000000e+03 -9.999000000000000000e+03 -9.999000000000000000e+03
-9.999000000000000000e+03 -9.999000000000000000e+03 -9.999000000000000000e+03 -9.999000000000000000e+03 -9.999000000000000000e+03 -9.999000000000000000e+03 3.642172523961661763e-03 3.653846153846153789e-03 -9.999000000000000000e+03 -9.999000000000000000e+03 -9.999000000000000000e+03 3.496732026143791350e-03 3.516129032258064491e-03 3.461538461538461644e-03 -9.999000000000000000e+03 -9.999000000000000000e+03 -9.999000000000000000e+03 -9.999000000000000000e+03 -9.999000000000000000e+03 -9.999000000000000000e+03 -9.999000000000000000e+03 -9.999000000000000000e+03 -9.999000000000000000e+03
-9.999000000000000000e+03 -9.999000000000000000e+03 -9.999000000000000000e+03 -9.999000000000000000e+03 -9.999000000000000000e+03 -9.999000000000000000e+03 3.878205128205128391e-03 3.677419354838709544e-03 3.550488599348533992e-03 3.594771241830065599e-03 3.529411764705882477e-03 3.603896103896104056e-03 3.482428115015974695e-03 3.548387096774193762e-03 3.639344262295082007e-03 -9.999000000000000000e+03 -9.999000000000000000e+03 -9.999000000000000000e+03 -9.999000000000000000e+03 -9.999000000000000000e+03 -9.999000000000000000e+03 -9.999000000000000000e+03 -9.999000000000000000e+03
-9.999000000000000000e+03 -9.999000000000000000e+03 -9.999000000000000000e+03 -9.999000000000000000e+03 -9.999000000000000000e+03 -9.999000000000000000e+03 4.019292604501608322e-03 3.903225806451613138e-03 3.831168831168831057e-03 3.624595469255663394e-03 3.569131832797427933e-03 3.503184713375796268e-03 3.312101910828025870e-03 3.451612903225806817e-03 3.550488599348533992e-03 3.355048859934853158e-03 -9.999000000000000000e+03 -9.999000000000000000e+03 -9.999000000000000000e+03 -9.999000000000000000e+03 -9.999000000000000000e+03 -9.999000000000000000e+03 -9.999000000000000000e+03
-9.999000000000000000e+03 -9.999000000000000000e+03 -9.999000000000000000e+03 -9.999000000000000000e+03 -9.999000000000000000e+03 4.070512820512820970e-03 4.161290322580645136e-03 3.987138263665595747e-03 3.883495145631068231e-03 3.589743589743589740e-03 3.450479233226837368e-03 3.523809523809524110e-03 3.386075949367088958e-03 3.279742765273312155e-03 3.322475570032573308e-03 3.300653594771242420e-03 3.366336633663366291e-03 3.478260869565217520e-03 -9.999000000000000000e+03 -9.999000000000000000e+03 -9.999000000000000000e+03 -9.999000000000000000e+03 -9.999000000000000000e+03
-9.999000000000000000e+03 -9.999000000000000000e+03 -9.999000000000000000e+03 -9.999000000000000000e+03 4.171974522292993745e-03 4.070512820512820970e-03 4.147909967845659490e-03 3.738019169329073743e-03 3.535031847133757784e-03 3.512658227848101163e-03 3.630573248407643200e-03 3.841269841269842004e-03 3.553459119496855684e-03 3.343949044585987386e-03 3.300970873786408105e-03 3.475409836065573594e-03 3.465346534653465389e-03 3.377926421404682696e-03 3.569023569023568876e-03 -9.999000000000000000e+03 -9.999000000000000000e+03 -9.999000000000000000e+03 -9.999000000000000000e+03
-9.999000000000000000e+03 -9.999000000000000000e+03 4.253246753246753623e-03 4.180064308681672933e-03 4.038461538461538512e-03 3.903225806451613138e-03 3.794212218649517694e-03 3.685897435897435813e-03 3.470031545741325552e-03 3.448275862068965903e-03 3.417721518987341684e-03 3.481012658227848437e-03 3.481012658227848437e-03 3.354430379746835365e-03 3.450479233226837368e-03 3.506493506493506707e-03 3.420195439739413725e-03 3.355263157894737037e-03 3.678929765886287603e-03 4.358108108108107830e-03 4.664429530201342350e-03 4.266666666666666871e-03 -9.999000000000000000e+03
-9.999000000000000000e+03 5.000000000000000104e-03 4.212218649517685508e-03 4.222222222222222696e-03 4.044585987261146813e-03 3.846153846153845934e-03 3.846153846153845934e-03 3.650793650793651007e-03 3.510971786833855766e-03 3.647798742138364924e-03 3.575949367088607916e-03 3.438485804416403953e-03 3.438485804416403953e-03 3.386075949367088958e-03 3.546325878594249349e-03 3.516129032258064491e-03 3.344155844155844316e-03 3.442622950819671911e-03 3.750000000000000295e-03 3.918918918918919657e-03 4.093959731543624601e-03 4.295302013422819254e-03 -9.999000000000000000e+03
-9.999000000000000000e+03 5.098039215686274786e-03 4.198717948717949067e-03 4.134615384615384151e-03 3.873015873015873186e-03 3.662420382165604716e-03 3.557692307692307716e-03 3.439490445859872802e-03 3.427672955974842787e-03 3.742138364779874164e-03 3.917197452229299014e-03 3.821656050955414032e-03 3.722397476340694004e-03 3.492063492063492494e-03 3.503184713375796268e-03 3.418530351437700041e-03 3.408360128617363323e-03 3.790849673202614529e-03 3.733333333333333295e-03 3.750000000000000295e-03 3.959044368600683067e-03 -9.999000000000000000e+03 -9.999000000000000000e+03
-9.999000000000000000e+03 5.300000000000000024e-03 4.267100977198697194e-03 4.161290322580645136e-03 3.890675241157556721e-03 3.633440514469453951e-03 3.492063492063492494e-03 3.417721518987341684e-03 3.438485804416403953e-03 3.522012578616352026e-03 3.722397476340694004e-03 3.623036649214660381e-03 3.659305993690852108e-03 3.512658227848101163e-03 3.503184713375796268e-03 3.365079365079365163e-03 3.578274760383386675e-03 3.903225806451613138e-03 3.815789473684210766e-03 3.885135135135134917e-03 -9.999000000000000000e+03 -9.999000000000000000e+03 -9.999000000000000000e+03
-9.999000000000000000e+03 5.335570469798657858e-03 4.313725490196078198e-03 4.102564102564102561e-03 3.826366559485531137e-03 3.569131832797427933e-03 3.523809523809524110e-03 3.490566037735849236e-03 3.437500000000000017e-03 3.395638629283489335e-03 3.281733746130030809e-03 3.374613003095975131e-03 3.425925925925926013e-03 3.478260869565217087e-03 3.426791277258567445e-03 3.301886792452830323e-03 3.386581469648562281e-03 3.376205787781350748e-03 3.506493506493506707e-03 -9.999000000000000000e+03 -9.999000000000000000e+03 -9.999000000000000000e+03 -9.999000000000000000e+03
-9.999000000000000000e+03 6.292517006802721656e-03 4.715719063545151073e-03 4.090909090909091231e-03 3.954983922829582305e-03 3.726114649681528616e-03 3.619047619047619391e-03 3.542319749216301349e-03 3.416149068322981656e-03 3.179012345679012048e-03 3.148148148148148182e-03 3.374613003095975131e-03 3.467492260061919452e-03 3.616352201257861266e-03 -9.999000000000000000e+03 -9.999000000000000000e+03 -9.999000000000000000e+03 -9.999000000000000000e+03 -9.999000000000000000e+03 -9.999000000000000000e+03 -9.999000000000000000e+03 -9.999000000000000000e+03 -9.999000000000000000e+03
-9.999000000000000000e+03 7.006802721088435833e-03 -9.999000000000000000e+03 -9.999000000000000000e+03 -9.999000000000000000e+03 -9.999000000000000000e+03 -9.999000000000000000e+03 3.343750000000000368e-03 3.343750000000000368e-03 3.208722741433021972e-03 3.198757763975155263e-03 3.468750000000000045e-03 3.510971786833855766e-03 3.974358974358974464e-03 -9.999000000000000000e+03 -9.999000000000000000e+03 -9.999000000000000000e+03 -9.999000000000000000e+03 -9.999000000000000000e+03 -9.999000000000000000e+03 -9.999000000000000000e+03 -9.999000000000000000e+03 -9.999000000000000000e+03
-9.999000000000000000e+03 -9.999000000000000000e+03 -9.999000000000000000e+03 -9.999000000000000000e+03 -9.999000000000000000e+03 -9.999000000000000000e+03 -9.999000000000000000e+03 -9.999000000000000000e+03 3.406940063091482788e-03 3.291536050156740160e-03 3.250773993808049947e-03 3.447204968944099154e-03 3.899371069182390286e-03 -9.999000000000000000e+03 -9.999000000000000000e+03 -9.999000000000000000e+03 -9.999000000000000000e+03 -9.999000000000000000e+03 -9.999000000000000000e+03 -9.999000000000000000e+03 -9.999000000000000000e+03 -9.999000000000000000e+03 -9.999000000000000000e+03
-9.999000000000000000e+03 -9.999000000000000000e+03 -9.999000000000000000e+03 -9.999000000000000000e+03 -9.999000000000000000e+03 -9.999000000000000000e+03 -9.999000000000000000e+03 -9.999000000000000000e+03 3.343848580441640458e-03 3.481228668941979774e-03 3.522012578616352026e-03 3.551401869158878587e-03 3.843749999999999944e-03 -9.999000000000000000e+03 -9.999000000000000000e+03 -9.999000000000000000e+03 -9.999000000000000000e+03 -9.999000000000000000e+03 -9.999000000000000000e+03 -9.999000000000000000e+03 -9.999000000000000000e+03 -9.999000000000000000e+03 -9.999000000000000000e+03
-9.999000000000000000e+03 -9.999000000000000000e+03 -9.999000000000000000e+03 -9.999000000000000000e+03 -9.999000000000000000e+03 -9.999000000000000000e+03 -9.999000000000000000e+03 -9.999000000000000000e+03 -9.999000000000000000e+03 3.821656050955414032e-03 3.694267515923567100e-03 3.542319749216301349e-03 3.531250000000000101e-03 -9.999000000000000000e+03 -9.999000000000000000e+03 -9.999000000000000000e+03 -9.999000000000000000e+03 -9.999000000000000000e+03 -9.999000000000000000e+03 -9.999000000000000000e+03 -9.999000000000000000e+03 -9.999000000000000000e+03 -9.999000000000000000e+03
-9.999000000000000000e+03 -9.999000000000000000e+03 -9.999000000000000000e+03 -9.999000000000000000e+03 -9.999000000000000000e+03 -9.999000000000000000e+03 -9.999000000000000000e+03 -9.999000000000000000e+03 -9.999000000000000000e+03 -9.999000000000000000e+03 -9.999000000000000000e+03 -9.999000000000000000e+03 -9.999000000000000000e+03 -9.999000000000000000e+03 -9.999000000000000000e+03 -9.999000000000000000e+03 -9.999000000000000000e+03 -9.999000000000000000e+03 -9.999000000000000000e+03 -9.999000000000000000e+03 -9.999000000000000000e+03 -9.999000000000000000e+03 -9.999000000000000000e+03
