ncols        23
nrows        17
xllcorner    5165373.967557672411
yllcorner    3907485.103055199608
cellsize     5000.000000000000
NODATA_value  -9999
-9.999000000000000000e+03 -9.999000000000000000e+03 -9.999000000000000000e+03 -9.999000000000000000e+03 -9.999000000000000000e+03 -9.999000000000000000e+03 -9.999000000000000000e+03 -9.999000000000000000e+03 -9.999000000000000000e+03 -9.999000000000000000e+03 -9.999000000000000000e+03 -9.999000000000000000e+03 -9.999000000000000000e+03 -9.999000000000000000e+03 -9.999000000000000000e+03 -9.999000000000000000e+03 -9.999000000000000000e+03 -9.999000000000000000e+03 -9.999000000000000000e+03 -9.999000000000000000e+03 -9.999000000000000000e+03 -9.999000000000000000e+03 -9.999000000000000000e+03
-9.999000000000000000e+03 -9.999000000000000000e+03 -9.999000000000000000e+03 -9.999000000000000000e+03 -9.999000000000000000e+03 -9.999000000000000000e+03 5.736421328301281392e+03 5.194734206470999197e+03 -9.999000000000000000e+03 -9.999000000000000000e+03 -9.999000000000000000e+03 6.259773303777137698e+03 6.749294202117099303e+03 5.071370130863966551e+03 -9.999000000000000000e+03 -9.999000000000000000e+03 -9.999000000000000000e+03 -9.999000000000000000e+03 -9.999000000000000000e+03 -9.999000000000000000e+03 -9.999000000000000000e+03 -9.999000000000000000e+03 -9.999000000000000000e+03
-9.999000000000000000e+03 -9.999000000000000000e+03 -9.999000000000000000e+03 -9.999000000000000000e+03 -9.999000000000000000e+03 -9.999000000000000000e+03 5.615384612843172363e+03 5.897549385746999178e+03 6.432194994138830225e+03 7.213190129405966218e+03 5.884413366593499632e+03 5.894894729717810151e+03 4.824076768028869992e+03 5.275864629250371763e+03 4.838707064154998989e+03 -9.999000000000000000e+03 -9.999000000000000000e+03 -9.999000000000000000e+03 -9.999000000000000000e+03 -9.999000000000000000e+03 -9.999000000000000000e+03 -9.999000000000000000e+03 -9.999000000000000000e+03
-9.999000000000000000e+03 -9.999000000000000000e+03 -9.999000000000000000e+03 -9.999000000000000000e+03 -9.999000000000000000e+03 -9.999000000000000000e+03 5.825315751092608480e+03 7.155137560377574118e+03 6.006714874433847399e+03 6.124326783396579231e+03 6.586124678209790545e+03 7.030090118803494988e+03 5.772561952507890965e+03 5.534734320123121506e+03 5.667916109701396636e+03 5.384074291757245192e+03 -9.999000000000000000e+03 -9.999000000000000000e+03 -9.999000000000000000e+03 -9.999000000000000000e+03 -9.999000000000000000e+03 -9.999000000000000000e+03 -9.999000000000000000e+03
-9.999000000000000000e+03 -9.999000000000000000e+03 -9.999000000000000000e+03 -9.999000000000000000e+03 -9.999000000000000000e+03 6.499960049157821231e+03 3.549520657987325194e+03 5.882944474252135478e+03 6.354894492294455631e+03 6.052278145292022600e+03 6.689058769756679794e+03 7.351985252683374711e+03 5.791549516414453137e+03 6.320239850723909512e+03 6.231644800882207164e+03 6.178891648032729790e+03 5.558165865284773645e+03 5.537702315746865679e+03 -9.999000000000000000e+03 -9.999000000000000000e+03 -9.999000000000000000e+03 -9.999000000000000000e+03 -9.999000000000000000e+03
-9.999000000000000000e+03 -9.999000000000000000e+03 -9.999000000000000000e+03 -9.999000000000000000e+03 6.146696822130184955e+03 5.457666158995594742e+03 5.452381688966216643e+03 6.125574243902167836e+03 6.023755560923196754e+03 6.402596387424981913e+03 6.185729515241187073e+03 5.944721305261462476e+03 6.068408614622195273e+03 7.018203382977878391e+03 5.769396589874189885e+03 6.303985946651932863e+03 5.974187719387371544e+03 6.361747388303770094e+03 6.433990680041462838e+03 -9.999000000000000000e+03 -9.999000000000000000e+03 -9.999000000000000000e+03 -9.999000000000000000e+03
-9.999000000000000000e+03 -9.999000000000000000e+03 6.481439583149331156e+03 5.627268436368531184e+03 6.117920040363845146e+03 5.568549585615439355e+03 5.294340361225798006e+03 6.076325361530420196e+03 7.088420652218385840e+03 5.700667732263750622e+03 5.736420599503455378e+03 5.488258280242641376e+03 6.918220668549792208e+03 5.876989659172808388e+03 5.959735865226684837e+03 7.530759082842678254e+03 5.660350090557459225e+03 5.827435622477601100e+03 6.202023295683791730e+03 7.299271248330948765e+03 6.404265056052632644e+03 6.782739930472358537e+03 -9.999000000000000000e+03
-9.999000000000000000e+03 6.419263033072892540e+03 4.825239530215344530e+03 4.599726528074031194e+03 5.003418130690698490e+03 5.877118011926390864e+03 5.390178775827661411e+03 5.602577664382273724e+03 7.116836680437476389e+03 5.625950153484021030e+03 5.555727950545972817e+03 5.458543680410895831e+03 6.042954044710188100e+03 5.828372980082635877e+03 6.465739634625088001e+03 6.621535637448354464e+03 6.057940608592090030e+03 7.719964710526529416e+03 6.636898420189549142e+03 7.078217433733082544e+03 6.326548360335173129e+03 6.349394199410557121e+03 -9.999000000000000000e+03
-9.999000000000000000e+03 5.255111541935581045e+03 4.808667839166213525e+03 6.737966723924958387e+03 5.311905898591821824e+03 5.290194848857462603e+03 5.769351794950190197e+03 4.954935557770407286e+03 5.927292049217948261e+03 5.665673441842471220e+03 5.945687497098380845e+03 6.111167159927970715e+03 6.261891995053223582e+03 5.925801675224104656e+03 5.793051360009509153e+03 6.074761379757002032e+03 5.828717631507452097e+03 5.222860614490690750e+03 5.701484880839361722e+03 4.478400089693577684e+03 5.774010550631475780e+03 -9.999000000000000000e+03 -9.999000000000000000e+03
-9.999000000000000000e+03 5.261192275570703714e+03 5.135240870883275420e+03 4.644371454990410712e+03 5.515791941846912778e+03 7.690675492742192546e+03 7.281111833748022036e+03 6.879630914633902648e+03 6.431923749204525848e+03 5.885515011527270872e+03 7.523919290144261140e+03 4.541609532457136083e+03 6.699542250624971530e+03 7.153725262532638226e+03 6.338891715044122066e+03 6.229424722325706171e+03 6.241695769163935438e+03 5.122736170441400645e+03 3.825496110402872091e+03 4.773926199025417191e+03 -9.999000000000000000e+03 -9.999000000000000000e+03 -9.999000000000000000e+03
-9.999000000000000000e+03 6.881899472536153553e+03 5.171114515345199834e+03 5.062057467222973173e+03 5.355053113891483918e+03 5.999171500418473443e+03 5.057503192158954334e+03 6.217604162817369797e+03 5.743867428920064413e+03 5.231797867843777567e+03 7.154444212897857142e+03 7.601137991727433473e+03 5.661566394410071553e+03 7.330342873621137187e+03 6.009896679851041881e+03 6.987671517229585334e+03 7.495311640648958928e+03 5.211515530190667050e+03 5.884882668847551940e+03 -9.999000000000000000e+03 -9.999000000000000000e+03 -9.999000000000000000e+03 -9.999000000000000000e+03
-9.999000000000000000e+03 4.525571083880253354e+03 6.381167227993597407e+03 5.341472961496540847e+03 6.029631409582898414e+03 5.965411257856778320e+03 6.373558070380883692e+03 5.074533129045647001e+03 4.983053518889109000e+03 5.516364445300006082e+03 6.284429395012501118e+03 5.420122742338343414e+03 7.645342777868773737e+03 6.376264085428850194e+03 -9.999000000000000000e+03 -9.999000000000000000e+03 -9.999000000000000000e+03 -9.999000000000000000e+03 -9.999000000000000000e+03 -9.999000000000000000e+03 -9.999000000000000000e+03 -9.999000000000000000e+03 -9.999000000000000000e+03
-9.999000000000000000e+03 5.960832429592516746e+03 -9.999000000000000000e+03 -9.999000000000000000e+03 -9.999000000000000000e+03 -9.999000000000000000e+03 -9.999000000000000000e+03 5.694623677432891782e+03 5.760659588703689224e+03 4.212099480096977459e+03 7.026714091699449455e+03 5.741692676752871193e+03 5.654263393173193435e+03 5.547919922081106961e+03 -9.999000000000000000e+03 -9.999000000000000000e+03 -9.999000000000000000e+03 -9.999000000000000000e+03 -9.999000000000000000e+03 -9.999000000000000000e+03 -9.999000000000000000e+03 -9.999000000000000000e+03 -9.999000000000000000e+03
-9.999000000000000000e+03 -9.999000000000000000e+03 -9.999000000000000000e+03 -9.999000000000000000e+03 -9.999000000000000000e+03 -9.999000000000000000e+03 -9.999000000000000000e+03 -9.999000000000000000e+03 5.292856853769825648e+03 5.151008987758817966e+03 4.667058460620983169e+03 6.205797561709664478e+03 5.763546697886398761e+03 -9.999000000000000000e+03 -9.999000000000000000e+03 -9.999000000000000000e+03 -9.999000000000000000e+03 -9.999000000000000000e+03 -9.999000000000000000e+03 -9.999000000000000000e+03 -9.999000000000000000e+03 -9.999000000000000000e+03 -9.999000000000000000e+03
-9.999000000000000000e+03 -9.999000000000000000e+03 -9.999000000000000000e+03 -9.999000000000000000e+03 -9.999000000000000000e+03 -9.999000000000000000e+03 -9.999000000000000000e+03 -9.999000000000000000e+03 5.733666436372458520e+03 4.750673812971569532e+03 6.355152212032616262e+03 5.326486502031065356e+03 4.698399647673215441e+03 -9.999000000000000000e+03 -9.999000000000000000e+03 -9.999000000000000000e+03 -9.999000000000000000e+03 -9.999000000000000000e+03 -9.999000000000000000e+03 -9.999000000000000000e+03 -9.999000000000000000e+03 -9.999000000000000000e+03 -9.999000000000000000e+03
-9.999000000000000000e+03 -9.999000000000000000e+03 -9.999000000000000000e+03 -9.999000000000000000e+03 -9.999000000000000000e+03 -9.999000000000000000e+03 -9.999000000000000000e+03 -9.999000000000000000e+03 -9.999000000000000000e+03 5.487520107670376092e+03 5.672353507919801814e+03 5.059481782072905844e+03 7.255793999072086081e+03 -9.999000000000000000e+03 -9.999000000000000000e+03 -9.999000000000000000e+03 -9.999000000000000000e+03 -9.999000000000000000e+03 -9.999000000000000000e+03 -9.999000000000000000e+03 -9.999000000000000000e+03 -9.999000000000000000e+03 -9.999000000000000000e+03
-9.999000000000000000e+03 -9.999000000000000000e+03 -9.999000000000000000e+03 -9.999000000000000000e+03 -9.999000000000000000e+03 -9.999000000000000000e+03 -9.999000000000000000e+03 -9.999000000000000000e+03 -9.999000000000000000e+03 -9.999000000000000000e+03 -9.999000000000000000e+03 -9.999000000000000000e+03 -9.999000000000000000e+03 -9.999000000000000000e+03 -9.999000000000000000e+03 -9.999000000000000000e+03 -9.999000000000000000e+03 -9.999000000000000000e+03 -9.999000000000000000e+03 -9.999000000000000000e+03 -9.999000000000000000e+03 -9.999000000000000000e+03 -9.999000000000000000e+03
