ncols        23
nrows        17
xllcorner    5165373.967557672411
yllcorner    3907485.103055199608
cellsize     5000.000000000000
NODATA_value  -9999
-9.999000000000000000e+03 -9.999000000000000000e+03 -9.999000000000000000e+03 -9.999000000000000000e+03 -9.999000000000000000e+03 -9.999000000000000000e+03 -9.999000000000000000e+03 -9.999000000000000000e+03 -9.999000000000000000e+03 -9.999000000000000000e+03 -9.999000000000000000e+03 -9.999000000000000000e+03 -9.999000000000000000e+03 -9.999000000000000000e+03 -9.999000000000000000e+03 -9.999000000000000000e+03 -9.999000000000000000e+03 -9.999000000000000000e+03 -9.999000000000000000e+03 -9.999000000000000000e+03 -9.999000000000000000e+03 -9.999000000000000000e+03 -9.999000000000000000e+03
-9.999000000000000000e+03 -9.999000000000000000e+03 -9.999000000000000000e+03 -9.999000000000000000e+03 -9.999000000000000000e+03 -9.999000000000000000e+03 1.147295755600055827e+03 2.909061557478539271e+03 -9.999000000000000000e+03 -9.999000000000000000e+03 -9.999000000000000000e+03 1.502345559326472312e+03 3.745608508804711619e+03 1.825693319657559641e+03 -9.999000000000000000e+03 -9.999000000000000000e+03 -9.999000000000000000e+03 -9.999000000000000000e+03 -9.999000000000000000e+03 -9.999000000000000000e+03 -9.999000000000000000e+03 -9.999000000000000000e+03 -9.999000000000000000e+03
-9.999000000000000000e+03 -9.999000000000000000e+03 -9.999000000000000000e+03 -9.999000000000000000e+03 -9.999000000000000000e+03 -9.999000000000000000e+03 2.695384553918181609e+03 4.482137476924305702e+03 4.888480998594737684e+03 4.506437892844474845e+03 3.530648160251447280e+03 1.886366271346126496e+03 4.024600642326806337e+03 4.431726150205256090e+03 3.483878902043322796e+03 -9.999000000000000000e+03 -9.999000000000000000e+03 -9.999000000000000000e+03 -9.999000000000000000e+03 -9.999000000000000000e+03 -9.999000000000000000e+03 -9.999000000000000000e+03 -9.999000000000000000e+03
-9.999000000000000000e+03 -9.999000000000000000e+03 -9.999000000000000000e+03 -9.999000000000000000e+03 -9.999000000000000000e+03 -9.999000000000000000e+03 5.656207383606138137e+03 6.582726674961609206e+03 3.363760344004078888e+03 4.654488296975268895e+03 3.424784707048731889e+03 2.812050149605800925e+03 4.812735610281541085e+03 5.053074139283248769e+03 5.600830698064331955e+03 5.168711204557254860e+03 -9.999000000000000000e+03 -9.999000000000000000e+03 -9.999000000000000000e+03 -9.999000000000000000e+03 -9.999000000000000000e+03 -9.999000000000000000e+03 -9.999000000000000000e+03
-9.999000000000000000e+03 -9.999000000000000000e+03 -9.999000000000000000e+03 -9.999000000000000000e+03 -9.999000000000000000e+03 4.419972879918655963e+03 1.703781720909614933e+03 5.412309014494193434e+03 5.083915669591810001e+03 3.147184520113807139e+03 3.478310432689802383e+03 1.470397072447298342e+03 0.000000000000000000e+00 3.990835950463093923e+03 5.940426243542136945e+03 6.127669417282405448e+03 4.668859181070509294e+03 4.651669799995343965e+03 -9.999000000000000000e+03 -9.999000000000000000e+03 -9.999000000000000000e+03 -9.999000000000000000e+03 -9.999000000000000000e+03
-9.999000000000000000e+03 -9.999000000000000000e+03 -9.999000000000000000e+03 -9.999000000000000000e+03 2.458684273104400290e+03 4.339510906499677731e+03 2.180952708085213999e+03 5.390505305424893777e+03 5.059954513196208609e+03 2.048830798181056252e+03 1.979433400633394513e+03 4.756371410132911706e+02 0.000000000000000000e+00 8.421984235413833630e+02 4.153965709773176968e+03 5.547507602993953697e+03 2.867610041209857627e+03 5.598337671372141813e+03 5.404552002496708155e+03 -9.999000000000000000e+03 -9.999000000000000000e+03 -9.999000000000000000e+03 -9.999000000000000000e+03
-9.999000000000000000e+03 -9.999000000000000000e+03 6.113857024392766107e+03 4.753396126302090124e+03 5.251689581252923745e+03 4.680032339800964110e+03 4.713247835704929457e+03 5.335210819314892433e+03 1.984771967914084144e+03 4.560534083875118085e+02 2.294568273993113507e+03 1.119632065009592907e+03 3.679532792251238789e+02 7.052387433374223065e+02 3.575841661227186705e+03 4.683521779615882224e+03 4.754693927619677197e+03 1.864779357511764829e+03 2.728890235314092479e+03 2.627825345074132656e+03 1.537177281464258613e+03 2.713109578098592920e+03 -9.999000000000000000e+03
-9.999000000000000000e+03 6.373187038567502896e+03 4.434629382764976981e+03 2.841781223018378569e+03 3.944750892752465916e+03 4.339838288035726691e+03 4.096535818224271679e+03 5.222712294416734039e+03 5.795918740833939182e+02 2.250380011093694463e+02 2.320883004203545170e+03 3.889344661455664664e+03 5.076081239073781035e+03 5.570391328829403392e+03 6.166257999626143828e+03 3.057935133835252600e+03 3.634764509587813336e+03 1.852791489113249099e+03 5.044042736049661471e+03 3.397544292250845047e+03 3.795929167037771094e+03 5.079515435219122992e+03 -9.999000000000000000e+03
-9.999000000000000000e+03 5.197869245050496829e+03 4.556921253766672635e+03 6.326719093106367836e+03 4.037048432271502406e+03 4.198920283045248652e+03 3.692385066236882267e+03 4.360343267210984777e+03 1.659641780846908205e+03 0.000000000000000000e+00 2.378308357657715987e+03 4.888933800793166483e+03 4.508562415592487923e+03 3.555481146416584124e+03 4.170997144947375091e+03 4.026089416769348190e+03 3.497230717871928846e+03 2.924801956567057005e+03 4.561187972638485917e+03 4.336600771973244264e+03 5.181757570141238830e+03 -9.999000000000000000e+03 -9.999000000000000000e+03
-9.999000000000000000e+03 5.125959705725232197e+03 4.976075552330801656e+03 4.424231857393428072e+03 4.633265086494006027e+03 5.434532093504012664e+03 3.494933602081195204e+03 1.375926203429678480e+03 2.058215553740744781e+03 7.062617855970910341e+02 3.010292270989737631e+02 1.818332079010433517e+02 1.071938123254801440e+03 4.578384065686027498e+03 6.284977257951244610e+03 1.245884963030273639e+03 1.997342601488372338e+03 3.278551075801167826e+03 2.973461447995025992e+03 3.819141016129968648e+03 -9.999000000000000000e+03 -9.999000000000000000e+03 -9.999000000000000000e+03
-9.999000000000000000e+03 5.505519660067557197e+03 4.897078563917043539e+03 3.442199113918278272e+03 4.712446714689623150e+03 3.839469674448986098e+03 3.641402443050774309e+03 3.233154046073644167e+03 3.216565773889682987e+03 2.092719178321456184e+03 5.723555242386853479e+02 3.040466326791732627e+03 0.000000000000000000e+00 2.638952860739759217e+03 1.923166894566202700e+03 3.542894603678416843e+03 6.214478686691853000e+03 4.547505492551157658e+03 5.205044534230369209e+03 -9.999000000000000000e+03 -9.999000000000000000e+03 -9.999000000000000000e+03 -9.999000000000000000e+03
-9.999000000000000000e+03 2.534328868905918171e+03 6.113611225325064879e+03 5.019279346010400332e+03 3.135408217977014829e+03 1.908931559846222854e+03 4.843904072706484840e+03 1.623850564998717800e+03 3.217072227433011449e+03 3.743681836100099645e+03 3.661711224722039788e+03 3.322429547920757500e+02 1.223254817117127459e+03 5.101011344354071298e+03 -9.999000000000000000e+03 -9.999000000000000000e+03 -9.999000000000000000e+03 -9.999000000000000000e+03 -9.999000000000000000e+03 -9.999000000000000000e+03 -9.999000000000000000e+03 -9.999000000000000000e+03 -9.999000000000000000e+03
-9.999000000000000000e+03 1.430691460135322131e+03 -9.999000000000000000e+03 -9.999000000000000000e+03 -9.999000000000000000e+03 -9.999000000000000000e+03 -9.999000000000000000e+03 2.283075138228575270e+03 4.378101232476872610e+03 3.201195564703991749e+03 4.216042675979333580e+03 1.956086039463451471e+03 6.469314361061690306e+02 1.775334335384138740e+03 -9.999000000000000000e+03 -9.999000000000000000e+03 -9.999000000000000000e+03 -9.999000000000000000e+03 -9.999000000000000000e+03 -9.999000000000000000e+03 -9.999000000000000000e+03 -9.999000000000000000e+03 -9.999000000000000000e+03
-9.999000000000000000e+03 -9.999000000000000000e+03 -9.999000000000000000e+03 -9.999000000000000000e+03 -9.999000000000000000e+03 -9.999000000000000000e+03 -9.999000000000000000e+03 -9.999000000000000000e+03 2.752285463007076487e+03 3.090605515464915243e+03 1.120094005512983358e+03 2.730550912356477966e+03 4.610837255248873134e+02 -9.999000000000000000e+03 -9.999000000000000000e+03 -9.999000000000000000e+03 -9.999000000000000000e+03 -9.999000000000000000e+03 -9.999000000000000000e+03 -9.999000000000000000e+03 -9.999000000000000000e+03 -9.999000000000000000e+03 -9.999000000000000000e+03
-9.999000000000000000e+03 -9.999000000000000000e+03 -9.999000000000000000e+03 -9.999000000000000000e+03 -9.999000000000000000e+03 -9.999000000000000000e+03 -9.999000000000000000e+03 -9.999000000000000000e+03 2.522813218333755685e+03 1.900316300677776781e+03 3.050472993592269631e+03 2.343654048194335246e+03 1.879359817062319848e+02 -9.999000000000000000e+03 -9.999000000000000000e+03 -9.999000000000000000e+03 -9.999000000000000000e+03 -9.999000000000000000e+03 -9.999000000000000000e+03 -9.999000000000000000e+03 -9.999000000000000000e+03 -9.999000000000000000e+03 -9.999000000000000000e+03
-9.999000000000000000e+03 -9.999000000000000000e+03 -9.999000000000000000e+03 -9.999000000000000000e+03 -9.999000000000000000e+03 -9.999000000000000000e+03 -9.999000000000000000e+03 -9.999000000000000000e+03 -9.999000000000000000e+03 5.048518590639618196e+03 5.417618853461484832e+03 4.967062762945069153e+03 1.741434055619722812e+03 -9.999000000000000000e+03 -9.999000000000000000e+03 -9.999000000000000000e+03 -9.999000000000000000e+03 -9.999000000000000000e+03 -9.999000000000000000e+03 -9.999000000000000000e+03 -9.999000000000000000e+03 -9.999000000000000000e+03 -9.999000000000000000e+03
-9.999000000000000000e+03 -9.999000000000000000e+03 -9.999000000000000000e+03 -9.999000000000000000e+03 -9.999000000000000000e+03 -9.999000000000000000e+03 -9.999000000000000000e+03 -9.999000000000000000e+03 -9.999000000000000000e+03 -9.999000000000000000e+03 -9.999000000000000000e+03 -9.999000000000000000e+03 -9.999000000000000000e+03 -9.999000000000000000e+03 -9.999000000000000000e+03 -9.999000000000000000e+03 -9.999000000000000000e+03 -9.999000000000000000e+03 -9.999000000000000000e+03 -9.999000000000000000e+03 -9.999000000000000000e+03 -9.999000000000000000e+03 -9.999000000000000000e+03
