ncols        23
nrows        17
xllcorner    5165373.967557672411
yllcorner    3907485.103055199608
cellsize     5000.000000000000
NODATA_value  -9999
-9.999000000000000000e+03 -9.999000000000000000e+03 -9.999000000000000000e+03 -9.999000000000000000e+03 -9.999000000000000000e+03 -9.999000000000000000e+03 -9.999000000000000000e+03 -9.999000000000000000e+03 -9.999000000000000000e+03 -9.999000000000000000e+03 -9.999000000000000000e+03 -9.999000000000000000e+03 -9.999000000000000000e+03 -9.999000000000000000e+03 -9.999000000000000000e+03 -9.999000000000000000e+03 -9.999000000000000000e+03 -9.999000000000000000e+03 -9.999000000000000000e+03 -9.999000000000000000e+03 -9.999000000000000000e+03 -9.999000000000000000e+03 -9.999000000000000000e+03
-9.999000000000000000e+03 -9.999000000000000000e+03 -9.999000000000000000e+03 -9.999000000000000000e+03 -9.999000000000000000e+03 -9.999000000000000000e+03 5.300000000000000266e-01 5.290000000000000258e-01 -9.999000000000000000e+03 -9.999000000000000000e+03 -9.999000000000000000e+03 5.374999999999999778e-01 5.655000000000000027e-01 5.979999999999999760e-01 -9.999000000000000000e+03 -9.999000000000000000e+03 -9.999000000000000000e+03 -9.999000000000000000e+03 -9.999000000000000000e+03 -9.999000000000000000e+03 -9.999000000000000000e+03 -9.999000000000000000e+03 -9.999000000000000000e+03
-9.999000000000000000e+03 -9.999000000000000000e+03 -9.999000000000000000e+03 -9.999000000000000000e+03 -9.999000000000000000e+03 -9.999000000000000000e+03 5.214999999999999636e-01 5.254999999999999671e-01 5.254999999999999671e-01 5.144999999999999574e-01 5.164999999999999591e-01 5.344999999999999751e-01 5.625000000000000000e-01 5.979999999999999760e-01 6.209999999999999964e-01 -9.999000000000000000e+03 -9.999000000000000000e+03 -9.999000000000000000e+03 -9.999000000000000000e+03 -9.999000000000000000e+03 -9.999000000000000000e+03 -9.999000000000000000e+03 -9.999000000000000000e+03
-9.999000000000000000e+03 -9.999000000000000000e+03 -9.999000000000000000e+03 -9.999000000000000000e+03 -9.999000000000000000e+03 -9.999000000000000000e+03 5.280000000000000249e-01 5.334999999999999742e-01 5.364999999999999769e-01 5.260000000000000231e-01 5.274999999999999689e-01 5.350000000000000311e-01 5.370000000000000329e-01 5.530000000000000471e-01 5.919999999999999707e-01 5.865000000000000213e-01 -9.999000000000000000e+03 -9.999000000000000000e+03 -9.999000000000000000e+03 -9.999000000000000000e+03 -9.999000000000000000e+03 -9.999000000000000000e+03 -9.999000000000000000e+03
-9.999000000000000000e+03 -9.999000000000000000e+03 -9.999000000000000000e+03 -9.999000000000000000e+03 -9.999000000000000000e+03 5.030000000000000027e-01 5.254999999999999671e-01 5.334999999999999742e-01 5.340000000000000302e-01 5.290000000000000258e-01 5.260000000000000231e-01 5.254999999999999671e-01 5.214999999999999636e-01 5.174999999999999600e-01 5.390000000000000346e-01 5.635000000000000009e-01 5.614999999999999991e-01 5.480000000000000426e-01 -9.999000000000000000e+03 -9.999000000000000000e+03 -9.999000000000000000e+03 -9.999000000000000000e+03 -9.999000000000000000e+03
-9.999000000000000000e+03 -9.999000000000000000e+03 -9.999000000000000000e+03 -9.999000000000000000e+03 4.730000000000000315e-01 4.969999999999999973e-01 5.174999999999999600e-01 5.284999999999999698e-01 5.274999999999999689e-01 5.284999999999999698e-01 5.250000000000000222e-01 5.230000000000000204e-01 5.354999999999999760e-01 5.304999999999999716e-01 5.240000000000000213e-01 5.354999999999999760e-01 5.380000000000000338e-01 5.320000000000000284e-01 5.204999999999999627e-01 -9.999000000000000000e+03 -9.999000000000000000e+03 -9.999000000000000000e+03 -9.999000000000000000e+03
-9.999000000000000000e+03 -9.999000000000000000e+03 6.015000000000000346e-01 5.040000000000000036e-01 4.894999999999999907e-01 5.040000000000000036e-01 5.110000000000000098e-01 5.204999999999999627e-01 5.230000000000000204e-01 5.280000000000000249e-01 5.304999999999999716e-01 5.284999999999999698e-01 5.384999999999999787e-01 5.384999999999999787e-01 5.390000000000000346e-01 5.394999999999999796e-01 5.370000000000000329e-01 5.320000000000000284e-01 5.200000000000000178e-01 5.030000000000000027e-01 5.030000000000000027e-01 5.190000000000000169e-01 -9.999000000000000000e+03
-9.999000000000000000e+03 6.414999999999999591e-01 6.105000000000000426e-01 5.230000000000000204e-01 4.785000000000000364e-01 4.854999999999999871e-01 4.949999999999999956e-01 5.124999999999999556e-01 5.284999999999999698e-01 5.324999999999999734e-01 5.360000000000000320e-01 5.394999999999999796e-01 5.330000000000000293e-01 5.284999999999999698e-01 5.304999999999999716e-01 5.344999999999999751e-01 5.364999999999999769e-01 5.304999999999999716e-01 5.180000000000000160e-01 5.045000000000000595e-01 5.164999999999999591e-01 5.310000000000000275e-01 -9.999000000000000000e+03
-9.999000000000000000e+03 6.570000000000000284e-01 6.250000000000000000e-01 5.414999999999999813e-01 4.809999999999999831e-01 4.799999999999999822e-01 4.914999999999999925e-01 5.110000000000000098e-01 5.280000000000000249e-01 5.250000000000000222e-01 5.264999999999999680e-01 5.414999999999999813e-01 5.354999999999999760e-01 5.200000000000000178e-01 5.110000000000000098e-01 5.190000000000000169e-01 5.274999999999999689e-01 5.300000000000000266e-01 5.380000000000000338e-01 5.380000000000000338e-01 5.330000000000000293e-01 -9.999000000000000000e+03 -9.999000000000000000e+03
-9.999000000000000000e+03 6.554999999999999716e-01 6.290000000000000036e-01 5.240000000000000213e-01 4.730000000000000315e-01 4.745000000000000329e-01 4.889999999999999902e-01 5.085000000000000631e-01 5.210000000000000187e-01 5.134999999999999565e-01 5.105000000000000648e-01 5.242499999999998828e-01 5.274999999999999689e-01 5.154999999999999583e-01 5.130000000000000115e-01 5.164999999999999591e-01 5.214999999999999636e-01 5.324999999999999734e-01 5.460000000000000409e-01 5.470000000000000417e-01 -9.999000000000000000e+03 -9.999000000000000000e+03 -9.999000000000000000e+03
-9.999000000000000000e+03 6.454999999999999627e-01 6.135000000000000453e-01 4.914999999999999925e-01 4.535000000000000142e-01 4.615000000000000213e-01 4.625000000000000222e-01 4.894999999999999907e-01 5.150000000000000133e-01 5.214999999999999636e-01 5.194999999999999618e-01 5.184999999999999609e-01 5.134999999999999565e-01 5.050000000000000044e-01 5.110000000000000098e-01 5.140000000000000124e-01 5.250000000000000222e-01 5.420000000000000373e-01 5.524999999999999911e-01 -9.999000000000000000e+03 -9.999000000000000000e+03 -9.999000000000000000e+03 -9.999000000000000000e+03
-9.999000000000000000e+03 6.229999999999999982e-01 6.155000000000000471e-01 5.200000000000000178e-01 4.575000000000000178e-01 4.625000000000000222e-01 4.730000000000000315e-01 4.864999999999999880e-01 5.025000000000000577e-01 5.100000000000000089e-01 5.194999999999999618e-01 5.154999999999999583e-01 5.065000000000000613e-01 4.914999999999999925e-01 -9.999000000000000000e+03 -9.999000000000000000e+03 -9.999000000000000000e+03 -9.999000000000000000e+03 -9.999000000000000000e+03 -9.999000000000000000e+03 -9.999000000000000000e+03 -9.999000000000000000e+03 -9.999000000000000000e+03
-9.999000000000000000e+03 6.075000000000000400e-01 -9.999000000000000000e+03 -9.999000000000000000e+03 -9.999000000000000000e+03 -9.999000000000000000e+03 -9.999000000000000000e+03 4.899999999999999911e-01 4.909999999999999920e-01 5.000000000000000000e-01 5.100000000000000089e-01 5.080000000000000071e-01 5.005000000000000560e-01 4.959999999999999964e-01 -9.999000000000000000e+03 -9.999000000000000000e+03 -9.999000000000000000e+03 -9.999000000000000000e+03 -9.999000000000000000e+03 -9.999000000000000000e+03 -9.999000000000000000e+03 -9.999000000000000000e+03 -9.999000000000000000e+03
-9.999000000000000000e+03 -9.999000000000000000e+03 -9.999000000000000000e+03 -9.999000000000000000e+03 -9.999000000000000000e+03 -9.999000000000000000e+03 -9.999000000000000000e+03 -9.999000000000000000e+03 4.889999999999999902e-01 4.809999999999999831e-01 4.914999999999999925e-01 5.040000000000000036e-01 5.080000000000000071e-01 -9.999000000000000000e+03 -9.999000000000000000e+03 -9.999000000000000000e+03 -9.999000000000000000e+03 -9.999000000000000000e+03 -9.999000000000000000e+03 -9.999000000000000000e+03 -9.999000000000000000e+03 -9.999000000000000000e+03 -9.999000000000000000e+03
-9.999000000000000000e+03 -9.999000000000000000e+03 -9.999000000000000000e+03 -9.999000000000000000e+03 -9.999000000000000000e+03 -9.999000000000000000e+03 -9.999000000000000000e+03 -9.999000000000000000e+03 5.090000000000000080e-01 5.012916666666665799e-01 5.060000000000000053e-01 5.105000000000000648e-01 5.115000000000000657e-01 -9.999000000000000000e+03 -9.999000000000000000e+03 -9.999000000000000000e+03 -9.999000000000000000e+03 -9.999000000000000000e+03 -9.999000000000000000e+03 -9.999000000000000000e+03 -9.999000000000000000e+03 -9.999000000000000000e+03 -9.999000000000000000e+03
-9.999000000000000000e+03 -9.999000000000000000e+03 -9.999000000000000000e+03 -9.999000000000000000e+03 -9.999000000000000000e+03 -9.999000000000000000e+03 -9.999000000000000000e+03 -9.999000000000000000e+03 -9.999000000000000000e+03 5.070000000000000062e-01 5.060000000000000053e-01 5.090000000000000080e-01 5.150000000000000133e-01 -9.999000000000000000e+03 -9.999000000000000000e+03 -9.999000000000000000e+03 -9.999000000000000000e+03 -9.999000000000000000e+03 -9.999000000000000000e+03 -9.999000000000000000e+03 -9.999000000000000000e+03 -9.999000000000000000e+03 -9.999000000000000000e+03
-9.999000000000000000e+03 -9.999000000000000000e+03 -9.999000000000000000e+03 -9.999000000000000000e+03 -9.999000000000000000e+03 -9.999000000000000000e+03 -9.999000000000000000e+03 -9.999000000000000000e+03 -9.999000000000000000e+03 -9.999000000000000000e+03 -9.999000000000000000e+03 -9.999000000000000000e+03 -9.999000000000000000e+03 -9.999000000000000000e+03 -9.999000000000000000e+03 -9.999000000000000000e+03 -9.999000000000000000e+03 -9.999000000000000000e+03 -9.999000000000000000e+03 -9.999000000000000000e+03 -9.999000000000000000e+03 -9.999000000000000000e+03 -9.999000000000000000e+03
