ncols        23
nrows        17
xllcorner    5165373.967557672411
yllcorner    3907485.103055199608
cellsize     5000.000000000000
NODATA_value  -9999
-9.999000000000000000e+03 -9.999000000000000000e+03 -9.999000000000000000e+03 -9.999000000000000000e+03 -9.999000000000000000e+03 -9.999000000000000000e+03 -9.999000000000000000e+03 -9.999000000000000000e+03 -9.999000000000000000e+03 -9.999000000000000000e+03 -9.999000000000000000e+03 -9.999000000000000000e+03 -9.999000000000000000e+03 -9.999000000000000000e+03 -9.999000000000000000e+03 -9.999000000000000000e+03 -9.999000000000000000e+03 -9.999000000000000000e+03 -9.999000000000000000e+03 -9.999000000000000000e+03 -9.999000000000000000e+03 -9.999000000000000000e+03 -9.999000000000000000e+03
-9.999000000000000000e+03 -9.999000000000000000e+03 -9.999000000000000000e+03 -9.999000000000000000e+03 -9.999000000000000000e+03 -9.999000000000000000e+03 5.320000000000000284e-01 5.380000000000000338e-01 -9.999000000000000000e+03 -9.999000000000000000e+03 -9.999000000000000000e+03 5.510000000000000453e-01 5.789999999999999591e-01 6.155000000000000471e-01 -9.999000000000000000e+03 -9.999000000000000000e+03 -9.999000000000000000e+03 -9.999000000000000000e+03 -9.999000000000000000e+03 -9.999000000000000000e+03 -9.999000000000000000e+03 -9.999000000000000000e+03 -9.999000000000000000e+03
-9.999000000000000000e+03 -9.999000000000000000e+03 -9.999000000000000000e+03 -9.999000000000000000e+03 -9.999000000000000000e+03 -9.999000000000000000e+03 5.240000000000000213e-01 5.360000000000000320e-01 5.340000000000000302e-01 5.240000000000000213e-01 5.260000000000000231e-01 5.444999999999999840e-01 5.785000000000000142e-01 6.225000000000000533e-01 6.500000000000000222e-01 -9.999000000000000000e+03 -9.999000000000000000e+03 -9.999000000000000000e+03 -9.999000000000000000e+03 -9.999000000000000000e+03 -9.999000000000000000e+03 -9.999000000000000000e+03 -9.999000000000000000e+03
-9.999000000000000000e+03 -9.999000000000000000e+03 -9.999000000000000000e+03 -9.999000000000000000e+03 -9.999000000000000000e+03 -9.999000000000000000e+03 5.244999999999999662e-01 5.360000000000000320e-01 5.424999999999999822e-01 5.320000000000000284e-01 5.324999999999999734e-01 5.440000000000000391e-01 5.534999999999999920e-01 5.765000000000000124e-01 6.189999999999999947e-01 6.095000000000000417e-01 -9.999000000000000000e+03 -9.999000000000000000e+03 -9.999000000000000000e+03 -9.999000000000000000e+03 -9.999000000000000000e+03 -9.999000000000000000e+03 -9.999000000000000000e+03
-9.999000000000000000e+03 -9.999000000000000000e+03 -9.999000000000000000e+03 -9.999000000000000000e+03 -9.999000000000000000e+03 4.859999999999999876e-01 5.180000000000000160e-01 5.320000000000000284e-01 5.380000000000000338e-01 5.330000000000000293e-01 5.284999999999999698e-01 5.284999999999999698e-01 5.260000000000000231e-01 5.264999999999999680e-01 5.504999999999999893e-01 5.760000000000000675e-01 5.735000000000000098e-01 5.584999999999999964e-01 -9.999000000000000000e+03 -9.999000000000000000e+03 -9.999000000000000000e+03 -9.999000000000000000e+03 -9.999000000000000000e+03
-9.999000000000000000e+03 -9.999000000000000000e+03 -9.999000000000000000e+03 -9.999000000000000000e+03 4.540000000000000147e-01 4.804999999999999827e-01 5.105000000000000648e-01 5.244999999999999662e-01 5.234999999999999654e-01 5.260000000000000231e-01 5.224999999999999645e-01 5.204999999999999627e-01 5.300000000000000266e-01 5.304999999999999716e-01 5.314999999999999725e-01 5.474999999999999867e-01 5.484999999999999876e-01 5.364999999999999769e-01 5.180000000000000160e-01 -9.999000000000000000e+03 -9.999000000000000000e+03 -9.999000000000000000e+03 -9.999000000000000000e+03
-9.999000000000000000e+03 -9.999000000000000000e+03 5.765000000000000124e-01 4.829999999999999849e-01 4.700000000000000289e-01 4.884999999999999898e-01 5.000000000000000000e-01 5.110000000000000098e-01 5.164999999999999591e-01 5.224999999999999645e-01 5.234999999999999654e-01 5.220000000000000195e-01 5.320000000000000284e-01 5.364999999999999769e-01 5.420000000000000373e-01 5.480000000000000426e-01 5.474999999999999867e-01 5.354999999999999760e-01 5.134999999999999565e-01 4.929999999999999938e-01 4.929999999999999938e-01 5.140000000000000124e-01 -9.999000000000000000e+03
-9.999000000000000000e+03 6.135000000000000453e-01 5.845000000000000195e-01 5.035000000000000586e-01 4.640000000000000235e-01 4.730000000000000315e-01 4.859999999999999876e-01 5.085000000000000631e-01 5.260000000000000231e-01 5.250000000000000222e-01 5.274999999999999689e-01 5.344999999999999751e-01 5.320000000000000284e-01 5.294999999999999707e-01 5.360000000000000320e-01 5.374999999999999778e-01 5.380000000000000338e-01 5.310000000000000275e-01 5.124999999999999556e-01 4.904999999999999916e-01 5.000000000000000000e-01 5.210000000000000187e-01 -9.999000000000000000e+03
-9.999000000000000000e+03 6.275000000000000577e-01 6.015000000000000346e-01 5.260000000000000231e-01 4.675000000000000266e-01 4.695000000000000284e-01 4.839999999999999858e-01 5.050000000000000044e-01 5.224999999999999645e-01 5.160000000000000142e-01 5.154999999999999583e-01 5.350000000000000311e-01 5.344999999999999751e-01 5.230000000000000204e-01 5.170000000000000151e-01 5.214999999999999636e-01 5.280000000000000249e-01 5.304999999999999716e-01 5.314999999999999725e-01 5.240000000000000213e-01 5.134999999999999565e-01 -9.999000000000000000e+03 -9.999000000000000000e+03
-9.999000000000000000e+03 6.229999999999999982e-01 5.999999999999999778e-01 5.065000000000000613e-01 4.675000000000000266e-01 4.750000000000000333e-01 4.914999999999999925e-01 5.045000000000000595e-01 5.150000000000000133e-01 5.045000000000000595e-01 4.979999999999999982e-01 5.162499999999999867e-01 5.234999999999999654e-01 5.170000000000000151e-01 5.194999999999999618e-01 5.170000000000000151e-01 5.200000000000000178e-01 5.270000000000000240e-01 5.350000000000000311e-01 5.310000000000000275e-01 -9.999000000000000000e+03 -9.999000000000000000e+03 -9.999000000000000000e+03
-9.999000000000000000e+03 6.075000000000000400e-01 5.805000000000000160e-01 4.655000000000000249e-01 4.344999999999999973e-01 4.545000000000000151e-01 4.655000000000000249e-01 4.909999999999999920e-01 5.134999999999999565e-01 5.140000000000000124e-01 5.090000000000000080e-01 5.090000000000000080e-01 5.050000000000000044e-01 5.015000000000000568e-01 5.100000000000000089e-01 5.095000000000000639e-01 5.164999999999999591e-01 5.334999999999999742e-01 5.454999999999999849e-01 -9.999000000000000000e+03 -9.999000000000000000e+03 -9.999000000000000000e+03 -9.999000000000000000e+03
-9.999000000000000000e+03 5.859999999999999654e-01 5.785000000000000142e-01 4.859999999999999876e-01 4.294999999999999929e-01 4.485000000000000098e-01 4.705000000000000293e-01 4.854999999999999871e-01 5.030000000000000027e-01 5.100000000000000089e-01 5.150000000000000133e-01 5.100000000000000089e-01 5.005000000000000560e-01 4.874999999999999889e-01 -9.999000000000000000e+03 -9.999000000000000000e+03 -9.999000000000000000e+03 -9.999000000000000000e+03 -9.999000000000000000e+03 -9.999000000000000000e+03 -9.999000000000000000e+03 -9.999000000000000000e+03 -9.999000000000000000e+03
-9.999000000000000000e+03 5.730000000000000648e-01 -9.999000000000000000e+03 -9.999000000000000000e+03 -9.999000000000000000e+03 -9.999000000000000000e+03 -9.999000000000000000e+03 4.834999999999999853e-01 4.919999999999999929e-01 5.000000000000000000e-01 5.025000000000000577e-01 4.974999999999999978e-01 4.924999999999999933e-01 4.914999999999999925e-01 -9.999000000000000000e+03 -9.999000000000000000e+03 -9.999000000000000000e+03 -9.999000000000000000e+03 -9.999000000000000000e+03 -9.999000000000000000e+03 -9.999000000000000000e+03 -9.999000000000000000e+03 -9.999000000000000000e+03
-9.999000000000000000e+03 -9.999000000000000000e+03 -9.999000000000000000e+03 -9.999000000000000000e+03 -9.999000000000000000e+03 -9.999000000000000000e+03 -9.999000000000000000e+03 -9.999000000000000000e+03 4.974999999999999978e-01 4.804999999999999827e-01 4.819999999999999840e-01 4.924999999999999933e-01 5.010000000000000009e-01 -9.999000000000000000e+03 -9.999000000000000000e+03 -9.999000000000000000e+03 -9.999000000000000000e+03 -9.999000000000000000e+03 -9.999000000000000000e+03 -9.999000000000000000e+03 -9.999000000000000000e+03 -9.999000000000000000e+03 -9.999000000000000000e+03
-9.999000000000000000e+03 -9.999000000000000000e+03 -9.999000000000000000e+03 -9.999000000000000000e+03 -9.999000000000000000e+03 -9.999000000000000000e+03 -9.999000000000000000e+03 -9.999000000000000000e+03 5.150000000000000133e-01 4.998333333333332962e-01 5.010000000000000009e-01 5.000000000000000000e-01 5.000000000000000000e-01 -9.999000000000000000e+03 -9.999000000000000000e+03 -9.999000000000000000e+03 -9.999000000000000000e+03 -9.999000000000000000e+03 -9.999000000000000000e+03 -9.999000000000000000e+03 -9.999000000000000000e+03 -9.999000000000000000e+03 -9.999000000000000000e+03
-9.999000000000000000e+03 -9.999000000000000000e+03 -9.999000000000000000e+03 -9.999000000000000000e+03 -9.999000000000000000e+03 -9.999000000000000000e+03 -9.999000000000000000e+03 -9.999000000000000000e+03 -9.999000000000000000e+03 5.025000000000000577e-01 5.015000000000000568e-01 5.010000000000000009e-01 5.030000000000000027e-01 -9.999000000000000000e+03 -9.999000000000000000e+03 -9.999000000000000000e+03 -9.999000000000000000e+03 -9.999000000000000000e+03 -9.999000000000000000e+03 -9.999000000000000000e+03 -9.999000000000000000e+03 -9.999000000000000000e+03 -9.999000000000000000e+03
-9.999000000000000000e+03 -9.999000000000000000e+03 -9.999000000000000000e+03 -9.999000000000000000e+03 -9.999000000000000000e+03 -9.999000000000000000e+03 -9.999000000000000000e+03 -9.999000000000000000e+03 -9.999000000000000000e+03 -9.999000000000000000e+03 -9.999000000000000000e+03 -9.999000000000000000e+03 -9.999000000000000000e+03 -9.999000000000000000e+03 -9.999000000000000000e+03 -9.999000000000000000e+03 -9.999000000000000000e+03 -9.999000000000000000e+03 -9.999000000000000000e+03 -9.999000000000000000e+03 -9.999000000000000000e+03 -9.999000000000000000e+03 -9.999000000000000000e+03
