ncols        23
nrows        17
xllcorner    5165373.967557672411
yllcorner    3907485.103055199608
cellsize     5000.000000000000
NODATA_value  -9999
-9.999000000000000000e+03 -9.999000000000000000e+03 -9.999000000000000000e+03 -9.999000000000000000e+03 -9.999000000000000000e+03 -9.999000000000000000e+03 -9.999000000000000000e+03 -9.999000000000000000e+03 -9.999000000000000000e+03 -9.999000000000000000e+03 -9.999000000000000000e+03 -9.999000000000000000e+03 -9.999000000000000000e+03 -9.999000000000000000e+03 -9.999000000000000000e+03 -9.999000000000000000e+03 -9.999000000000000000e+03 -9.999000000000000000e+03 -9.999000000000000000e+03 -9.999000000000000000e+03 -9.999000000000000000e+03 -9.999000000000000000e+03 -9.999000000000000000e+03
-9.999000000000000000e+03 -9.999000000000000000e+03 -9.999000000000000000e+03 -9.999000000000000000e+03 -9.999000000000000000e+03 -9.999000000000000000e+03 5.095000000000000639e-01 5.184999999999999609e-01 -9.999000000000000000e+03 -9.999000000000000000e+03 -9.999000000000000000e+03 5.264999999999999680e-01 5.584999999999999964e-01 5.905000000000000249e-01 -9.999000000000000000e+03 -9.999000000000000000e+03 -9.999000000000000000e+03 -9.999000000000000000e+03 -9.999000000000000000e+03 -9.999000000000000000e+03 -9.999000000000000000e+03 -9.999000000000000000e+03 -9.999000000000000000e+03
-9.999000000000000000e+03 -9.999000000000000000e+03 -9.999000000000000000e+03 -9.999000000000000000e+03 -9.999000000000000000e+03 -9.999000000000000000e+03 5.030000000000000027e-01 5.164999999999999591e-01 5.110000000000000098e-01 5.040000000000000036e-01 5.025000000000000577e-01 5.214999999999999636e-01 5.534999999999999920e-01 5.885000000000000231e-01 6.159999999999999920e-01 -9.999000000000000000e+03 -9.999000000000000000e+03 -9.999000000000000000e+03 -9.999000000000000000e+03 -9.999000000000000000e+03 -9.999000000000000000e+03 -9.999000000000000000e+03 -9.999000000000000000e+03
-9.999000000000000000e+03 -9.999000000000000000e+03 -9.999000000000000000e+03 -9.999000000000000000e+03 -9.999000000000000000e+03 -9.999000000000000000e+03 4.949999999999999956e-01 5.130000000000000115e-01 5.184999999999999609e-01 5.030000000000000027e-01 5.020000000000000018e-01 5.124999999999999556e-01 5.184999999999999609e-01 5.374999999999999778e-01 5.819999999999999618e-01 5.775000000000000133e-01 -9.999000000000000000e+03 -9.999000000000000000e+03 -9.999000000000000000e+03 -9.999000000000000000e+03 -9.999000000000000000e+03 -9.999000000000000000e+03 -9.999000000000000000e+03
-9.999000000000000000e+03 -9.999000000000000000e+03 -9.999000000000000000e+03 -9.999000000000000000e+03 -9.999000000000000000e+03 4.455000000000000071e-01 4.854999999999999871e-01 5.035000000000000586e-01 5.060000000000000053e-01 4.954999999999999960e-01 4.909999999999999920e-01 4.874999999999999889e-01 4.844999999999999862e-01 4.904999999999999916e-01 5.210000000000000187e-01 5.474999999999999867e-01 5.440000000000000391e-01 5.210000000000000187e-01 -9.999000000000000000e+03 -9.999000000000000000e+03 -9.999000000000000000e+03 -9.999000000000000000e+03 -9.999000000000000000e+03
-9.999000000000000000e+03 -9.999000000000000000e+03 -9.999000000000000000e+03 -9.999000000000000000e+03 4.239999999999999880e-01 4.495000000000000107e-01 4.834999999999999853e-01 4.924999999999999933e-01 4.809999999999999831e-01 4.829999999999999849e-01 4.809999999999999831e-01 4.775000000000000355e-01 4.799999999999999822e-01 4.824999999999999845e-01 4.894999999999999907e-01 5.100000000000000089e-01 5.120000000000000107e-01 4.899999999999999911e-01 4.655000000000000249e-01 -9.999000000000000000e+03 -9.999000000000000000e+03 -9.999000000000000000e+03 -9.999000000000000000e+03
-9.999000000000000000e+03 -9.999000000000000000e+03 5.144999999999999574e-01 4.460000000000000075e-01 4.400000000000000022e-01 4.630000000000000226e-01 4.760000000000000342e-01 4.735000000000000320e-01 4.735000000000000320e-01 4.770000000000000351e-01 4.735000000000000320e-01 4.730000000000000315e-01 4.785000000000000364e-01 4.735000000000000320e-01 4.804999999999999827e-01 4.929999999999999938e-01 5.000000000000000000e-01 4.864999999999999880e-01 4.640000000000000235e-01 4.525000000000000133e-01 4.525000000000000133e-01 4.765000000000000346e-01 -9.999000000000000000e+03
-9.999000000000000000e+03 5.590000000000000524e-01 5.200000000000000178e-01 4.525000000000000133e-01 4.314999999999999947e-01 4.445000000000000062e-01 4.620000000000000218e-01 4.755000000000000338e-01 4.874999999999999889e-01 4.785000000000000364e-01 4.745000000000000329e-01 4.804999999999999827e-01 4.730000000000000315e-01 4.615000000000000213e-01 4.695000000000000284e-01 4.760000000000000342e-01 4.844999999999999862e-01 4.809999999999999831e-01 4.640000000000000235e-01 4.400000000000000022e-01 4.465000000000000080e-01 4.745000000000000329e-01 -9.999000000000000000e+03
-9.999000000000000000e+03 5.789999999999999591e-01 5.320000000000000284e-01 4.630000000000000226e-01 4.309999999999999942e-01 4.415000000000000036e-01 4.575000000000000178e-01 4.730000000000000315e-01 4.819999999999999840e-01 4.675000000000000266e-01 4.635000000000000231e-01 4.889999999999999902e-01 4.854999999999999871e-01 4.655000000000000249e-01 4.500000000000000111e-01 4.595000000000000195e-01 4.705000000000000293e-01 4.725000000000000311e-01 4.655000000000000249e-01 4.560000000000000164e-01 4.485000000000000098e-01 -9.999000000000000000e+03 -9.999000000000000000e+03
-9.999000000000000000e+03 5.755000000000000115e-01 5.310000000000000275e-01 4.575000000000000178e-01 4.400000000000000022e-01 4.500000000000000111e-01 4.600000000000000200e-01 4.725000000000000311e-01 4.824999999999999845e-01 4.680000000000000271e-01 4.535000000000000142e-01 4.692916666666666070e-01 4.780000000000000360e-01 4.600000000000000200e-01 4.595000000000000195e-01 4.595000000000000195e-01 4.625000000000000222e-01 4.655000000000000249e-01 4.620000000000000218e-01 4.585000000000000187e-01 -9.999000000000000000e+03 -9.999000000000000000e+03 -9.999000000000000000e+03
-9.999000000000000000e+03 5.630000000000000560e-01 5.240000000000000213e-01 4.269999999999999907e-01 4.115000000000000324e-01 4.349999999999999978e-01 4.425000000000000044e-01 4.605000000000000204e-01 4.700000000000000289e-01 4.635000000000000231e-01 4.590000000000000191e-01 4.625000000000000222e-01 4.575000000000000178e-01 4.465000000000000080e-01 4.560000000000000164e-01 4.545000000000000151e-01 4.525000000000000133e-01 4.605000000000000204e-01 4.680000000000000271e-01 -9.999000000000000000e+03 -9.999000000000000000e+03 -9.999000000000000000e+03 -9.999000000000000000e+03
-9.999000000000000000e+03 5.484999999999999876e-01 5.304999999999999716e-01 4.465000000000000080e-01 4.085000000000000298e-01 4.324999999999999956e-01 4.515000000000000124e-01 4.550000000000000155e-01 4.570000000000000173e-01 4.520000000000000129e-01 4.595000000000000195e-01 4.580000000000000182e-01 4.450000000000000067e-01 4.284999999999999920e-01 -9.999000000000000000e+03 -9.999000000000000000e+03 -9.999000000000000000e+03 -9.999000000000000000e+03 -9.999000000000000000e+03 -9.999000000000000000e+03 -9.999000000000000000e+03 -9.999000000000000000e+03 -9.999000000000000000e+03
-9.999000000000000000e+03 5.364999999999999769e-01 -9.999000000000000000e+03 -9.999000000000000000e+03 -9.999000000000000000e+03 -9.999000000000000000e+03 -9.999000000000000000e+03 4.550000000000000155e-01 4.550000000000000155e-01 4.425000000000000044e-01 4.375000000000000000e-01 4.385000000000000009e-01 4.269999999999999907e-01 4.234999999999999876e-01 -9.999000000000000000e+03 -9.999000000000000000e+03 -9.999000000000000000e+03 -9.999000000000000000e+03 -9.999000000000000000e+03 -9.999000000000000000e+03 -9.999000000000000000e+03 -9.999000000000000000e+03 -9.999000000000000000e+03
-9.999000000000000000e+03 -9.999000000000000000e+03 -9.999000000000000000e+03 -9.999000000000000000e+03 -9.999000000000000000e+03 -9.999000000000000000e+03 -9.999000000000000000e+03 -9.999000000000000000e+03 4.565000000000000169e-01 4.164999999999999813e-01 4.095000000000000306e-01 4.234999999999999876e-01 4.309999999999999942e-01 -9.999000000000000000e+03 -9.999000000000000000e+03 -9.999000000000000000e+03 -9.999000000000000000e+03 -9.999000000000000000e+03 -9.999000000000000000e+03 -9.999000000000000000e+03 -9.999000000000000000e+03 -9.999000000000000000e+03 -9.999000000000000000e+03
-9.999000000000000000e+03 -9.999000000000000000e+03 -9.999000000000000000e+03 -9.999000000000000000e+03 -9.999000000000000000e+03 -9.999000000000000000e+03 -9.999000000000000000e+03 -9.999000000000000000e+03 4.625000000000000222e-01 4.360416666666666052e-01 4.254999999999999893e-01 4.244999999999999885e-01 4.249999999999999889e-01 -9.999000000000000000e+03 -9.999000000000000000e+03 -9.999000000000000000e+03 -9.999000000000000000e+03 -9.999000000000000000e+03 -9.999000000000000000e+03 -9.999000000000000000e+03 -9.999000000000000000e+03 -9.999000000000000000e+03 -9.999000000000000000e+03
-9.999000000000000000e+03 -9.999000000000000000e+03 -9.999000000000000000e+03 -9.999000000000000000e+03 -9.999000000000000000e+03 -9.999000000000000000e+03 -9.999000000000000000e+03 -9.999000000000000000e+03 -9.999000000000000000e+03 4.359999999999999987e-01 4.209999999999999853e-01 4.160000000000000364e-01 4.204999999999999849e-01 -9.999000000000000000e+03 -9.999000000000000000e+03 -9.999000000000000000e+03 -9.999000000000000000e+03 -9.999000000000000000e+03 -9.999000000000000000e+03 -9.999000000000000000e+03 -9.999000000000000000e+03 -9.999000000000000000e+03 -9.999000000000000000e+03
-9.999000000000000000e+03 -9.999000000000000000e+03 -9.999000000000000000e+03 -9.999000000000000000e+03 -9.999000000000000000e+03 -9.999000000000000000e+03 -9.999000000000000000e+03 -9.999000000000000000e+03 -9.999000000000000000e+03 -9.999000000000000000e+03 -9.999000000000000000e+03 -9.999000000000000000e+03 -9.999000000000000000e+03 -9.999000000000000000e+03 -9.999000000000000000e+03 -9.999000000000000000e+03 -9.999000000000000000e+03 -9.999000000000000000e+03 -9.999000000000000000e+03 -9.999000000000000000e+03 -9.999000000000000000e+03 -9.999000000000000000e+03 -9.999000000000000000e+03
