ncols        23
nrows        17
xllcorner    5165373.967557672411
yllcorner    3907485.103055199608
cellsize     5000.000000000000
NODATA_value  -9999
-9.999000000000000000e+03 -9.999000000000000000e+03 -9.999000000000000000e+03 -9.999000000000000000e+03 -9.999000000000000000e+03 -9.999000000000000000e+03 -9.999000000000000000e+03 -9.999000000000000000e+03 -9.999000000000000000e+03 -9.999000000000000000e+03 -9.999000000000000000e+03 -9.999000000000000000e+03 -9.999000000000000000e+03 -9.999000000000000000e+03 -9.999000000000000000e+03 -9.999000000000000000e+03 -9.999000000000000000e+03 -9.999000000000000000e+03 -9.999000000000000000e+03 -9.999000000000000000e+03 -9.999000000000000000e+03 -9.999000000000000000e+03 -9.999000000000000000e+03
-9.999000000000000000e+03 -9.999000000000000000e+03 -9.999000000000000000e+03 -9.999000000000000000e+03 -9.999000000000000000e+03 -9.999000000000000000e+03 3.335000000000000187e-01 3.345000000000000195e-01 -9.999000000000000000e+03 -9.999000000000000000e+03 -9.999000000000000000e+03 3.114999999999999991e-01 2.884999999999999787e-01 2.560000000000000053e-01 -9.999000000000000000e+03 -9.999000000000000000e+03 -9.999000000000000000e+03 -9.999000000000000000e+03 -9.999000000000000000e+03 -9.999000000000000000e+03 -9.999000000000000000e+03 -9.999000000000000000e+03 -9.999000000000000000e+03
-9.999000000000000000e+03 -9.999000000000000000e+03 -9.999000000000000000e+03 -9.999000000000000000e+03 -9.999000000000000000e+03 -9.999000000000000000e+03 3.435000000000000275e-01 3.390000000000000235e-01 3.350000000000000200e-01 3.365000000000000213e-01 3.315000000000000169e-01 3.180000000000000049e-01 2.909999999999999809e-01 2.505000000000000004e-01 2.295000000000000095e-01 -9.999000000000000000e+03 -9.999000000000000000e+03 -9.999000000000000000e+03 -9.999000000000000000e+03 -9.999000000000000000e+03 -9.999000000000000000e+03 -9.999000000000000000e+03 -9.999000000000000000e+03
-9.999000000000000000e+03 -9.999000000000000000e+03 -9.999000000000000000e+03 -9.999000000000000000e+03 -9.999000000000000000e+03 -9.999000000000000000e+03 3.410000000000000253e-01 3.400000000000000244e-01 3.285000000000000142e-01 3.345000000000000195e-01 3.320000000000000173e-01 3.180000000000000049e-01 3.029999999999999916e-01 2.805000000000000271e-01 2.540000000000000036e-01 2.660000000000000142e-01 -9.999000000000000000e+03 -9.999000000000000000e+03 -9.999000000000000000e+03 -9.999000000000000000e+03 -9.999000000000000000e+03 -9.999000000000000000e+03 -9.999000000000000000e+03
-9.999000000000000000e+03 -9.999000000000000000e+03 -9.999000000000000000e+03 -9.999000000000000000e+03 -9.999000000000000000e+03 3.634999999999999898e-01 3.475000000000000311e-01 3.380000000000000226e-01 3.335000000000000187e-01 3.380000000000000226e-01 3.395000000000000240e-01 3.255000000000000115e-01 3.225000000000000089e-01 3.200000000000000067e-01 3.044999999999999929e-01 2.909999999999999809e-01 2.969999999999999862e-01 3.059999999999999942e-01 -9.999000000000000000e+03 -9.999000000000000000e+03 -9.999000000000000000e+03 -9.999000000000000000e+03 -9.999000000000000000e+03
-9.999000000000000000e+03 -9.999000000000000000e+03 -9.999000000000000000e+03 -9.999000000000000000e+03 3.755000000000000004e-01 3.644999999999999907e-01 3.524999999999999800e-01 3.420000000000000262e-01 3.425000000000000266e-01 3.405000000000000249e-01 3.390000000000000235e-01 3.320000000000000173e-01 3.155000000000000027e-01 3.099999999999999978e-01 3.175000000000000044e-01 3.215000000000000080e-01 3.275000000000000133e-01 3.255000000000000115e-01 3.290000000000000147e-01 -9.999000000000000000e+03 -9.999000000000000000e+03 -9.999000000000000000e+03 -9.999000000000000000e+03
-9.999000000000000000e+03 -9.999000000000000000e+03 2.515000000000000013e-01 3.420000000000000262e-01 3.649999999999999911e-01 3.574999999999999845e-01 3.564999999999999836e-01 3.500000000000000333e-01 3.450000000000000289e-01 3.390000000000000235e-01 3.265000000000000124e-01 3.245000000000000107e-01 3.145000000000000018e-01 3.094999999999999973e-01 3.135000000000000009e-01 3.180000000000000049e-01 3.260000000000000120e-01 3.335000000000000187e-01 3.380000000000000226e-01 3.375000000000000222e-01 3.320000000000000173e-01 3.170000000000000040e-01 -9.999000000000000000e+03
-9.999000000000000000e+03 2.250000000000000056e-01 2.439999999999999947e-01 3.225000000000000089e-01 3.785000000000000031e-01 3.780000000000000027e-01 3.679999999999999938e-01 3.569999999999999840e-01 3.470000000000000306e-01 3.420000000000000262e-01 3.265000000000000124e-01 3.205000000000000071e-01 3.240000000000000102e-01 3.245000000000000107e-01 3.210000000000000075e-01 3.220000000000000084e-01 3.270000000000000129e-01 3.275000000000000133e-01 3.330000000000000182e-01 3.390000000000000235e-01 3.340000000000000191e-01 3.185000000000000053e-01 -9.999000000000000000e+03
-9.999000000000000000e+03 2.159999999999999976e-01 2.315000000000000113e-01 3.044999999999999929e-01 3.755000000000000004e-01 3.815000000000000058e-01 3.724999999999999978e-01 3.599999999999999867e-01 3.470000000000000306e-01 3.450000000000000289e-01 3.325000000000000178e-01 3.140000000000000013e-01 3.200000000000000067e-01 3.275000000000000133e-01 3.340000000000000191e-01 3.350000000000000200e-01 3.300000000000000155e-01 3.225000000000000089e-01 3.175000000000000044e-01 3.220000000000000084e-01 3.290000000000000147e-01 -9.999000000000000000e+03 -9.999000000000000000e+03
-9.999000000000000000e+03 2.200000000000000011e-01 2.375000000000000167e-01 3.295000000000000151e-01 3.800000000000000044e-01 3.790000000000000036e-01 3.674999999999999933e-01 3.569999999999999840e-01 3.470000000000000306e-01 3.490000000000000324e-01 3.495000000000000329e-01 3.351666666666666128e-01 3.290000000000000147e-01 3.360000000000000209e-01 3.345000000000000195e-01 3.385000000000000231e-01 3.355000000000000204e-01 3.225000000000000089e-01 3.170000000000000040e-01 3.180000000000000049e-01 -9.999000000000000000e+03 -9.999000000000000000e+03 -9.999000000000000000e+03
-9.999000000000000000e+03 2.260000000000000064e-01 2.530000000000000027e-01 3.654999999999999916e-01 4.000000000000000222e-01 3.875000000000000111e-01 3.865000000000000102e-01 3.669999999999999929e-01 3.465000000000000302e-01 3.430000000000000271e-01 3.455000000000000293e-01 3.445000000000000284e-01 3.500000000000000333e-01 3.544999999999999818e-01 3.430000000000000271e-01 3.405000000000000249e-01 3.375000000000000222e-01 3.225000000000000089e-01 3.130000000000000004e-01 -9.999000000000000000e+03 -9.999000000000000000e+03 -9.999000000000000000e+03 -9.999000000000000000e+03
-9.999000000000000000e+03 2.414999999999999925e-01 2.510000000000000009e-01 3.500000000000000333e-01 4.065000000000000280e-01 3.930000000000000160e-01 3.785000000000000031e-01 3.674999999999999933e-01 3.524999999999999800e-01 3.430000000000000271e-01 3.450000000000000289e-01 3.529999999999999805e-01 3.579999999999999849e-01 3.684999999999999942e-01 -9.999000000000000000e+03 -9.999000000000000000e+03 -9.999000000000000000e+03 -9.999000000000000000e+03 -9.999000000000000000e+03 -9.999000000000000000e+03 -9.999000000000000000e+03 -9.999000000000000000e+03 -9.999000000000000000e+03
-9.999000000000000000e+03 2.434999999999999942e-01 -9.999000000000000000e+03 -9.999000000000000000e+03 -9.999000000000000000e+03 -9.999000000000000000e+03 -9.999000000000000000e+03 3.669999999999999929e-01 3.594999999999999862e-01 3.455000000000000293e-01 3.450000000000000289e-01 3.584999999999999853e-01 3.639999999999999902e-01 3.639999999999999902e-01 -9.999000000000000000e+03 -9.999000000000000000e+03 -9.999000000000000000e+03 -9.999000000000000000e+03 -9.999000000000000000e+03 -9.999000000000000000e+03 -9.999000000000000000e+03 -9.999000000000000000e+03 -9.999000000000000000e+03
-9.999000000000000000e+03 -9.999000000000000000e+03 -9.999000000000000000e+03 -9.999000000000000000e+03 -9.999000000000000000e+03 -9.999000000000000000e+03 -9.999000000000000000e+03 -9.999000000000000000e+03 3.475000000000000311e-01 3.519999999999999796e-01 3.519999999999999796e-01 3.549999999999999822e-01 3.569999999999999840e-01 -9.999000000000000000e+03 -9.999000000000000000e+03 -9.999000000000000000e+03 -9.999000000000000000e+03 -9.999000000000000000e+03 -9.999000000000000000e+03 -9.999000000000000000e+03 -9.999000000000000000e+03 -9.999000000000000000e+03 -9.999000000000000000e+03
-9.999000000000000000e+03 -9.999000000000000000e+03 -9.999000000000000000e+03 -9.999000000000000000e+03 -9.999000000000000000e+03 -9.999000000000000000e+03 -9.999000000000000000e+03 -9.999000000000000000e+03 3.235000000000000098e-01 3.333333333333333148e-01 3.340000000000000191e-01 3.495000000000000329e-01 3.589999999999999858e-01 -9.999000000000000000e+03 -9.999000000000000000e+03 -9.999000000000000000e+03 -9.999000000000000000e+03 -9.999000000000000000e+03 -9.999000000000000000e+03 -9.999000000000000000e+03 -9.999000000000000000e+03 -9.999000000000000000e+03 -9.999000000000000000e+03
-9.999000000000000000e+03 -9.999000000000000000e+03 -9.999000000000000000e+03 -9.999000000000000000e+03 -9.999000000000000000e+03 -9.999000000000000000e+03 -9.999000000000000000e+03 -9.999000000000000000e+03 -9.999000000000000000e+03 3.195000000000000062e-01 3.285000000000000142e-01 3.480000000000000315e-01 3.500000000000000333e-01 -9.999000000000000000e+03 -9.999000000000000000e+03 -9.999000000000000000e+03 -9.999000000000000000e+03 -9.999000000000000000e+03 -9.999000000000000000e+03 -9.999000000000000000e+03 -9.999000000000000000e+03 -9.999000000000000000e+03 -9.999000000000000000e+03
-9.999000000000000000e+03 -9.999000000000000000e+03 -9.999000000000000000e+03 -9.999000000000000000e+03 -9.999000000000000000e+03 -9.999000000000000000e+03 -9.999000000000000000e+03 -9.999000000000000000e+03 -9.999000000000000000e+03 -9.999000000000000000e+03 -9.999000000000000000e+03 -9.999000000000000000e+03 -9.999000000000000000e+03 -9.999000000000000000e+03 -9.999000000000000000e+03 -9.999000000000000000e+03 -9.999000000000000000e+03 -9.999000000000000000e+03 -9.999000000000000000e+03 -9.999000000000000000e+03 -9.999000000000000000e+03 -9.999000000000000000e+03 -9.999000000000000000e+03
