ncols        23
nrows        17
xllcorner    5165373.967557672411
yllcorner    3907485.103055199608
cellsize     5000.000000000000
NODATA_value  -9999
-9.999000000000000000e+03 -9.999000000000000000e+03 -9.999000000000000000e+03 -9.999000000000000000e+03 -9.999000000000000000e+03 -9.999000000000000000e+03 -9.999000000000000000e+03 -9.999000000000000000e+03 -9.999000000000000000e+03 -9.999000000000000000e+03 -9.999000000000000000e+03 -9.999000000000000000e+03 -9.999000000000000000e+03 -9.999000000000000000e+03 -9.999000000000000000e+03 -9.999000000000000000e+03 -9.999000000000000000e+03 -9.999000000000000000e+03 -9.999000000000000000e+03 -9.999000000000000000e+03 -9.999000000000000000e+03 -9.999000000000000000e+03 -9.999000000000000000e+03
-9.999000000000000000e+03 -9.999000000000000000e+03 -9.999000000000000000e+03 -9.999000000000000000e+03 -9.999000000000000000e+03 -9.999000000000000000e+03 3.510000000000000342e-01 3.529999999999999805e-01 -9.999000000000000000e+03 -9.999000000000000000e+03 -9.999000000000000000e+03 3.310000000000000164e-01 3.079999999999999960e-01 2.770000000000000240e-01 -9.999000000000000000e+03 -9.999000000000000000e+03 -9.999000000000000000e+03 -9.999000000000000000e+03 -9.999000000000000000e+03 -9.999000000000000000e+03 -9.999000000000000000e+03 -9.999000000000000000e+03 -9.999000000000000000e+03
-9.999000000000000000e+03 -9.999000000000000000e+03 -9.999000000000000000e+03 -9.999000000000000000e+03 -9.999000000000000000e+03 -9.999000000000000000e+03 3.584999999999999853e-01 3.589999999999999858e-01 3.579999999999999849e-01 3.599999999999999867e-01 3.539999999999999813e-01 3.385000000000000231e-01 3.119999999999999996e-01 2.760000000000000231e-01 2.590000000000000080e-01 -9.999000000000000000e+03 -9.999000000000000000e+03 -9.999000000000000000e+03 -9.999000000000000000e+03 -9.999000000000000000e+03 -9.999000000000000000e+03 -9.999000000000000000e+03 -9.999000000000000000e+03
-9.999000000000000000e+03 -9.999000000000000000e+03 -9.999000000000000000e+03 -9.999000000000000000e+03 -9.999000000000000000e+03 -9.999000000000000000e+03 3.529999999999999805e-01 3.549999999999999822e-01 3.480000000000000315e-01 3.524999999999999800e-01 3.519999999999999796e-01 3.410000000000000253e-01 3.270000000000000129e-01 3.049999999999999933e-01 2.825000000000000289e-01 2.909999999999999809e-01 -9.999000000000000000e+03 -9.999000000000000000e+03 -9.999000000000000000e+03 -9.999000000000000000e+03 -9.999000000000000000e+03 -9.999000000000000000e+03 -9.999000000000000000e+03
-9.999000000000000000e+03 -9.999000000000000000e+03 -9.999000000000000000e+03 -9.999000000000000000e+03 -9.999000000000000000e+03 3.659999999999999920e-01 3.579999999999999849e-01 3.524999999999999800e-01 3.495000000000000329e-01 3.554999999999999827e-01 3.584999999999999853e-01 3.465000000000000302e-01 3.415000000000000258e-01 3.370000000000000218e-01 3.215000000000000080e-01 3.094999999999999973e-01 3.165000000000000036e-01 3.285000000000000142e-01 -9.999000000000000000e+03 -9.999000000000000000e+03 -9.999000000000000000e+03 -9.999000000000000000e+03 -9.999000000000000000e+03
-9.999000000000000000e+03 -9.999000000000000000e+03 -9.999000000000000000e+03 -9.999000000000000000e+03 3.840000000000000080e-01 3.714999999999999969e-01 3.639999999999999902e-01 3.574999999999999845e-01 3.564999999999999836e-01 3.529999999999999805e-01 3.534999999999999809e-01 3.475000000000000311e-01 3.320000000000000173e-01 3.285000000000000142e-01 3.360000000000000209e-01 3.385000000000000231e-01 3.425000000000000266e-01 3.425000000000000266e-01 3.465000000000000302e-01 -9.999000000000000000e+03 -9.999000000000000000e+03 -9.999000000000000000e+03 -9.999000000000000000e+03
-9.999000000000000000e+03 -9.999000000000000000e+03 2.645000000000000129e-01 3.529999999999999805e-01 3.739999999999999991e-01 3.649999999999999911e-01 3.659999999999999920e-01 3.579999999999999849e-01 3.554999999999999827e-01 3.510000000000000342e-01 3.380000000000000226e-01 3.370000000000000218e-01 3.310000000000000164e-01 3.285000000000000142e-01 3.315000000000000169e-01 3.375000000000000222e-01 3.415000000000000258e-01 3.455000000000000293e-01 3.500000000000000333e-01 3.500000000000000333e-01 3.440000000000000280e-01 3.325000000000000178e-01 -9.999000000000000000e+03
-9.999000000000000000e+03 2.295000000000000095e-01 2.555000000000000049e-01 3.345000000000000195e-01 3.900000000000000133e-01 3.870000000000000107e-01 3.790000000000000036e-01 3.669999999999999929e-01 3.569999999999999840e-01 3.495000000000000329e-01 3.355000000000000204e-01 3.365000000000000213e-01 3.440000000000000280e-01 3.475000000000000311e-01 3.460000000000000298e-01 3.450000000000000289e-01 3.425000000000000266e-01 3.385000000000000231e-01 3.420000000000000262e-01 3.490000000000000324e-01 3.445000000000000284e-01 3.325000000000000178e-01 -9.999000000000000000e+03
-9.999000000000000000e+03 2.200000000000000011e-01 2.419999999999999929e-01 3.180000000000000049e-01 3.880000000000000115e-01 3.910000000000000142e-01 3.840000000000000080e-01 3.699999999999999956e-01 3.584999999999999853e-01 3.549999999999999822e-01 3.415000000000000258e-01 3.265000000000000124e-01 3.380000000000000226e-01 3.554999999999999827e-01 3.664999999999999925e-01 3.609999999999999876e-01 3.465000000000000302e-01 3.345000000000000195e-01 3.275000000000000133e-01 3.325000000000000178e-01 3.405000000000000249e-01 -9.999000000000000000e+03 -9.999000000000000000e+03
-9.999000000000000000e+03 2.220000000000000029e-01 2.459999999999999964e-01 3.440000000000000280e-01 3.980000000000000204e-01 3.980000000000000204e-01 3.840000000000000080e-01 3.659999999999999920e-01 3.599999999999999867e-01 3.644999999999999907e-01 3.614999999999999880e-01 3.501250000000000195e-01 3.505000000000000338e-01 3.654999999999999916e-01 3.684999999999999942e-01 3.664999999999999925e-01 3.549999999999999822e-01 3.355000000000000204e-01 3.285000000000000142e-01 3.300000000000000155e-01 -9.999000000000000000e+03 -9.999000000000000000e+03 -9.999000000000000000e+03
-9.999000000000000000e+03 2.255000000000000060e-01 2.585000000000000075e-01 3.739999999999999991e-01 4.125000000000000333e-01 4.055000000000000271e-01 4.075000000000000289e-01 3.830000000000000071e-01 3.649999999999999911e-01 3.584999999999999853e-01 3.594999999999999862e-01 3.584999999999999853e-01 3.684999999999999942e-01 3.785000000000000031e-01 3.704999999999999960e-01 3.669999999999999929e-01 3.554999999999999827e-01 3.375000000000000222e-01 3.290000000000000147e-01 -9.999000000000000000e+03 -9.999000000000000000e+03 -9.999000000000000000e+03 -9.999000000000000000e+03
-9.999000000000000000e+03 2.390000000000000180e-01 2.555000000000000049e-01 3.524999999999999800e-01 4.090000000000000302e-01 4.030000000000000249e-01 3.960000000000000187e-01 3.835000000000000075e-01 3.724999999999999978e-01 3.654999999999999916e-01 3.634999999999999898e-01 3.659999999999999920e-01 3.755000000000000004e-01 3.900000000000000133e-01 -9.999000000000000000e+03 -9.999000000000000000e+03 -9.999000000000000000e+03 -9.999000000000000000e+03 -9.999000000000000000e+03 -9.999000000000000000e+03 -9.999000000000000000e+03 -9.999000000000000000e+03 -9.999000000000000000e+03
-9.999000000000000000e+03 2.434999999999999942e-01 -9.999000000000000000e+03 -9.999000000000000000e+03 -9.999000000000000000e+03 -9.999000000000000000e+03 -9.999000000000000000e+03 3.780000000000000027e-01 3.770000000000000018e-01 3.694999999999999951e-01 3.659999999999999920e-01 3.719999999999999973e-01 3.820000000000000062e-01 3.830000000000000071e-01 -9.999000000000000000e+03 -9.999000000000000000e+03 -9.999000000000000000e+03 -9.999000000000000000e+03 -9.999000000000000000e+03 -9.999000000000000000e+03 -9.999000000000000000e+03 -9.999000000000000000e+03 -9.999000000000000000e+03
-9.999000000000000000e+03 -9.999000000000000000e+03 -9.999000000000000000e+03 -9.999000000000000000e+03 -9.999000000000000000e+03 -9.999000000000000000e+03 -9.999000000000000000e+03 -9.999000000000000000e+03 3.689999999999999947e-01 3.744999999999999996e-01 3.775000000000000022e-01 3.765000000000000013e-01 3.744999999999999996e-01 -9.999000000000000000e+03 -9.999000000000000000e+03 -9.999000000000000000e+03 -9.999000000000000000e+03 -9.999000000000000000e+03 -9.999000000000000000e+03 -9.999000000000000000e+03 -9.999000000000000000e+03 -9.999000000000000000e+03 -9.999000000000000000e+03
-9.999000000000000000e+03 -9.999000000000000000e+03 -9.999000000000000000e+03 -9.999000000000000000e+03 -9.999000000000000000e+03 -9.999000000000000000e+03 -9.999000000000000000e+03 -9.999000000000000000e+03 3.460000000000000298e-01 3.562916666666666177e-01 3.609999999999999876e-01 3.684999999999999942e-01 3.714999999999999969e-01 -9.999000000000000000e+03 -9.999000000000000000e+03 -9.999000000000000000e+03 -9.999000000000000000e+03 -9.999000000000000000e+03 -9.999000000000000000e+03 -9.999000000000000000e+03 -9.999000000000000000e+03 -9.999000000000000000e+03 -9.999000000000000000e+03
-9.999000000000000000e+03 -9.999000000000000000e+03 -9.999000000000000000e+03 -9.999000000000000000e+03 -9.999000000000000000e+03 -9.999000000000000000e+03 -9.999000000000000000e+03 -9.999000000000000000e+03 -9.999000000000000000e+03 3.405000000000000249e-01 3.465000000000000302e-01 3.609999999999999876e-01 3.649999999999999911e-01 -9.999000000000000000e+03 -9.999000000000000000e+03 -9.999000000000000000e+03 -9.999000000000000000e+03 -9.999000000000000000e+03 -9.999000000000000000e+03 -9.999000000000000000e+03 -9.999000000000000000e+03 -9.999000000000000000e+03 -9.999000000000000000e+03
-9.999000000000000000e+03 -9.999000000000000000e+03 -9.999000000000000000e+03 -9.999000000000000000e+03 -9.999000000000000000e+03 -9.999000000000000000e+03 -9.999000000000000000e+03 -9.999000000000000000e+03 -9.999000000000000000e+03 -9.999000000000000000e+03 -9.999000000000000000e+03 -9.999000000000000000e+03 -9.999000000000000000e+03 -9.999000000000000000e+03 -9.999000000000000000e+03 -9.999000000000000000e+03 -9.999000000000000000e+03 -9.999000000000000000e+03 -9.999000000000000000e+03 -9.999000000000000000e+03 -9.999000000000000000e+03 -9.999000000000000000e+03 -9.999000000000000000e+03
