ncols        23
nrows        17
xllcorner    5165373.967557672411
yllcorner    3907485.103055199608
cellsize     5000.000000000000
NODATA_value  -9999
-9.999000000000000000e+03 -9.999000000000000000e+03 -9.999000000000000000e+03 -9.999000000000000000e+03 -9.999000000000000000e+03 -9.999000000000000000e+03 -9.999000000000000000e+03 -9.999000000000000000e+03 -9.999000000000000000e+03 -9.999000000000000000e+03 -9.999000000000000000e+03 -9.999000000000000000e+03 -9.999000000000000000e+03 -9.999000000000000000e+03 -9.999000000000000000e+03 -9.999000000000000000e+03 -9.999000000000000000e+03 -9.999000000000000000e+03 -9.999000000000000000e+03 -9.999000000000000000e+03 -9.999000000000000000e+03 -9.999000000000000000e+03 -9.999000000000000000e+03
-9.999000000000000000e+03 -9.999000000000000000e+03 -9.999000000000000000e+03 -9.999000000000000000e+03 -9.999000000000000000e+03 -9.999000000000000000e+03 3.300000000000000155e-01 3.295000000000000151e-01 -9.999000000000000000e+03 -9.999000000000000000e+03 -9.999000000000000000e+03 2.994999999999999885e-01 2.785000000000000253e-01 2.570000000000000062e-01 -9.999000000000000000e+03 -9.999000000000000000e+03 -9.999000000000000000e+03 -9.999000000000000000e+03 -9.999000000000000000e+03 -9.999000000000000000e+03 -9.999000000000000000e+03 -9.999000000000000000e+03 -9.999000000000000000e+03
-9.999000000000000000e+03 -9.999000000000000000e+03 -9.999000000000000000e+03 -9.999000000000000000e+03 -9.999000000000000000e+03 -9.999000000000000000e+03 3.415000000000000258e-01 3.340000000000000191e-01 3.315000000000000169e-01 3.305000000000000160e-01 3.230000000000000093e-01 3.044999999999999929e-01 2.855000000000000315e-01 2.560000000000000053e-01 2.365000000000000158e-01 -9.999000000000000000e+03 -9.999000000000000000e+03 -9.999000000000000000e+03 -9.999000000000000000e+03 -9.999000000000000000e+03 -9.999000000000000000e+03 -9.999000000000000000e+03 -9.999000000000000000e+03
-9.999000000000000000e+03 -9.999000000000000000e+03 -9.999000000000000000e+03 -9.999000000000000000e+03 -9.999000000000000000e+03 -9.999000000000000000e+03 3.465000000000000302e-01 3.385000000000000231e-01 3.265000000000000124e-01 3.345000000000000195e-01 3.255000000000000115e-01 3.109999999999999987e-01 3.034999999999999920e-01 2.865000000000000324e-01 2.605000000000000093e-01 2.675000000000000155e-01 -9.999000000000000000e+03 -9.999000000000000000e+03 -9.999000000000000000e+03 -9.999000000000000000e+03 -9.999000000000000000e+03 -9.999000000000000000e+03 -9.999000000000000000e+03
-9.999000000000000000e+03 -9.999000000000000000e+03 -9.999000000000000000e+03 -9.999000000000000000e+03 -9.999000000000000000e+03 3.785000000000000031e-01 3.524999999999999800e-01 3.375000000000000222e-01 3.345000000000000195e-01 3.380000000000000226e-01 3.345000000000000195e-01 3.270000000000000129e-01 3.235000000000000098e-01 3.190000000000000058e-01 3.044999999999999929e-01 2.904999999999999805e-01 2.979999999999999871e-01 3.150000000000000022e-01 -9.999000000000000000e+03 -9.999000000000000000e+03 -9.999000000000000000e+03 -9.999000000000000000e+03 -9.999000000000000000e+03
-9.999000000000000000e+03 -9.999000000000000000e+03 -9.999000000000000000e+03 -9.999000000000000000e+03 3.815000000000000058e-01 3.750000000000000000e-01 3.539999999999999813e-01 3.425000000000000266e-01 3.505000000000000338e-01 3.445000000000000284e-01 3.400000000000000244e-01 3.355000000000000204e-01 3.275000000000000133e-01 3.220000000000000084e-01 3.295000000000000151e-01 3.330000000000000182e-01 3.390000000000000235e-01 3.450000000000000289e-01 3.534999999999999809e-01 -9.999000000000000000e+03 -9.999000000000000000e+03 -9.999000000000000000e+03 -9.999000000000000000e+03
-9.999000000000000000e+03 -9.999000000000000000e+03 2.979999999999999871e-01 3.599999999999999867e-01 3.790000000000000036e-01 3.664999999999999925e-01 3.574999999999999845e-01 3.549999999999999822e-01 3.539999999999999813e-01 3.485000000000000320e-01 3.415000000000000258e-01 3.385000000000000231e-01 3.295000000000000151e-01 3.345000000000000195e-01 3.415000000000000258e-01 3.450000000000000289e-01 3.500000000000000333e-01 3.569999999999999840e-01 3.614999999999999880e-01 3.510000000000000342e-01 3.415000000000000258e-01 3.265000000000000124e-01 -9.999000000000000000e+03
-9.999000000000000000e+03 2.735000000000000209e-01 2.944999999999999840e-01 3.510000000000000342e-01 3.910000000000000142e-01 3.820000000000000062e-01 3.644999999999999907e-01 3.549999999999999822e-01 3.470000000000000306e-01 3.500000000000000333e-01 3.415000000000000258e-01 3.370000000000000218e-01 3.450000000000000289e-01 3.529999999999999805e-01 3.480000000000000315e-01 3.524999999999999800e-01 3.554999999999999827e-01 3.584999999999999853e-01 3.589999999999999858e-01 3.544999999999999818e-01 3.485000000000000320e-01 3.325000000000000178e-01 -9.999000000000000000e+03
-9.999000000000000000e+03 2.595000000000000084e-01 2.870000000000000329e-01 3.420000000000000262e-01 3.885000000000000120e-01 3.825000000000000067e-01 3.699999999999999956e-01 3.574999999999999845e-01 3.420000000000000262e-01 3.475000000000000311e-01 3.455000000000000293e-01 3.300000000000000155e-01 3.395000000000000240e-01 3.490000000000000324e-01 3.624999999999999889e-01 3.664999999999999925e-01 3.619999999999999885e-01 3.569999999999999840e-01 3.524999999999999800e-01 3.505000000000000338e-01 3.485000000000000320e-01 -9.999000000000000000e+03 -9.999000000000000000e+03
-9.999000000000000000e+03 2.615000000000000102e-01 2.934999999999999831e-01 3.544999999999999818e-01 3.830000000000000071e-01 3.739999999999999991e-01 3.624999999999999889e-01 3.510000000000000342e-01 3.360000000000000209e-01 3.410000000000000253e-01 3.510000000000000342e-01 3.460416666666666363e-01 3.425000000000000266e-01 3.559999999999999831e-01 3.614999999999999880e-01 3.694999999999999951e-01 3.679999999999999938e-01 3.559999999999999831e-01 3.515000000000000346e-01 3.480000000000000315e-01 -9.999000000000000000e+03 -9.999000000000000000e+03 -9.999000000000000000e+03
-9.999000000000000000e+03 2.665000000000000147e-01 3.019999999999999907e-01 3.870000000000000107e-01 4.010000000000000231e-01 3.775000000000000022e-01 3.714999999999999969e-01 3.564999999999999836e-01 3.440000000000000280e-01 3.430000000000000271e-01 3.475000000000000311e-01 3.559999999999999831e-01 3.609999999999999876e-01 3.674999999999999933e-01 3.604999999999999871e-01 3.644999999999999907e-01 3.689999999999999947e-01 3.584999999999999853e-01 3.510000000000000342e-01 -9.999000000000000000e+03 -9.999000000000000000e+03 -9.999000000000000000e+03 -9.999000000000000000e+03
-9.999000000000000000e+03 2.715000000000000191e-01 2.909999999999999809e-01 3.714999999999999969e-01 4.065000000000000280e-01 3.815000000000000058e-01 3.604999999999999871e-01 3.539999999999999813e-01 3.470000000000000306e-01 3.435000000000000275e-01 3.510000000000000342e-01 3.669999999999999929e-01 3.729999999999999982e-01 3.825000000000000067e-01 -9.999000000000000000e+03 -9.999000000000000000e+03 -9.999000000000000000e+03 -9.999000000000000000e+03 -9.999000000000000000e+03 -9.999000000000000000e+03 -9.999000000000000000e+03 -9.999000000000000000e+03 -9.999000000000000000e+03
-9.999000000000000000e+03 2.690000000000000169e-01 -9.999000000000000000e+03 -9.999000000000000000e+03 -9.999000000000000000e+03 -9.999000000000000000e+03 -9.999000000000000000e+03 3.544999999999999818e-01 3.485000000000000320e-01 3.440000000000000280e-01 3.549999999999999822e-01 3.674999999999999933e-01 3.750000000000000000e-01 3.775000000000000022e-01 -9.999000000000000000e+03 -9.999000000000000000e+03 -9.999000000000000000e+03 -9.999000000000000000e+03 -9.999000000000000000e+03 -9.999000000000000000e+03 -9.999000000000000000e+03 -9.999000000000000000e+03 -9.999000000000000000e+03
-9.999000000000000000e+03 -9.999000000000000000e+03 -9.999000000000000000e+03 -9.999000000000000000e+03 -9.999000000000000000e+03 -9.999000000000000000e+03 -9.999000000000000000e+03 -9.999000000000000000e+03 3.425000000000000266e-01 3.594999999999999862e-01 3.704999999999999960e-01 3.739999999999999991e-01 3.755000000000000004e-01 -9.999000000000000000e+03 -9.999000000000000000e+03 -9.999000000000000000e+03 -9.999000000000000000e+03 -9.999000000000000000e+03 -9.999000000000000000e+03 -9.999000000000000000e+03 -9.999000000000000000e+03 -9.999000000000000000e+03 -9.999000000000000000e+03
-9.999000000000000000e+03 -9.999000000000000000e+03 -9.999000000000000000e+03 -9.999000000000000000e+03 -9.999000000000000000e+03 -9.999000000000000000e+03 -9.999000000000000000e+03 -9.999000000000000000e+03 3.260000000000000120e-01 3.454999999999999738e-01 3.589999999999999858e-01 3.775000000000000022e-01 3.875000000000000111e-01 -9.999000000000000000e+03 -9.999000000000000000e+03 -9.999000000000000000e+03 -9.999000000000000000e+03 -9.999000000000000000e+03 -9.999000000000000000e+03 -9.999000000000000000e+03 -9.999000000000000000e+03 -9.999000000000000000e+03 -9.999000000000000000e+03
-9.999000000000000000e+03 -9.999000000000000000e+03 -9.999000000000000000e+03 -9.999000000000000000e+03 -9.999000000000000000e+03 -9.999000000000000000e+03 -9.999000000000000000e+03 -9.999000000000000000e+03 -9.999000000000000000e+03 3.345000000000000195e-01 3.529999999999999805e-01 3.835000000000000075e-01 3.825000000000000067e-01 -9.999000000000000000e+03 -9.999000000000000000e+03 -9.999000000000000000e+03 -9.999000000000000000e+03 -9.999000000000000000e+03 -9.999000000000000000e+03 -9.999000000000000000e+03 -9.999000000000000000e+03 -9.999000000000000000e+03 -9.999000000000000000e+03
-9.999000000000000000e+03 -9.999000000000000000e+03 -9.999000000000000000e+03 -9.999000000000000000e+03 -9.999000000000000000e+03 -9.999000000000000000e+03 -9.999000000000000000e+03 -9.999000000000000000e+03 -9.999000000000000000e+03 -9.999000000000000000e+03 -9.999000000000000000e+03 -9.999000000000000000e+03 -9.999000000000000000e+03 -9.999000000000000000e+03 -9.999000000000000000e+03 -9.999000000000000000e+03 -9.999000000000000000e+03 -9.999000000000000000e+03 -9.999000000000000000e+03 -9.999000000000000000e+03 -9.999000000000000000e+03 -9.999000000000000000e+03 -9.999000000000000000e+03
