ncols        23
nrows        17
xllcorner    5165373.967557672411
yllcorner    3907485.103055199608
cellsize     5000.000000000000
NODATA_value  -9999
0.000000000000000000e+00 0.000000000000000000e+00 0.000000000000000000e+00 0.000000000000000000e+00 0.000000000000000000e+00 0.000000000000000000e+00 0.000000000000000000e+00 0.000000000000000000e+00 0.000000000000000000e+00 0.000000000000000000e+00 0.000000000000000000e+00 0.000000000000000000e+00 0.000000000000000000e+00 0.000000000000000000e+00 0.000000000000000000e+00 0.000000000000000000e+00 0.000000000000000000e+00 0.000000000000000000e+00 0.000000000000000000e+00 0.000000000000000000e+00 0.000000000000000000e+00 0.000000000000000000e+00 0.000000000000000000e+00
0.000000000000000000e+00 0.000000000000000000e+00 0.000000000000000000e+00 0.000000000000000000e+00 0.000000000000000000e+00 0.000000000000000000e+00 5.737670898437500448e-04 3.242251183059617950e-04 0.000000000000000000e+00 0.000000000000000000e+00 0.000000000000000000e+00 2.194279572905092712e-04 1.953131103515625203e-03 4.561408996582031611e-03 0.000000000000000000e+00 0.000000000000000000e+00 0.000000000000000000e+00 0.000000000000000000e+00 0.000000000000000000e+00 0.000000000000000000e+00 0.000000000000000000e+00 0.000000000000000000e+00 0.000000000000000000e+00
0.000000000000000000e+00 0.000000000000000000e+00 0.000000000000000000e+00 0.000000000000000000e+00 0.000000000000000000e+00 0.000000000000000000e+00 7.563904061320093301e-04 1.742340087890625108e-03 4.284256148164153539e-04 2.446667480468749881e-03 1.416267900921952408e-03 3.094781494140625127e-03 1.388566589355468657e-03 2.533111572265624861e-03 4.388902282714843804e-03 0.000000000000000000e+00 0.000000000000000000e+00 0.000000000000000000e+00 0.000000000000000000e+00 0.000000000000000000e+00 0.000000000000000000e+00 0.000000000000000000e+00 0.000000000000000000e+00
0.000000000000000000e+00 0.000000000000000000e+00 0.000000000000000000e+00 0.000000000000000000e+00 0.000000000000000000e+00 0.000000000000000000e+00 2.037280273437499893e-03 2.585730743408203112e-03 1.457230052097423277e-03 3.104953609350529918e-04 6.921203613281250340e-04 2.901038360595702918e-03 1.664570617675781164e-03 4.870756530761718821e-03 3.076157264008904085e-03 6.879638671874999632e-03 0.000000000000000000e+00 0.000000000000000000e+00 0.000000000000000000e+00 0.000000000000000000e+00 0.000000000000000000e+00 0.000000000000000000e+00 0.000000000000000000e+00
0.000000000000000000e+00 0.000000000000000000e+00 0.000000000000000000e+00 0.000000000000000000e+00 0.000000000000000000e+00 2.884543259597449703e-03 2.775674438476562460e-03 2.627422397876762595e-04 2.846782684326172076e-03 2.377901725619390068e-03 1.436238861083984335e-03 1.714399719238281260e-03 1.351220140804178845e-03 3.583982086181640696e-03 1.536331176757812535e-03 4.413709687603181893e-03 1.293269775105724715e-03 7.972412109375000169e-05 0.000000000000000000e+00 0.000000000000000000e+00 0.000000000000000000e+00 0.000000000000000000e+00 0.000000000000000000e+00
0.000000000000000000e+00 0.000000000000000000e+00 0.000000000000000000e+00 0.000000000000000000e+00 3.471422143026694053e-04 3.088391876220702992e-03 3.505213928222656369e-03 2.248114013671875105e-03 1.463478845010085007e-04 1.550373840332031246e-03 1.766128540039062569e-03 2.863655090332031350e-04 1.044973754882812548e-03 2.977331542968749984e-03 7.271736145019531321e-04 5.410150909423827766e-03 7.103256225585938017e-04 3.950474548339843843e-03 2.399044799804687673e-03 0.000000000000000000e+00 0.000000000000000000e+00 0.000000000000000000e+00 0.000000000000000000e+00
0.000000000000000000e+00 0.000000000000000000e+00 1.422297665092272373e-03 7.972305297851562918e-04 1.916404724121093786e-04 1.045990753173828107e-03 4.602378082275390345e-03 2.894431304931640529e-03 9.456642150878906720e-04 3.862918853759765483e-03 9.381187438964843891e-04 1.699883270263671808e-03 1.352171243446415039e-03 1.980216979980468656e-03 4.325180053710937691e-05 1.320756530761718834e-03 2.823800659179687405e-03 5.460861206054687432e-04 2.635189056396484292e-03 2.128387451171875118e-04 1.311538696289062491e-04 3.535189819335937417e-03 0.000000000000000000e+00
0.000000000000000000e+00 3.818060483326045709e-03 1.237386322021484389e-03 3.668260955810547039e-03 1.005088806152343783e-03 2.011466217041015751e-03 1.529691314697265549e-03 5.133721160888672121e-03 6.102405548095703354e-03 2.412604522705078056e-03 3.585200500488281219e-03 5.427428436279297178e-03 1.734385681152343693e-03 7.924804687499999991e-05 1.458499908447265583e-03 2.796530914306640577e-03 7.694552612304687324e-03 2.566772460937500125e-03 1.612170410156249902e-03 2.520090484619140828e-03 1.166947375618788453e-03 5.535180006764097967e-04 0.000000000000000000e+00
0.000000000000000000e+00 1.780082702636718824e-04 3.840400695800781248e-04 1.492939758300781310e-03 1.427913648362652034e-03 2.641262054443359233e-03 4.655058288574218453e-03 4.667346191406250393e-03 1.419533538818359454e-03 2.072143554687500173e-03 2.660042572021484482e-03 5.145446777343750484e-04 3.907979583740234762e-03 6.068008422851562311e-04 2.045041656494140780e-03 9.418563842773436997e-04 1.950228881835937419e-03 2.034355926513672051e-03 2.330285644531250068e-03 1.827881171584850879e-03 1.604841937444012904e-03 0.000000000000000000e+00 0.000000000000000000e+00
0.000000000000000000e+00 1.901487776523428394e-04 3.337610626220703300e-03 1.460508728027343824e-03 2.301017761230468779e-04 3.897624969482422000e-03 5.444779939460135838e-03 1.850512695312499971e-03 2.137518759859010058e-03 1.051855468749999948e-03 1.305308803219249337e-04 3.590135955810546970e-03 4.025598907470702773e-03 8.839012145996093294e-04 2.211436105082289008e-03 6.518363952636718750e-04 1.287150573730468659e-03 4.477783203125000155e-04 3.218550223115565663e-03 1.854589191158979942e-03 0.000000000000000000e+00 0.000000000000000000e+00 0.000000000000000000e+00
0.000000000000000000e+00 3.786688423156738242e-03 1.664211273193359287e-03 3.447769927978515479e-03 8.623069874439112182e-04 5.505645751953124750e-03 4.294445839999977595e-03 4.593688964843749994e-04 2.359884723382995458e-03 2.623696211858653898e-03 1.509844207763671921e-03 1.407035827636718764e-03 3.069265747070312571e-03 5.775432586669921459e-03 3.041888976466369972e-03 2.793801701668113639e-03 3.681824605589686136e-04 1.480993052202483982e-03 9.251223807247172795e-04 0.000000000000000000e+00 0.000000000000000000e+00 0.000000000000000000e+00 0.000000000000000000e+00
0.000000000000000000e+00 0.000000000000000000e+00 6.633340644836426166e-03 5.986328124999999896e-04 4.616058349609374902e-04 5.895736694335937216e-03 2.736348736217045761e-04 1.152772008047943646e-03 3.824112366162464235e-03 2.580445861816406221e-03 4.164306640624999660e-03 4.072616577148437588e-04 1.190882873535156197e-03 2.896078491210937658e-03 0.000000000000000000e+00 0.000000000000000000e+00 0.000000000000000000e+00 0.000000000000000000e+00 0.000000000000000000e+00 0.000000000000000000e+00 0.000000000000000000e+00 0.000000000000000000e+00 0.000000000000000000e+00
0.000000000000000000e+00 6.285719871520996154e-04 0.000000000000000000e+00 0.000000000000000000e+00 0.000000000000000000e+00 0.000000000000000000e+00 0.000000000000000000e+00 3.150537482781269084e-03 8.582702636718749769e-04 7.218706512451171856e-03 3.072010040283203007e-03 2.765243530273437701e-03 1.264651489257812532e-03 2.357883253840910385e-03 0.000000000000000000e+00 0.000000000000000000e+00 0.000000000000000000e+00 0.000000000000000000e+00 0.000000000000000000e+00 0.000000000000000000e+00 0.000000000000000000e+00 0.000000000000000000e+00 0.000000000000000000e+00
0.000000000000000000e+00 0.000000000000000000e+00 0.000000000000000000e+00 0.000000000000000000e+00 0.000000000000000000e+00 0.000000000000000000e+00 0.000000000000000000e+00 0.000000000000000000e+00 1.236279296874999911e-03 1.184458923339843815e-03 5.348472595214843507e-03 1.870870971679687404e-03 3.296951293945312431e-04 0.000000000000000000e+00 0.000000000000000000e+00 0.000000000000000000e+00 0.000000000000000000e+00 0.000000000000000000e+00 0.000000000000000000e+00 0.000000000000000000e+00 0.000000000000000000e+00 0.000000000000000000e+00 0.000000000000000000e+00
0.000000000000000000e+00 0.000000000000000000e+00 0.000000000000000000e+00 0.000000000000000000e+00 0.000000000000000000e+00 0.000000000000000000e+00 0.000000000000000000e+00 0.000000000000000000e+00 9.904067993164063482e-04 2.298707580566406242e-03 1.714965820312500046e-04 1.922322845458984469e-03 1.254629544390937221e-03 0.000000000000000000e+00 0.000000000000000000e+00 0.000000000000000000e+00 0.000000000000000000e+00 0.000000000000000000e+00 0.000000000000000000e+00 0.000000000000000000e+00 0.000000000000000000e+00 0.000000000000000000e+00 0.000000000000000000e+00
0.000000000000000000e+00 0.000000000000000000e+00 0.000000000000000000e+00 0.000000000000000000e+00 0.000000000000000000e+00 0.000000000000000000e+00 0.000000000000000000e+00 0.000000000000000000e+00 0.000000000000000000e+00 2.693392944335937320e-03 9.769302368164063145e-04 1.533450435993252573e-03 3.870849609374999914e-05 0.000000000000000000e+00 0.000000000000000000e+00 0.000000000000000000e+00 0.000000000000000000e+00 0.000000000000000000e+00 0.000000000000000000e+00 0.000000000000000000e+00 0.000000000000000000e+00 0.000000000000000000e+00 0.000000000000000000e+00
0.000000000000000000e+00 0.000000000000000000e+00 0.000000000000000000e+00 0.000000000000000000e+00 0.000000000000000000e+00 0.000000000000000000e+00 0.000000000000000000e+00 0.000000000000000000e+00 0.000000000000000000e+00 0.000000000000000000e+00 0.000000000000000000e+00 0.000000000000000000e+00 0.000000000000000000e+00 0.000000000000000000e+00 0.000000000000000000e+00 0.000000000000000000e+00 0.000000000000000000e+00 0.000000000000000000e+00 0.000000000000000000e+00 0.000000000000000000e+00 0.000000000000000000e+00 0.000000000000000000e+00 0.000000000000000000e+00
