ncols        23
nrows        17
xllcorner    5165373.967557672411
yllcorner    3907485.103055199608
cellsize     5000.000000000000
NODATA_value  -9999
-9.999000000000000000e+03 -9.999000000000000000e+03 -9.999000000000000000e+03 -9.999000000000000000e+03 -9.999000000000000000e+03 -9.999000000000000000e+03 -9.999000000000000000e+03 -9.999000000000000000e+03 -9.999000000000000000e+03 -9.999000000000000000e+03 -9.999000000000000000e+03 -9.999000000000000000e+03 -9.999000000000000000e+03 -9.999000000000000000e+03 -9.999000000000000000e+03 -9.999000000000000000e+03 -9.999000000000000000e+03 -9.999000000000000000e+03 -9.999000000000000000e+03 -9.999000000000000000e+03 -9.999000000000000000e+03 -9.999000000000000000e+03 -9.999000000000000000e+03
-9.999000000000000000e+03 -9.999000000000000000e+03 -9.999000000000000000e+03 -9.999000000000000000e+03 -9.999000000000000000e+03 -9.999000000000000000e+03 1.992096119724173775e+00 2.674760975176158961e+00 -9.999000000000000000e+03 -9.999000000000000000e+03 -9.999000000000000000e+03 1.799092449428762563e+00 1.389684506078025183e+00 1.835299193772985449e+00 -9.999000000000000000e+03 -9.999000000000000000e+03 -9.999000000000000000e+03 -9.999000000000000000e+03 -9.999000000000000000e+03 -9.999000000000000000e+03 -9.999000000000000000e+03 -9.999000000000000000e+03 -9.999000000000000000e+03
-9.999000000000000000e+03 -9.999000000000000000e+03 -9.999000000000000000e+03 -9.999000000000000000e+03 -9.999000000000000000e+03 -9.999000000000000000e+03 1.934910235822694613e+00 2.654879099154986211e+00 2.600421403191901515e+00 2.472791546450249900e+00 2.367099951878807840e+00 1.371196889414314501e+00 1.994410900006510001e+00 2.439948633026749913e+00 2.872967121487424613e+00 -9.999000000000000000e+03 -9.999000000000000000e+03 -9.999000000000000000e+03 -9.999000000000000000e+03 -9.999000000000000000e+03 -9.999000000000000000e+03 -9.999000000000000000e+03 -9.999000000000000000e+03
-9.999000000000000000e+03 -9.999000000000000000e+03 -9.999000000000000000e+03 -9.999000000000000000e+03 -9.999000000000000000e+03 -9.999000000000000000e+03 3.354800480476340496e+00 3.177754921984117242e+00 1.759388466412920238e+00 1.953918144889958741e+00 1.804296247024856248e+00 1.383107345274279698e+00 2.067252472087842463e+00 2.421758899346915239e+00 2.758202622486605193e+00 2.596038458679972294e+00 -9.999000000000000000e+03 -9.999000000000000000e+03 -9.999000000000000000e+03 -9.999000000000000000e+03 -9.999000000000000000e+03 -9.999000000000000000e+03 -9.999000000000000000e+03
-9.999000000000000000e+03 -9.999000000000000000e+03 -9.999000000000000000e+03 -9.999000000000000000e+03 -9.999000000000000000e+03 2.513091251741336851e+00 2.592826222528408664e+00 2.420273608733220172e+00 1.625318228060586234e+00 1.350994940018063861e+00 1.608799484435967875e+00 1.103304939112165428e+00 1.098741081992713253e+00 1.083645436355735070e+00 2.076562892965794216e+00 2.512072126681429651e+00 2.346001996660834976e+00 2.526875611978468772e+00 -9.999000000000000000e+03 -9.999000000000000000e+03 -9.999000000000000000e+03 -9.999000000000000000e+03 -9.999000000000000000e+03
-9.999000000000000000e+03 -9.999000000000000000e+03 -9.999000000000000000e+03 -9.999000000000000000e+03 3.311932082851348547e+00 3.755933016581435968e+00 2.466813096733078581e+00 2.432394872477919634e+00 2.165814340293832796e+00 1.560646698510615105e+00 1.643702814708198900e+00 1.356648465433614170e+00 8.686403649782530323e-01 8.262388497447642477e-01 1.443388032293050571e+00 1.345951737059470243e+00 1.186257064313844145e+00 2.279510806833090264e+00 2.519215107683900889e+00 -9.999000000000000000e+03 -9.999000000000000000e+03 -9.999000000000000000e+03 -9.999000000000000000e+03
-9.999000000000000000e+03 -9.999000000000000000e+03 2.804058304330271589e+00 2.973291613223680852e+00 3.091898255290060682e+00 3.121383985734730082e+00 3.599344256568805633e+00 2.229096465557197426e+00 1.909017681440390524e+00 1.761549894681760708e+00 2.088167853722800782e+00 1.318536799300239704e+00 8.471940254496242995e-01 1.551492479813524339e+00 1.610870170720445138e+00 1.739845104654635044e+00 1.888889695775661570e+00 1.171433652076890652e+00 1.073806686966890078e+00 1.267224514729996532e+00 1.910427170263878205e+00 1.914663034527387397e+00 -9.999000000000000000e+03
-9.999000000000000000e+03 2.604125900877645172e+00 3.153987139709181431e+00 2.925628635078105777e+00 3.022643925275387389e+00 2.924710868430991706e+00 2.880048266500663257e+00 1.900535154345689204e+00 1.022542914131027825e+00 1.194331716753220807e+00 1.481813494836884182e+00 2.652222462877289466e+00 2.598446793549063383e+00 2.645286741926762719e+00 2.517243286981127870e+00 1.614261455675876533e+00 1.736062767580273780e+00 1.258203732645753359e+00 2.759459008775802857e+00 2.317245854218005885e+00 2.150039342034697043e+00 2.303318945220286906e+00 -9.999000000000000000e+03
-9.999000000000000000e+03 2.528193900927340643e+00 2.100998391139853094e+00 2.942491871713872165e+00 2.798133249216199214e+00 3.110948147783553441e+00 1.927281985451479773e+00 2.446582722425106216e+00 1.065911471908820518e+00 1.234048758987232874e+00 1.889498099079745641e+00 2.227404585464915154e+00 3.294129557375599315e+00 1.881904472647508486e+00 1.474655247093949795e+00 1.171983076260664447e+00 1.817693643173295959e+00 2.291682976228206048e+00 2.975722532807805187e+00 2.737034504788110389e+00 2.063686139393583030e+00 -9.999000000000000000e+03 -9.999000000000000000e+03
-9.999000000000000000e+03 2.485710747803476117e+00 2.545969532275828229e+00 3.484446378791179466e+00 3.214262228287247058e+00 2.318769341953612173e+00 1.565755629207780775e+00 1.593103394550821950e+00 1.462504429636899195e+00 1.510888812491674171e+00 1.199073021755787449e+00 1.576923745300335744e+00 9.609746254938396071e-01 1.567893461233205166e+00 1.637279738153631925e+00 1.160577519927708634e+00 2.092706917529034705e+00 2.624467405832235922e+00 2.657351099508072689e+00 2.431879997004636085e+00 -9.999000000000000000e+03 -9.999000000000000000e+03 -9.999000000000000000e+03
-9.999000000000000000e+03 1.822868517204696781e+00 2.403211679965694625e+00 1.797048616749846506e+00 3.041299769342462156e+00 2.027131433510640512e+00 2.100525599775320718e+00 1.596551668153254555e+00 1.689089497004605755e+00 1.633318934131786859e+00 1.467561593652044971e+00 1.610625097450061771e+00 1.094234022579214205e+00 1.560963780437346626e+00 1.227325789820927326e+00 1.287079930546837225e+00 1.404788790937195220e+00 2.621974964089175852e+00 2.049922698643662056e+00 -9.999000000000000000e+03 -9.999000000000000000e+03 -9.999000000000000000e+03 -9.999000000000000000e+03
-9.999000000000000000e+03 1.659577068072106032e+00 2.392393033529077950e+00 2.446472764781657094e+00 1.734868089856087980e+00 1.394668536882666565e+00 1.876570623295604978e+00 2.036141611672553697e+00 2.436171977788293752e+00 2.221537281717425927e+00 2.041649133310318387e+00 8.253499426327858268e-01 1.195366245708916919e+00 1.226661757236372496e+00 -9.999000000000000000e+03 -9.999000000000000000e+03 -9.999000000000000000e+03 -9.999000000000000000e+03 -9.999000000000000000e+03 -9.999000000000000000e+03 -9.999000000000000000e+03 -9.999000000000000000e+03 -9.999000000000000000e+03
-9.999000000000000000e+03 1.659397821637569770e+00 -9.999000000000000000e+03 -9.999000000000000000e+03 -9.999000000000000000e+03 -9.999000000000000000e+03 -9.999000000000000000e+03 1.787539282286329856e+00 2.335141632417144564e+00 2.263926898385807629e+00 1.963472410990066974e+00 2.370430085622320604e+00 1.923309330139711060e+00 1.694520311765748355e+00 -9.999000000000000000e+03 -9.999000000000000000e+03 -9.999000000000000000e+03 -9.999000000000000000e+03 -9.999000000000000000e+03 -9.999000000000000000e+03 -9.999000000000000000e+03 -9.999000000000000000e+03 -9.999000000000000000e+03
-9.999000000000000000e+03 -9.999000000000000000e+03 -9.999000000000000000e+03 -9.999000000000000000e+03 -9.999000000000000000e+03 -9.999000000000000000e+03 -9.999000000000000000e+03 -9.999000000000000000e+03 2.216101473299867397e+00 2.333451230588781566e+00 1.797843479981459103e+00 2.307499192409119715e+00 1.525795759310784261e+00 -9.999000000000000000e+03 -9.999000000000000000e+03 -9.999000000000000000e+03 -9.999000000000000000e+03 -9.999000000000000000e+03 -9.999000000000000000e+03 -9.999000000000000000e+03 -9.999000000000000000e+03 -9.999000000000000000e+03 -9.999000000000000000e+03
-9.999000000000000000e+03 -9.999000000000000000e+03 -9.999000000000000000e+03 -9.999000000000000000e+03 -9.999000000000000000e+03 -9.999000000000000000e+03 -9.999000000000000000e+03 -9.999000000000000000e+03 1.762435238755144074e+00 1.854000202719396029e+00 2.129673217226220938e+00 1.950785738697444760e+00 8.549052343895756634e-01 -9.999000000000000000e+03 -9.999000000000000000e+03 -9.999000000000000000e+03 -9.999000000000000000e+03 -9.999000000000000000e+03 -9.999000000000000000e+03 -9.999000000000000000e+03 -9.999000000000000000e+03 -9.999000000000000000e+03 -9.999000000000000000e+03
-9.999000000000000000e+03 -9.999000000000000000e+03 -9.999000000000000000e+03 -9.999000000000000000e+03 -9.999000000000000000e+03 -9.999000000000000000e+03 -9.999000000000000000e+03 -9.999000000000000000e+03 -9.999000000000000000e+03 2.869509006881687085e+00 2.841480629682932246e+00 2.810734897891785877e+00 1.397462951198331194e+00 -9.999000000000000000e+03 -9.999000000000000000e+03 -9.999000000000000000e+03 -9.999000000000000000e+03 -9.999000000000000000e+03 -9.999000000000000000e+03 -9.999000000000000000e+03 -9.999000000000000000e+03 -9.999000000000000000e+03 -9.999000000000000000e+03
-9.999000000000000000e+03 -9.999000000000000000e+03 -9.999000000000000000e+03 -9.999000000000000000e+03 -9.999000000000000000e+03 -9.999000000000000000e+03 -9.999000000000000000e+03 -9.999000000000000000e+03 -9.999000000000000000e+03 -9.999000000000000000e+03 -9.999000000000000000e+03 -9.999000000000000000e+03 -9.999000000000000000e+03 -9.999000000000000000e+03 -9.999000000000000000e+03 -9.999000000000000000e+03 -9.999000000000000000e+03 -9.999000000000000000e+03 -9.999000000000000000e+03 -9.999000000000000000e+03 -9.999000000000000000e+03 -9.999000000000000000e+03 -9.999000000000000000e+03
