ncols        23
nrows        17
xllcorner    5165373.967557672411
yllcorner    3907485.103055199608
cellsize     5000.000000000000
NODATA_value  -9999
-9.999000000000000000e+03 -9.999000000000000000e+03 -9.999000000000000000e+03 -9.999000000000000000e+03 -9.999000000000000000e+03 -9.999000000000000000e+03 -9.999000000000000000e+03 -9.999000000000000000e+03 -9.999000000000000000e+03 -9.999000000000000000e+03 -9.999000000000000000e+03 -9.999000000000000000e+03 -9.999000000000000000e+03 -9.999000000000000000e+03 -9.999000000000000000e+03 -9.999000000000000000e+03 -9.999000000000000000e+03 -9.999000000000000000e+03 -9.999000000000000000e+03 -9.999000000000000000e+03 -9.999000000000000000e+03 -9.999000000000000000e+03 -9.999000000000000000e+03
-9.999000000000000000e+03 -9.999000000000000000e+03 -9.999000000000000000e+03 -9.999000000000000000e+03 -9.999000000000000000e+03 -9.999000000000000000e+03 1.792886507751756042e+01 2.407284877658542754e+01 -9.999000000000000000e+03 -9.999000000000000000e+03 -9.999000000000000000e+03 1.619183204485886307e+01 1.250716055470222621e+01 1.651769274395686793e+01 -9.999000000000000000e+03 -9.999000000000000000e+03 -9.999000000000000000e+03 -9.999000000000000000e+03 -9.999000000000000000e+03 -9.999000000000000000e+03 -9.999000000000000000e+03 -9.999000000000000000e+03 -9.999000000000000000e+03
-9.999000000000000000e+03 -9.999000000000000000e+03 -9.999000000000000000e+03 -9.999000000000000000e+03 -9.999000000000000000e+03 -9.999000000000000000e+03 1.741419212240424841e+01 2.389391189239487190e+01 2.340379262872711053e+01 2.225512391805224510e+01 2.130389956690926567e+01 1.234077200472882829e+01 1.794969810005858690e+01 2.195953769724074434e+01 2.585670409338681708e+01 -9.999000000000000000e+03 -9.999000000000000000e+03 -9.999000000000000000e+03 -9.999000000000000000e+03 -9.999000000000000000e+03 -9.999000000000000000e+03 -9.999000000000000000e+03 -9.999000000000000000e+03
-9.999000000000000000e+03 -9.999000000000000000e+03 -9.999000000000000000e+03 -9.999000000000000000e+03 -9.999000000000000000e+03 -9.999000000000000000e+03 3.019320432428706269e+01 2.859979429785704852e+01 1.583449619771628036e+01 1.758526330400962578e+01 1.623866622322370290e+01 1.244796610746851684e+01 1.860527224879058039e+01 2.179583009412223404e+01 2.482382360237944496e+01 2.336434612811974887e+01 -9.999000000000000000e+03 -9.999000000000000000e+03 -9.999000000000000000e+03 -9.999000000000000000e+03 -9.999000000000000000e+03 -9.999000000000000000e+03 -9.999000000000000000e+03
-9.999000000000000000e+03 -9.999000000000000000e+03 -9.999000000000000000e+03 -9.999000000000000000e+03 -9.999000000000000000e+03 2.261782126567202766e+01 2.333543600275567442e+01 2.178246247859897977e+01 1.462786405254527367e+01 1.215895446016257253e+01 1.447919535992370754e+01 9.929744452009487077e+00 9.888669737934417725e+00 9.752808927201613187e+00 1.868906603669214306e+01 2.260864914013286509e+01 2.111401796994751123e+01 2.274188050780621850e+01 -9.999000000000000000e+03 -9.999000000000000000e+03 -9.999000000000000000e+03 -9.999000000000000000e+03 -9.999000000000000000e+03
-9.999000000000000000e+03 -9.999000000000000000e+03 -9.999000000000000000e+03 -9.999000000000000000e+03 2.980738874566213070e+01 3.380339714923292149e+01 2.220131787059770190e+01 2.189155385230127138e+01 1.949232906264449383e+01 1.404582028659553394e+01 1.479332533237378833e+01 1.220983618890252664e+01 7.817763284804276402e+00 7.436149647702877452e+00 1.299049229063745337e+01 1.211356563353523086e+01 1.067631357882459575e+01 2.051559726149780971e+01 2.267293596915510534e+01 -9.999000000000000000e+03 -9.999000000000000000e+03 -9.999000000000000000e+03 -9.999000000000000000e+03
-9.999000000000000000e+03 -9.999000000000000000e+03 2.523652473897244164e+01 2.675962451901312278e+01 2.782708429761053992e+01 2.809245587161256807e+01 3.239409830911924359e+01 2.006186819001477417e+01 1.718115913296351138e+01 1.585394905213584416e+01 1.879351068350520393e+01 1.186683119370215600e+01 7.624746229046618140e+00 1.396343231832171661e+01 1.449783153648400535e+01 1.565860594189171273e+01 1.700000726198095080e+01 1.054290286869201410e+01 9.664260182702010482e+00 1.140502063256996657e+01 1.719384453237490362e+01 1.723196731074648369e+01 -9.999000000000000000e+03
-9.999000000000000000e+03 2.343713310789880211e+01 2.838588425738262799e+01 2.633065771570295155e+01 2.720379532747848117e+01 2.632239781587892224e+01 2.592043439850596442e+01 1.710481638911119973e+01 9.202886227179249090e+00 1.074898545077898504e+01 1.333632145353195497e+01 2.387000216589560253e+01 2.338602114194156556e+01 2.380758067734086225e+01 2.265518958283014683e+01 1.452835310108288525e+01 1.562456490822246202e+01 1.132383359381177890e+01 2.483513107898222216e+01 2.085521268796204808e+01 1.935035407831226806e+01 2.072987050698258216e+01 -9.999000000000000000e+03
-9.999000000000000000e+03 2.275374510834606312e+01 1.890898552025867474e+01 2.648242684542484682e+01 2.518319924294578627e+01 2.799853333005197342e+01 1.734553786906331396e+01 2.201924450182595194e+01 9.593203247179383553e+00 1.110643883088509298e+01 1.700548289171770833e+01 2.004664126918423506e+01 2.964716601638038895e+01 1.693714025382757526e+01 1.327189722384554571e+01 1.054784768634597825e+01 1.635924278855966207e+01 2.062514678605385043e+01 2.678150279527024225e+01 2.463331054309298906e+01 1.857317525454224594e+01 -9.999000000000000000e+03 -9.999000000000000000e+03
-9.999000000000000000e+03 2.237139673023128239e+01 2.291372579048245228e+01 3.136001740912061209e+01 2.892836005458521953e+01 2.086892407758250911e+01 1.409180066287002475e+01 1.433793055095739533e+01 1.316253986673209120e+01 1.359799931242506510e+01 1.079165719580208460e+01 1.419231370770301837e+01 8.648771629444555131e+00 1.411104115109884560e+01 1.473551764338268555e+01 1.044519767934937704e+01 1.883436225776130968e+01 2.362020665249011842e+01 2.391615989557265110e+01 2.188691997304172432e+01 -9.999000000000000000e+03 -9.999000000000000000e+03 -9.999000000000000000e+03
-9.999000000000000000e+03 1.640581665484226903e+01 2.162890511969125029e+01 1.617343755074861633e+01 2.737169792408215585e+01 1.824418290159576372e+01 1.890473039797788246e+01 1.436896501337928989e+01 1.520180547304144980e+01 1.469987040718607929e+01 1.320805434286840274e+01 1.449562587705055527e+01 9.848106203212926957e+00 1.404867402393611897e+01 1.104593210838834416e+01 1.158371937492153414e+01 1.264309911843475476e+01 2.359777467680257601e+01 1.844930428779295895e+01 -9.999000000000000000e+03 -9.999000000000000000e+03 -9.999000000000000000e+03 -9.999000000000000000e+03
-9.999000000000000000e+03 1.493619361264895140e+01 2.153153730176169844e+01 2.201825488303491341e+01 1.561381280870478960e+01 1.255201683194399820e+01 1.688913560966044258e+01 1.832527450505298106e+01 2.192554780009464110e+01 1.999383553545683156e+01 1.837484219979286237e+01 7.428149483695070998e+00 1.075829621138025161e+01 1.103995581512734958e+01 -9.999000000000000000e+03 -9.999000000000000000e+03 -9.999000000000000000e+03 -9.999000000000000000e+03 -9.999000000000000000e+03 -9.999000000000000000e+03 -9.999000000000000000e+03 -9.999000000000000000e+03 -9.999000000000000000e+03
-9.999000000000000000e+03 1.493458039473812704e+01 -9.999000000000000000e+03 -9.999000000000000000e+03 -9.999000000000000000e+03 -9.999000000000000000e+03 -9.999000000000000000e+03 1.608785354057696537e+01 2.101627469175429752e+01 2.037534208547226910e+01 1.767125169891060210e+01 2.133387077060088188e+01 1.730978397125739576e+01 1.525068280589173320e+01 -9.999000000000000000e+03 -9.999000000000000000e+03 -9.999000000000000000e+03 -9.999000000000000000e+03 -9.999000000000000000e+03 -9.999000000000000000e+03 -9.999000000000000000e+03 -9.999000000000000000e+03 -9.999000000000000000e+03
-9.999000000000000000e+03 -9.999000000000000000e+03 -9.999000000000000000e+03 -9.999000000000000000e+03 -9.999000000000000000e+03 -9.999000000000000000e+03 -9.999000000000000000e+03 -9.999000000000000000e+03 1.994491325969880435e+01 2.100106107529903099e+01 1.618059131983313037e+01 2.076749273168207210e+01 1.373216183379705768e+01 -9.999000000000000000e+03 -9.999000000000000000e+03 -9.999000000000000000e+03 -9.999000000000000000e+03 -9.999000000000000000e+03 -9.999000000000000000e+03 -9.999000000000000000e+03 -9.999000000000000000e+03 -9.999000000000000000e+03 -9.999000000000000000e+03
-9.999000000000000000e+03 -9.999000000000000000e+03 -9.999000000000000000e+03 -9.999000000000000000e+03 -9.999000000000000000e+03 -9.999000000000000000e+03 -9.999000000000000000e+03 -9.999000000000000000e+03 1.586191714879629444e+01 1.668600182447456248e+01 1.916705895503598356e+01 1.755707164827699884e+01 7.694147109506180193e+00 -9.999000000000000000e+03 -9.999000000000000000e+03 -9.999000000000000000e+03 -9.999000000000000000e+03 -9.999000000000000000e+03 -9.999000000000000000e+03 -9.999000000000000000e+03 -9.999000000000000000e+03 -9.999000000000000000e+03 -9.999000000000000000e+03
-9.999000000000000000e+03 -9.999000000000000000e+03 -9.999000000000000000e+03 -9.999000000000000000e+03 -9.999000000000000000e+03 -9.999000000000000000e+03 -9.999000000000000000e+03 -9.999000000000000000e+03 -9.999000000000000000e+03 2.582558106193517844e+01 2.557332566714638844e+01 2.529661408102607112e+01 1.257716656078497941e+01 -9.999000000000000000e+03 -9.999000000000000000e+03 -9.999000000000000000e+03 -9.999000000000000000e+03 -9.999000000000000000e+03 -9.999000000000000000e+03 -9.999000000000000000e+03 -9.999000000000000000e+03 -9.999000000000000000e+03 -9.999000000000000000e+03
-9.999000000000000000e+03 -9.999000000000000000e+03 -9.999000000000000000e+03 -9.999000000000000000e+03 -9.999000000000000000e+03 -9.999000000000000000e+03 -9.999000000000000000e+03 -9.999000000000000000e+03 -9.999000000000000000e+03 -9.999000000000000000e+03 -9.999000000000000000e+03 -9.999000000000000000e+03 -9.999000000000000000e+03 -9.999000000000000000e+03 -9.999000000000000000e+03 -9.999000000000000000e+03 -9.999000000000000000e+03 -9.999000000000000000e+03 -9.999000000000000000e+03 -9.999000000000000000e+03 -9.999000000000000000e+03 -9.999000000000000000e+03 -9.999000000000000000e+03
