ncols        23
nrows        17
xllcorner    5165373.967557672411
yllcorner    3907485.103055199608
cellsize     5000.000000000000
NODATA_value  -9999
-9.999000000000000000e+03 -9.999000000000000000e+03 -9.999000000000000000e+03 -9.999000000000000000e+03 -9.999000000000000000e+03 -9.999000000000000000e+03 -9.999000000000000000e+03 -9.999000000000000000e+03 -9.999000000000000000e+03 -9.999000000000000000e+03 -9.999000000000000000e+03 -9.999000000000000000e+03 -9.999000000000000000e+03 -9.999000000000000000e+03 -9.999000000000000000e+03 -9.999000000000000000e+03 -9.999000000000000000e+03 -9.999000000000000000e+03 -9.999000000000000000e+03 -9.999000000000000000e+03 -9.999000000000000000e+03 -9.999000000000000000e+03 -9.999000000000000000e+03
-9.999000000000000000e+03 -9.999000000000000000e+03 -9.999000000000000000e+03 -9.999000000000000000e+03 -9.999000000000000000e+03 -9.999000000000000000e+03 2.986802559420216774e+00 4.026087794544968901e+00 -9.999000000000000000e+03 -9.999000000000000000e+03 -9.999000000000000000e+03 2.652146490540706392e+00 2.115322996223482299e+00 2.896381062069709245e+00 -9.999000000000000000e+03 -9.999000000000000000e+03 -9.999000000000000000e+03 -9.999000000000000000e+03 -9.999000000000000000e+03 -9.999000000000000000e+03 -9.999000000000000000e+03 -9.999000000000000000e+03 -9.999000000000000000e+03
-9.999000000000000000e+03 -9.999000000000000000e+03 -9.999000000000000000e+03 -9.999000000000000000e+03 -9.999000000000000000e+03 -9.999000000000000000e+03 3.064668495272109716e+00 4.052320442767942232e+00 3.827963864112732040e+00 3.633219522860210215e+00 3.429402730687370671e+00 1.958307588071798611e+00 2.919311371226968710e+00 3.817518124942809177e+00 4.616218910676405329e+00 -9.999000000000000000e+03 -9.999000000000000000e+03 -9.999000000000000000e+03 -9.999000000000000000e+03 -9.999000000000000000e+03 -9.999000000000000000e+03 -9.999000000000000000e+03 -9.999000000000000000e+03
-9.999000000000000000e+03 -9.999000000000000000e+03 -9.999000000000000000e+03 -9.999000000000000000e+03 -9.999000000000000000e+03 -9.999000000000000000e+03 5.369152172481650886e+00 4.813427110357010541e+00 2.637732645333786596e+00 2.937040630123841201e+00 2.569483161235600832e+00 1.930159112678154321e+00 2.972041443582379205e+00 3.604542761236724679e+00 4.155716857583581003e+00 3.940088954664657805e+00 -9.999000000000000000e+03 -9.999000000000000000e+03 -9.999000000000000000e+03 -9.999000000000000000e+03 -9.999000000000000000e+03 -9.999000000000000000e+03 -9.999000000000000000e+03
-9.999000000000000000e+03 -9.999000000000000000e+03 -9.999000000000000000e+03 -9.999000000000000000e+03 -9.999000000000000000e+03 3.983223821800593090e+00 4.079159725888640509e+00 3.750286161949143438e+00 2.547979926192806666e+00 2.034602968002830359e+00 2.301359888394419517e+00 1.614579585625760316e+00 1.597266208798299392e+00 1.588701102756751693e+00 3.024627341035510675e+00 3.761275155058371400e+00 3.491892986018927392e+00 3.748117381902938305e+00 -9.999000000000000000e+03 -9.999000000000000000e+03 -9.999000000000000000e+03 -9.999000000000000000e+03 -9.999000000000000000e+03
-9.999000000000000000e+03 -9.999000000000000000e+03 -9.999000000000000000e+03 -9.999000000000000000e+03 5.124360130945801117e+00 5.767568734274873599e+00 3.757057551372777748e+00 3.642655716766965757e+00 3.244217406865627318e+00 2.348257277964095557e+00 2.465610921803402356e+00 2.089792655873416116e+00 1.323558653549664621e+00 1.225712974477844108e+00 2.134812112350463309e+00 2.040542553724324026e+00 1.763848632382904347e+00 3.294536869151442282e+00 3.684986825899557061e+00 -9.999000000000000000e+03 -9.999000000000000000e+03 -9.999000000000000000e+03 -9.999000000000000000e+03
-9.999000000000000000e+03 -9.999000000000000000e+03 4.609549798121658881e+00 4.659792732143887228e+00 4.733213083857562786e+00 4.743960085658498471e+00 5.456213897266324331e+00 3.361339098342789544e+00 2.958585577899868202e+00 2.721929816971515148e+00 3.100881454138890714e+00 1.935348936242799578e+00 1.252171056122480142e+00 2.341009799862696639e+00 2.502452518585446484e+00 2.714636407849788657e+00 2.800396007314343017e+00 1.720001881453523174e+00 1.614358970511942104e+00 1.934749211101445265e+00 2.892536464469198876e+00 2.809073988849389636e+00 -9.999000000000000000e+03
-9.999000000000000000e+03 4.921038679574147423e+00 5.346289789081111188e+00 4.686388945557160568e+00 4.717971625199340657e+00 4.455305360284579130e+00 4.345016354813103554e+00 2.873448625514507526e+00 1.567867019959636510e+00 1.841177733118029014e+00 2.229155779952402217e+00 3.888007397386585406e+00 3.904262495454976722e+00 4.094246392273735324e+00 4.009506365225463220e+00 2.544925003002267871e+00 2.619450953187911768e+00 1.894080715144508265e+00 4.182100133621585059e+00 3.552775930889798595e+00 3.217376696275174641e+00 3.317121980102645473e+00 -9.999000000000000000e+03
-9.999000000000000000e+03 4.868846900369249830e+00 3.563439188294509563e+00 4.643699626149528470e+00 4.281062974419181266e+00 4.676329267646109678e+00 2.851602134196034477e+00 3.688257367238061857e+00 1.603706805915799727e+00 1.925634085766344539e+00 2.998970560742096225e+00 3.442582935067702632e+00 5.191802543640180900e+00 2.941466650841030983e+00 2.353455720270977825e+00 1.846200090271680860e+00 2.810268351440967205e+00 3.598555239456319832e+00 4.580781719458828505e+00 4.157903641371010650e+00 3.091323979111617604e+00 -9.999000000000000000e+03 -9.999000000000000000e+03
-9.999000000000000000e+03 4.908694566767795031e+00 4.362500782295128054e+00 5.683877023747383461e+00 5.019968555066023796e+00 3.544812400417019838e+00 2.396634128585398926e+00 2.487007723698857919e+00 2.220582236697552059e+00 2.307492918788514036e+00 1.905417846784828839e+00 2.448635672681952258e+00 1.500846807274118344e+00 2.459126601540913892e+00 2.602248491196012203e+00 1.832958165492786229e+00 3.329266166746402966e+00 4.209896923562479465e+00 4.128414490449394236e+00 3.769533322148009624e+00 -9.999000000000000000e+03 -9.999000000000000000e+03 -9.999000000000000000e+03
-9.999000000000000000e+03 3.688356982443459220e+00 4.228780643204940404e+00 2.944170142902455378e+00 4.724170362992866856e+00 3.113183532813930121e+00 3.212209498394156704e+00 2.469491119476436403e+00 2.612190074549232133e+00 2.510421947279859456e+00 2.229436701516044117e+00 2.449376579782538421e+00 1.661737253353339439e+00 2.413414979081319522e+00 1.910231164655729286e+00 2.025759357960505991e+00 2.187124544408180160e+00 4.082616709468698701e+00 3.220539830506341517e+00 -9.999000000000000000e+03 -9.999000000000000000e+03 -9.999000000000000000e+03 -9.999000000000000000e+03
-9.999000000000000000e+03 3.643497083969559291e+00 4.494172394905727508e+00 4.051071103131227424e+00 2.719281417332565010e+00 2.153369540809412452e+00 2.878017445947075981e+00 3.131113749259141876e+00 3.737691665683263942e+00 3.320921607961974331e+00 2.999952034868806461e+00 1.260650185641933652e+00 1.879092765502807350e+00 1.948458888280519608e+00 -9.999000000000000000e+03 -9.999000000000000000e+03 -9.999000000000000000e+03 -9.999000000000000000e+03 -9.999000000000000000e+03 -9.999000000000000000e+03 -9.999000000000000000e+03 -9.999000000000000000e+03 -9.999000000000000000e+03
-9.999000000000000000e+03 3.767177226610149976e+00 -9.999000000000000000e+03 -9.999000000000000000e+03 -9.999000000000000000e+03 -9.999000000000000000e+03 -9.999000000000000000e+03 2.715026411324930944e+00 3.577343670957337185e+00 3.442024046800291170e+00 3.004220613203869128e+00 3.726940668804759493e+00 3.120320083111026488e+00 2.826858977299519182e+00 -9.999000000000000000e+03 -9.999000000000000000e+03 -9.999000000000000000e+03 -9.999000000000000000e+03 -9.999000000000000000e+03 -9.999000000000000000e+03 -9.999000000000000000e+03 -9.999000000000000000e+03 -9.999000000000000000e+03
-9.999000000000000000e+03 -9.999000000000000000e+03 -9.999000000000000000e+03 -9.999000000000000000e+03 -9.999000000000000000e+03 -9.999000000000000000e+03 -9.999000000000000000e+03 -9.999000000000000000e+03 3.434819153069049946e+00 3.597297933397060721e+00 2.782714664086544332e+00 3.631260992028840118e+00 2.520109604377879897e+00 -9.999000000000000000e+03 -9.999000000000000000e+03 -9.999000000000000000e+03 -9.999000000000000000e+03 -9.999000000000000000e+03 -9.999000000000000000e+03 -9.999000000000000000e+03 -9.999000000000000000e+03 -9.999000000000000000e+03 -9.999000000000000000e+03
-9.999000000000000000e+03 -9.999000000000000000e+03 -9.999000000000000000e+03 -9.999000000000000000e+03 -9.999000000000000000e+03 -9.999000000000000000e+03 -9.999000000000000000e+03 -9.999000000000000000e+03 2.714261008991061264e+00 2.879419963673091942e+00 3.283597159994671610e+00 3.026077461677113778e+00 1.394160990983980053e+00 -9.999000000000000000e+03 -9.999000000000000000e+03 -9.999000000000000000e+03 -9.999000000000000000e+03 -9.999000000000000000e+03 -9.999000000000000000e+03 -9.999000000000000000e+03 -9.999000000000000000e+03 -9.999000000000000000e+03 -9.999000000000000000e+03
-9.999000000000000000e+03 -9.999000000000000000e+03 -9.999000000000000000e+03 -9.999000000000000000e+03 -9.999000000000000000e+03 -9.999000000000000000e+03 -9.999000000000000000e+03 -9.999000000000000000e+03 -9.999000000000000000e+03 4.577002398120451510e+00 4.408154773914128022e+00 4.340832985987202797e+00 2.164705936192740765e+00 -9.999000000000000000e+03 -9.999000000000000000e+03 -9.999000000000000000e+03 -9.999000000000000000e+03 -9.999000000000000000e+03 -9.999000000000000000e+03 -9.999000000000000000e+03 -9.999000000000000000e+03 -9.999000000000000000e+03 -9.999000000000000000e+03
-9.999000000000000000e+03 -9.999000000000000000e+03 -9.999000000000000000e+03 -9.999000000000000000e+03 -9.999000000000000000e+03 -9.999000000000000000e+03 -9.999000000000000000e+03 -9.999000000000000000e+03 -9.999000000000000000e+03 -9.999000000000000000e+03 -9.999000000000000000e+03 -9.999000000000000000e+03 -9.999000000000000000e+03 -9.999000000000000000e+03 -9.999000000000000000e+03 -9.999000000000000000e+03 -9.999000000000000000e+03 -9.999000000000000000e+03 -9.999000000000000000e+03 -9.999000000000000000e+03 -9.999000000000000000e+03 -9.999000000000000000e+03 -9.999000000000000000e+03
