ncols        23
nrows        17
xllcorner    5165373.967557672411
yllcorner    3907485.103055199608
cellsize     5000.000000000000
NODATA_value  -9999
-9.999000000000000000e+03 -9.999000000000000000e+03 -9.999000000000000000e+03 -9.999000000000000000e+03 -9.999000000000000000e+03 -9.999000000000000000e+03 -9.999000000000000000e+03 -9.999000000000000000e+03 -9.999000000000000000e+03 -9.999000000000000000e+03 -9.999000000000000000e+03 -9.999000000000000000e+03 -9.999000000000000000e+03 -9.999000000000000000e+03 -9.999000000000000000e+03 -9.999000000000000000e+03 -9.999000000000000000e+03 -9.999000000000000000e+03 -9.999000000000000000e+03 -9.999000000000000000e+03 -9.999000000000000000e+03 -9.999000000000000000e+03 -9.999000000000000000e+03
-9.999000000000000000e+03 -9.999000000000000000e+03 -9.999000000000000000e+03 -9.999000000000000000e+03 -9.999000000000000000e+03 -9.999000000000000000e+03 3.487369792758698295e-01 4.637668158134367613e-01 -9.999000000000000000e+03 -9.999000000000000000e+03 -9.999000000000000000e+03 3.223508614345634293e-01 2.592834476420535772e-01 3.523653319701650077e-01 -9.999000000000000000e+03 -9.999000000000000000e+03 -9.999000000000000000e+03 -9.999000000000000000e+03 -9.999000000000000000e+03 -9.999000000000000000e+03 -9.999000000000000000e+03 -9.999000000000000000e+03 -9.999000000000000000e+03
-9.999000000000000000e+03 -9.999000000000000000e+03 -9.999000000000000000e+03 -9.999000000000000000e+03 -9.999000000000000000e+03 -9.999000000000000000e+03 3.673752086635947989e-01 4.587794786989664031e-01 4.314071447825092998e-01 4.201840042417261389e-01 4.073667394093815619e-01 2.496685774184422557e-01 3.590357835077550019e-01 4.568487272216985584e-01 5.455156387485743386e-01 -9.999000000000000000e+03 -9.999000000000000000e+03 -9.999000000000000000e+03 -9.999000000000000000e+03 -9.999000000000000000e+03 -9.999000000000000000e+03 -9.999000000000000000e+03 -9.999000000000000000e+03
-9.999000000000000000e+03 -9.999000000000000000e+03 -9.999000000000000000e+03 -9.999000000000000000e+03 -9.999000000000000000e+03 -9.999000000000000000e+03 6.316154230038804052e-01 5.652634448337842121e-01 3.185211506373116785e-01 3.449614379686065657e-01 3.124126906403202342e-01 2.460127917973291278e-01 3.394380739430786775e-01 4.175533029496239501e-01 4.804444319703253807e-01 4.435173455236826601e-01 -9.999000000000000000e+03 -9.999000000000000000e+03 -9.999000000000000000e+03 -9.999000000000000000e+03 -9.999000000000000000e+03 -9.999000000000000000e+03 -9.999000000000000000e+03
-9.999000000000000000e+03 -9.999000000000000000e+03 -9.999000000000000000e+03 -9.999000000000000000e+03 -9.999000000000000000e+03 5.045479048776079223e-01 5.360389860505617721e-01 4.701716774118071540e-01 3.097296800144330176e-01 2.431693312044069522e-01 2.812642758866238379e-01 2.077381268440616491e-01 1.980762394553669536e-01 1.865361164855703080e-01 3.463087560760454986e-01 4.256457038217317246e-01 4.156964958234800611e-01 4.503666735567166679e-01 -9.999000000000000000e+03 -9.999000000000000000e+03 -9.999000000000000000e+03 -9.999000000000000000e+03 -9.999000000000000000e+03
-9.999000000000000000e+03 -9.999000000000000000e+03 -9.999000000000000000e+03 -9.999000000000000000e+03 6.902429729448631424e-01 7.432135549562483012e-01 4.977787442960118769e-01 4.431284184817791405e-01 3.803459283050185658e-01 2.862246179994227258e-01 3.099892579375458368e-01 2.836770696730425700e-01 1.750605616266304176e-01 1.534309853933253642e-01 2.512234068563015121e-01 2.406491221751295984e-01 2.146931753468154513e-01 3.981965875311618830e-01 4.526270494534897493e-01 -9.999000000000000000e+03 -9.999000000000000000e+03 -9.999000000000000000e+03 -9.999000000000000000e+03
-9.999000000000000000e+03 -9.999000000000000000e+03 5.836767601517686144e-01 5.975050520576334900e-01 5.905932246852683143e-01 5.677112673936379750e-01 6.382624011421617061e-01 3.856740077284066537e-01 3.471685670129127099e-01 3.309989249631793418e-01 3.758420607067552432e-01 2.429114287579382803e-01 1.627395902159426422e-01 2.905144047736302748e-01 3.047527216770098968e-01 3.237517522046768903e-01 3.403992922214145178e-01 2.107758724958251340e-01 2.064204002184084619e-01 2.875726189671940491e-01 4.700335599970718037e-01 4.426388337780865490e-01 -9.999000000000000000e+03
-9.999000000000000000e+03 6.649605207357335290e-01 6.497447370463741434e-01 6.020246649799713134e-01 5.877358400283291262e-01 5.283118881476722706e-01 5.170608439723487493e-01 3.371903999328249024e-01 1.980879907502674508e-01 2.419886293795849574e-01 2.792447444137245438e-01 4.642879340681140832e-01 4.814472016772937124e-01 4.913473454861023715e-01 4.917239025955305598e-01 3.076901877759091741e-01 3.105765784815773256e-01 2.269509530515923523e-01 5.214407404278493807e-01 4.633213580551721056e-01 4.606093289804745194e-01 5.305476520994690803e-01 -9.999000000000000000e+03
-9.999000000000000000e+03 6.806186076823478315e-01 4.435529320966437039e-01 5.901698962002727145e-01 5.320087112795474082e-01 5.395381965265091395e-01 3.155021761112286049e-01 4.020922072904551392e-01 1.914127816697007989e-01 2.566064455013460366e-01 3.979242244416885121e-01 4.381965752585917362e-01 6.805254016034610887e-01 3.683735865039212687e-01 2.820693773015858219e-01 2.165434705649320613e-01 3.387887360158424732e-01 4.541545296318680314e-01 5.538581533527492384e-01 5.126971700643749852e-01 4.069247979821509209e-01 -9.999000000000000000e+03 -9.999000000000000000e+03
-9.999000000000000000e+03 6.945745333117333553e-01 5.493681295677353971e-01 7.027426749679785978e-01 5.901172497793850669e-01 3.954793988461740017e-01 2.657576739815186717e-01 2.687166843238464331e-01 2.504965461939562266e-01 2.786406543442733197e-01 2.484655613363323523e-01 3.105100497686817396e-01 1.925786472359596879e-01 3.024042399359570532e-01 3.049571612938608567e-01 2.170574674400060078e-01 4.244401071736437214e-01 5.547907379455737642e-01 5.159415815105262704e-01 4.756543259929199574e-01 -9.999000000000000000e+03 -9.999000000000000000e+03 -9.999000000000000000e+03
-9.999000000000000000e+03 5.372662580732416870e-01 5.440300836142542007e-01 3.737881774120200284e-01 5.533594132123019760e-01 3.367079529789986925e-01 3.458083139637611048e-01 2.720573335723586172e-01 2.977988198067754722e-01 2.924733269537241886e-01 2.653206403532514801e-01 2.948562037485442100e-01 2.094451536695706995e-01 2.971961194871945988e-01 2.324251987609725068e-01 2.398791244659576605e-01 2.571058271594040545e-01 4.620914719669700910e-01 3.726074686890954446e-01 -9.999000000000000000e+03 -9.999000000000000000e+03 -9.999000000000000000e+03 -9.999000000000000000e+03
-9.999000000000000000e+03 5.945377482342477649e-01 5.830948310850772032e-01 4.999441265240545107e-01 3.472486146157341413e-01 2.576754518405497962e-01 3.211248953641073212e-01 3.537169783939601575e-01 4.350490204632970204e-01 3.825409491023190056e-01 3.500587531035244115e-01 1.554948067574807025e-01 2.347643226031617125e-01 2.390359097026877322e-01 -9.999000000000000000e+03 -9.999000000000000000e+03 -9.999000000000000000e+03 -9.999000000000000000e+03 -9.999000000000000000e+03 -9.999000000000000000e+03 -9.999000000000000000e+03 -9.999000000000000000e+03 -9.999000000000000000e+03
-9.999000000000000000e+03 6.823833410787331077e-01 -9.999000000000000000e+03 -9.999000000000000000e+03 -9.999000000000000000e+03 -9.999000000000000000e+03 -9.999000000000000000e+03 2.996913504344369539e-01 4.144491201889922705e-01 3.985985263949742285e-01 3.497047938979731541e-01 4.598124760257276122e-01 3.846466022738835866e-01 3.715179227719087041e-01 -9.999000000000000000e+03 -9.999000000000000000e+03 -9.999000000000000000e+03 -9.999000000000000000e+03 -9.999000000000000000e+03 -9.999000000000000000e+03 -9.999000000000000000e+03 -9.999000000000000000e+03 -9.999000000000000000e+03
-9.999000000000000000e+03 -9.999000000000000000e+03 -9.999000000000000000e+03 -9.999000000000000000e+03 -9.999000000000000000e+03 -9.999000000000000000e+03 -9.999000000000000000e+03 -9.999000000000000000e+03 3.951399967969967952e-01 3.990132074532833362e-01 3.266497956154989502e-01 4.512683782541397903e-01 3.390924360511853863e-01 -9.999000000000000000e+03 -9.999000000000000000e+03 -9.999000000000000000e+03 -9.999000000000000000e+03 -9.999000000000000000e+03 -9.999000000000000000e+03 -9.999000000000000000e+03 -9.999000000000000000e+03 -9.999000000000000000e+03 -9.999000000000000000e+03
-9.999000000000000000e+03 -9.999000000000000000e+03 -9.999000000000000000e+03 -9.999000000000000000e+03 -9.999000000000000000e+03 -9.999000000000000000e+03 -9.999000000000000000e+03 -9.999000000000000000e+03 3.198732298249660766e-01 3.359037688422092383e-01 3.923795348421305618e-01 3.842611947369819481e-01 1.885096191308283375e-01 -9.999000000000000000e+03 -9.999000000000000000e+03 -9.999000000000000000e+03 -9.999000000000000000e+03 -9.999000000000000000e+03 -9.999000000000000000e+03 -9.999000000000000000e+03 -9.999000000000000000e+03 -9.999000000000000000e+03 -9.999000000000000000e+03
-9.999000000000000000e+03 -9.999000000000000000e+03 -9.999000000000000000e+03 -9.999000000000000000e+03 -9.999000000000000000e+03 -9.999000000000000000e+03 -9.999000000000000000e+03 -9.999000000000000000e+03 -9.999000000000000000e+03 5.343820742929932255e-01 5.077444963453092708e-01 5.048774479353606015e-01 2.698480904537336467e-01 -9.999000000000000000e+03 -9.999000000000000000e+03 -9.999000000000000000e+03 -9.999000000000000000e+03 -9.999000000000000000e+03 -9.999000000000000000e+03 -9.999000000000000000e+03 -9.999000000000000000e+03 -9.999000000000000000e+03 -9.999000000000000000e+03
-9.999000000000000000e+03 -9.999000000000000000e+03 -9.999000000000000000e+03 -9.999000000000000000e+03 -9.999000000000000000e+03 -9.999000000000000000e+03 -9.999000000000000000e+03 -9.999000000000000000e+03 -9.999000000000000000e+03 -9.999000000000000000e+03 -9.999000000000000000e+03 -9.999000000000000000e+03 -9.999000000000000000e+03 -9.999000000000000000e+03 -9.999000000000000000e+03 -9.999000000000000000e+03 -9.999000000000000000e+03 -9.999000000000000000e+03 -9.999000000000000000e+03 -9.999000000000000000e+03 -9.999000000000000000e+03 -9.999000000000000000e+03 -9.999000000000000000e+03
